;FLAVOR:Marlin
;TIME:264
;Filament used: 0.139967m
;Layer height: 0.2
;MINX:83.043
;MINY:85.495
;MINZ:0.2
;MAXX:124.414
;MAXY:123.411
;MAXZ:1.4
;Generated with Cura_SteamEngine 4.11.0
M140 S60
M105
M190 S60
M104 S200
M105
M109 S200
M82 ;absolute extrusion mode
G21 ;metric values
G90 ;absolute positioning
M82 ;set extruder to absolute mode
M107 ;start with the fan off
G28 X0 Y0 ;move X/Y to min endstops
G28 Z0 ;move Z to min endstops
G1 Z15.0 F100 ;move the platform down 15mm
G92 E0 ;zero the extruded length
G1 F200 E3 ;extrude 3mm of feed stock
G92 E0 ;zero the extruded length again
G1 F100
G0 Y20 F100
M117 Printing...
G5
G92 E0
G92 E0
G1 F2400 E-6
;LAYER_COUNT:7
;LAYER:0
M107
M204 S3000
M205 X10 Y10
G1 F600 Z0.275
G0 F3000 X91.265 Y87.545 Z0.275
M204 S1800
M205 X8 Y8
;TYPE:SKIRT
G1 F600 Z0.2
G1 F2400 E0
G1 X91.673 Y87.134 E0.02697
G1 X92.133 Y86.782 E0.05394
G1 X92.757 Y86.441 E0.08705
G1 X92.998 Y86.335 E0.09931
G1 X93.543 Y86.139 E0.12628
G1 X93.932 Y86.046 E0.1449
G1 X94.425 Y85.923 E0.16856
G1 X94.996 Y85.822 E0.19556
G1 X95.575 Y85.8 E0.22254
G1 X96.151 Y85.858 E0.2495
G1 X96.714 Y85.995 E0.27648
G1 X97.253 Y86.208 E0.30347
G1 X97.783 Y86.501 E0.33167
G1 X98.281 Y86.149 E0.36006
G1 X98.442 Y86.056 E0.36872
G1 X98.963 Y85.802 E0.39571
G1 X99.513 Y85.621 E0.42267
G1 X100.083 Y85.518 E0.44964
G1 X100.662 Y85.495 E0.47662
G1 X101.239 Y85.551 E0.50362
G1 X101.806 Y85.701 E0.53093
G1 X102.528 Y85.61 E0.56481
G1 X102.695 Y85.606 E0.57259
G1 X103.274 Y85.632 E0.59958
G1 X103.844 Y85.738 E0.62658
G1 X104.393 Y85.921 E0.65352
G1 X104.913 Y86.177 E0.68051
G1 X105.392 Y86.503 E0.70749
G1 X105.708 Y86.778 E0.727
G1 X106.128 Y87.182 E0.75413
G1 X106.516 Y87.611 E0.78107
G1 X106.842 Y88.09 E0.80805
G1 X107.1 Y88.61 E0.83508
G1 X107.283 Y89.159 E0.86202
G1 X107.308 Y89.296 E0.86851
G1 X107.475 Y89.772 E0.892
G1 X107.563 Y90.09 E0.90736
G1 X107.678 Y90.657 E0.9343
G1 X107.715 Y91.236 E0.96132
G1 X107.701 Y91.417 E0.96977
G1 X107.884 Y91.441 E0.97836
G1 X108.079 Y91.098 E0.99674
G1 X108.431 Y90.638 E1.02371
G1 X108.844 Y90.231 E1.05071
G1 X109.48 Y89.779 E1.08704
G1 X109.641 Y89.686 E1.0957
G1 X110.162 Y89.432 E1.12269
G1 X110.712 Y89.251 E1.14965
G1 X111.282 Y89.148 E1.17662
G1 X111.861 Y89.125 E1.2036
G1 X112.438 Y89.181 E1.2306
G1 X113.003 Y89.33 E1.2578
G1 X113.729 Y89.239 E1.29187
G1 X113.896 Y89.235 E1.29965
G1 X114.475 Y89.261 E1.32664
G1 X115.045 Y89.367 E1.35364
G1 X115.594 Y89.55 E1.38058
G1 X116.114 Y89.806 E1.40757
G1 X116.593 Y90.132 E1.43455
G1 X116.912 Y90.411 E1.45429
G1 X117.332 Y90.816 E1.48145
G1 X117.721 Y91.246 E1.50845
G1 X118.046 Y91.725 E1.53541
G1 X118.302 Y92.244 E1.56235
G1 X118.485 Y92.794 E1.58934
G1 X118.511 Y92.937 E1.59611
G1 X118.677 Y93.416 E1.61972
G1 X118.764 Y93.734 E1.63507
G1 X118.878 Y94.302 E1.66205
G1 X118.913 Y94.88 E1.68901
G1 X118.868 Y95.457 E1.71596
G1 X118.743 Y96.023 E1.74295
G1 X118.543 Y96.567 E1.76994
G1 X118.269 Y97.077 E1.7969
G1 X117.939 Y97.528 E1.82292
G1 X118.094 Y98.077 E1.84948
G1 X118.173 Y98.651 E1.87646
G1 X118.173 Y99.23 E1.90342
G1 X118.092 Y99.804 E1.93041
G1 X118.027 Y100.032 E1.94145
G1 X118.346 Y100.249 E1.95942
G1 X118.775 Y100.638 E1.98638
G1 X119.146 Y101.083 E2.01336
G1 X119.453 Y101.575 E2.04036
G1 X119.689 Y102.104 E2.06734
G1 X119.849 Y102.66 E2.09428
G1 X119.92 Y103.09 E2.11457
G1 X119.954 Y103.668 E2.14153
G1 X119.908 Y104.246 E2.16853
G1 X119.783 Y104.811 E2.19548
G1 X119.581 Y105.354 E2.22245
G1 X119.459 Y105.58 E2.23441
G1 X119.806 Y106.07 E2.26237
G1 X119.899 Y106.231 E2.27103
G1 X120.153 Y106.752 E2.29802
G1 X120.334 Y107.302 E2.32498
G1 X120.437 Y107.872 E2.35195
G1 X120.46 Y108.451 E2.37893
G1 X120.404 Y109.028 E2.40593
G1 X120.255 Y109.594 E2.43318
G1 X120.345 Y110.317 E2.46711
G1 X120.349 Y110.484 E2.47488
G1 X120.323 Y111.063 E2.50187
G1 X120.257 Y111.42 E2.51878
G1 X120.598 Y111.503 E2.53512
G1 X121.137 Y111.716 E2.56211
G1 X121.771 Y112.07 E2.59592
G1 X122.25 Y112.396 E2.6229
G1 X122.69 Y112.796 E2.65059
G1 X122.783 Y112.86 E2.65584
G1 X123.213 Y113.249 E2.68284
G1 X123.585 Y113.693 E2.70981
G1 X123.892 Y114.184 E2.73678
G1 X124.129 Y114.713 E2.76377
G1 X124.29 Y115.269 E2.79072
G1 X124.372 Y115.822 E2.81676
G1 X124.407 Y116.254 E2.83694
G1 X124.414 Y116.833 E2.8639
G1 X124.341 Y117.408 E2.89089
G1 X124.219 Y117.987 E2.91844
G1 X124.066 Y118.546 E2.94543
G1 X123.809 Y119.132 E2.97522
G1 X123.539 Y119.639 E3.00197
G1 X123.232 Y120.131 E3.02897
G1 X122.861 Y120.575 E3.05592
G1 X122.232 Y121.13 E3.09498
G1 X122.054 Y121.369 E3.10885
G1 X121.647 Y121.781 E3.13582
G1 X121.187 Y122.134 E3.16282
G1 X120.559 Y122.477 E3.19614
G1 X120.318 Y122.583 E3.2084
G1 X119.773 Y122.779 E3.23537
G1 X119.206 Y122.898 E3.26234
G1 X118.628 Y122.938 E3.28932
G1 X118.05 Y122.898 E3.3163
G1 X117.483 Y122.779 E3.34328
G1 X116.959 Y122.592 E3.36919
G1 X116.527 Y122.405 E3.3911
G1 X116.012 Y122.139 E3.4181
G1 X115.888 Y122.048 E3.42526
G1 X115.63 Y122.303 E3.44215
G1 X114.991 Y122.757 E3.47865
G1 X114.83 Y122.85 E3.48731
G1 X114.309 Y123.104 E3.5143
G1 X113.759 Y123.285 E3.54126
G1 X113.189 Y123.388 E3.56823
G1 X112.61 Y123.411 E3.59521
G1 X112.033 Y123.355 E3.6222
G1 X111.469 Y123.206 E3.64937
G1 X110.691 Y123.298 E3.68585
G1 X110.525 Y123.3 E3.69358
G1 X109.946 Y123.267 E3.72058
G1 X109.378 Y123.154 E3.74755
G1 X108.83 Y122.965 E3.77454
G1 X108.314 Y122.702 E3.80151
G1 X107.839 Y122.371 E3.82847
G1 X107.566 Y122.13 E3.84542
G1 X107.144 Y121.725 E3.87266
G1 X106.755 Y121.296 E3.89962
G1 X106.428 Y120.818 E3.92659
G1 X106.17 Y120.299 E3.95358
G1 X105.987 Y119.75 E3.98053
G1 X105.964 Y119.625 E3.98644
G1 X105.813 Y119.633 E3.99349
G1 X105.236 Y119.582 E4.02046
G1 X104.909 Y119.526 E4.03591
G1 X104.556 Y119.986 E4.06291
G1 X104.143 Y120.392 E4.08987
G1 X103.51 Y120.841 E4.12601
G1 X103.349 Y120.934 E4.13467
G1 X102.828 Y121.188 E4.16166
G1 X102.278 Y121.369 E4.18862
G1 X101.708 Y121.472 E4.21559
G1 X101.129 Y121.495 E4.24257
G1 X100.552 Y121.439 E4.26957
G1 X99.988 Y121.29 E4.29673
G1 X99.262 Y121.381 E4.3308
G1 X99.095 Y121.385 E4.33858
G1 X98.516 Y121.359 E4.36557
G1 X97.946 Y121.253 E4.39256
G1 X97.397 Y121.07 E4.41951
G1 X96.877 Y120.814 E4.4465
G1 X96.398 Y120.488 E4.47348
G1 X96.082 Y120.212 E4.49301
G1 X95.658 Y119.804 E4.52041
G1 X95.269 Y119.375 E4.54738
G1 X94.943 Y118.896 E4.57436
G1 X94.686 Y118.377 E4.60133
G1 X94.503 Y117.827 E4.62832
G1 X94.313 Y117.204 E4.65865
G1 X94.226 Y116.886 E4.674
G1 X94.112 Y116.318 E4.70097
G1 X94.077 Y115.74 E4.72794
G1 X94.122 Y115.163 E4.75489
G1 X94.161 Y114.989 E4.76319
G1 X94.079 Y114.979 E4.76704
G1 X93.879 Y115.332 E4.78593
G1 X93.527 Y115.792 E4.8129
G1 X93.115 Y116.199 E4.83987
G1 X92.476 Y116.653 E4.87637
G1 X92.315 Y116.746 E4.88502
G1 X91.794 Y117 E4.91201
G1 X91.244 Y117.181 E4.93897
G1 X90.674 Y117.284 E4.96595
G1 X90.095 Y117.307 E4.99293
G1 X89.518 Y117.251 E5.01992
G1 X88.954 Y117.102 E5.04708
G1 X88.176 Y117.194 E5.08356
G1 X88.01 Y117.196 E5.09129
G1 X87.431 Y117.163 E5.1183
G1 X86.863 Y117.05 E5.14526
G1 X86.315 Y116.861 E5.17226
G1 X85.799 Y116.598 E5.19922
G1 X85.324 Y116.267 E5.22618
G1 X85.051 Y116.026 E5.24314
G1 X84.629 Y115.621 E5.27038
G1 X84.24 Y115.192 E5.29734
G1 X83.913 Y114.714 E5.32431
G1 X83.655 Y114.195 E5.3513
G1 X83.472 Y113.646 E5.37824
G1 X83.279 Y113.016 E5.40892
G1 X83.192 Y112.698 E5.42428
G1 X83.078 Y112.13 E5.45125
G1 X83.043 Y111.552 E5.47822
G1 X83.088 Y110.975 E5.50516
G1 X83.213 Y110.409 E5.53215
G1 X83.413 Y109.865 E5.55914
G1 X83.687 Y109.355 E5.5861
G1 X84.018 Y108.902 E5.61223
G1 X83.865 Y108.361 E5.63841
G1 X83.785 Y107.787 E5.66539
G1 X83.785 Y107.208 E5.69235
G1 X83.864 Y106.634 E5.71933
G1 X84.022 Y106.077 E5.74629
G1 X84.255 Y105.546 E5.77329
G1 X84.555 Y105.058 E5.79997
G1 X84.746 Y104.79 E5.81529
G1 X85.104 Y104.355 E5.84152
G1 X85.354 Y104.002 E5.86167
G1 X85.751 Y103.58 E5.88864
G1 X86.203 Y103.217 E5.91564
G1 X86.901 Y102.824 E5.95294
G1 X87.438 Y102.586 E5.98029
G1 X87.983 Y102.389 E6.00727
G1 X88.549 Y102.268 E6.03422
G1 X89.127 Y102.226 E6.06121
G1 X89.705 Y102.264 E6.08818
G1 X90.272 Y102.382 E6.11515
G1 X90.833 Y102.579 E6.14284
G1 X91.356 Y102.828 E6.16981
G1 X91.491 Y102.916 E6.17731
G1 X91.58 Y102.767 E6.18539
G1 X91.255 Y102.279 E6.21269
G1 X91.001 Y101.758 E6.23968
G1 X90.82 Y101.208 E6.26665
G1 X90.717 Y100.638 E6.29362
G1 X90.694 Y100.059 E6.3206
G1 X90.75 Y99.482 E6.34759
G1 X90.899 Y98.918 E6.37476
G1 X90.808 Y98.192 E6.40883
G1 X90.804 Y98.025 E6.4166
G1 X90.83 Y97.446 E6.44359
G1 X90.936 Y96.876 E6.47059
G1 X91.119 Y96.327 E6.49754
G1 X91.375 Y95.807 E6.52452
G1 X91.45 Y95.697 E6.53072
G1 X91.393 Y95.639 E6.53451
G1 X91.072 Y95.215 E6.55927
G1 X90.761 Y94.746 E6.58548
G1 X90.475 Y94.242 E6.61246
G1 X90.261 Y93.704 E6.63942
G1 X90.09 Y92.921 E6.67674
G1 X90.048 Y92.568 E6.69329
G1 X90.02 Y91.99 E6.72024
G1 X90.047 Y91.688 E6.73436
G1 X90.02 Y91.358 E6.74977
G1 X90.013 Y90.779 E6.77674
G1 X90.086 Y90.204 E6.80373
G1 X90.237 Y89.645 E6.83069
G1 X90.362 Y89.359 E6.84522
G1 X90.432 Y89.058 E6.85961
G1 X90.639 Y88.517 E6.88658
G1 X90.918 Y88.01 E6.91353
G1 X91.265 Y87.545 E6.94055
M204 S3000
M205 X10 Y10
G0 F3000 X91.841 Y87.746
M204 S1800
M205 X8 Y8
G1 F2400 X92.245 Y87.389 E6.96565
G1 X92.697 Y87.095 E6.99076
G1 X93.223 Y86.848 E7.01782
G1 X93.732 Y86.668 E7.04296
G1 X94.068 Y86.589 E7.05903
G1 X94.561 Y86.466 E7.08269
G1 X95.092 Y86.375 E7.10778
G1 X95.631 Y86.363 E7.13288
G1 X96.166 Y86.431 E7.15799
G1 X96.685 Y86.577 E7.1831
G1 X97.278 Y86.855 E7.21359
G1 X97.829 Y87.2 E7.24387
G1 X98.159 Y86.904 E7.26451
G1 X98.722 Y86.541 E7.2957
G1 X99.208 Y86.307 E7.32082
G1 X99.723 Y86.147 E7.34593
G1 X100.256 Y86.064 E7.37105
G1 X100.795 Y86.062 E7.39614
G1 X101.329 Y86.139 E7.42127
G1 X101.786 Y86.272 E7.44343
G1 X101.85 Y86.253 E7.44654
G1 X102.542 Y86.17 E7.47899
G1 X102.709 Y86.166 E7.48677
G1 X103.247 Y86.193 E7.51185
G1 X103.776 Y86.299 E7.53697
G1 X104.283 Y86.483 E7.56209
G1 X104.758 Y86.739 E7.58721
G1 X105.319 Y87.182 E7.6205
G1 X105.739 Y87.586 E7.64764
G1 X106.099 Y87.987 E7.67273
G1 X106.396 Y88.438 E7.69787
G1 X106.623 Y88.927 E7.72298
G1 X106.775 Y89.444 E7.74807
G1 X106.935 Y89.921 E7.7715
G1 X107.023 Y90.239 E7.78686
G1 X107.128 Y90.768 E7.81197
G1 X107.154 Y91.307 E7.8371
G1 X107.099 Y91.843 E7.86219
G1 X107.07 Y91.958 E7.86771
G1 X107.336 Y91.945 E7.88011
G1 X107.872 Y91.998 E7.90519
G1 X108.205 Y92.081 E7.92117
G1 X108.331 Y91.776 E7.93654
G1 X108.609 Y91.314 E7.96165
G1 X108.952 Y90.898 E7.98675
G1 X109.353 Y90.538 E8.01185
G1 X109.921 Y90.171 E8.04334
G1 X110.407 Y89.937 E8.06845
G1 X110.922 Y89.777 E8.09356
G1 X111.455 Y89.694 E8.11868
G1 X111.994 Y89.692 E8.14378
G1 X112.528 Y89.769 E8.1689
G1 X112.984 Y89.902 E8.19102
G1 X113.051 Y89.882 E8.19428
G1 X113.743 Y89.799 E8.22673
G1 X113.91 Y89.795 E8.23451
G1 X114.448 Y89.822 E8.25959
G1 X114.977 Y89.928 E8.28471
G1 X115.484 Y90.112 E8.30983
G1 X115.959 Y90.368 E8.33495
G1 X116.524 Y90.814 E8.36847
G1 X116.944 Y91.219 E8.39564
G1 X117.303 Y91.621 E8.42074
G1 X117.599 Y92.072 E8.44586
G1 X117.825 Y92.561 E8.47094
G1 X117.977 Y93.079 E8.49608
G1 X118.137 Y93.563 E8.51981
G1 X118.224 Y93.881 E8.53517
G1 X118.327 Y94.411 E8.56031
G1 X118.351 Y94.949 E8.58538
G1 X118.296 Y95.486 E8.61052
G1 X118.161 Y96.008 E8.63562
G1 X117.951 Y96.505 E8.66075
G1 X117.67 Y96.965 E8.68585
G1 X117.324 Y97.378 E8.71094
G1 X117.283 Y97.415 E8.71351
G1 X117.446 Y97.815 E8.73362
G1 X117.573 Y98.339 E8.75873
G1 X117.622 Y98.876 E8.78384
G1 X117.592 Y99.414 E8.80893
G1 X117.482 Y99.942 E8.83404
G1 X117.372 Y100.29 E8.85103
G1 X117.835 Y100.567 E8.87616
G1 X118.252 Y100.908 E8.90124
G1 X118.615 Y101.308 E8.92639
G1 X118.914 Y101.756 E8.95147
G1 X119.143 Y102.244 E8.97657
G1 X119.298 Y102.761 E9.00171
G1 X119.364 Y103.161 E9.02058
G1 X119.393 Y103.7 E9.04572
G1 X119.342 Y104.236 E9.07079
G1 X119.212 Y104.76 E9.09593
G1 X119.006 Y105.258 E9.12102
G1 X118.776 Y105.642 E9.14186
G1 X119.051 Y105.948 E9.16102
G1 X119.414 Y106.511 E9.19221
G1 X119.648 Y106.997 E9.21733
G1 X119.808 Y107.512 E9.24244
G1 X119.891 Y108.045 E9.26756
G1 X119.893 Y108.584 E9.29266
G1 X119.816 Y109.118 E9.31778
G1 X119.683 Y109.576 E9.33999
G1 X119.704 Y109.648 E9.34348
G1 X119.785 Y110.331 E9.37551
G1 X119.789 Y110.498 E9.38329
G1 X119.762 Y111.036 E9.40837
G1 X119.656 Y111.565 E9.43349
G1 X119.544 Y111.875 E9.44884
G1 X120.05 Y111.939 E9.47259
G1 X120.569 Y112.085 E9.49769
G1 X121.162 Y112.363 E9.52819
G1 X121.489 Y112.554 E9.54582
G1 X121.933 Y112.86 E9.57093
G1 X122.327 Y113.228 E9.59604
G1 X122.466 Y113.324 E9.6039
G1 X122.86 Y113.692 E9.62901
G1 X123.196 Y114.114 E9.65412
G1 X123.465 Y114.581 E9.67922
G1 X123.663 Y115.083 E9.70435
G1 X123.814 Y115.867 E9.74152
G1 X123.849 Y116.299 E9.76171
G1 X123.853 Y116.838 E9.7868
G1 X123.777 Y117.372 E9.81192
G1 X123.655 Y117.95 E9.83943
G1 X123.499 Y118.466 E9.86453
G1 X123.315 Y118.869 E9.88516
G1 X123.045 Y119.376 E9.9119
G1 X122.757 Y119.832 E9.93702
G1 X122.405 Y120.24 E9.96211
G1 X121.842 Y120.726 E9.99674
G1 X121.824 Y120.756 E9.99837
G1 X121.478 Y121.169 E10.02346
G1 X121.074 Y121.527 E10.04859
G1 X120.623 Y121.821 E10.07366
G1 X120.093 Y122.07 E10.10093
G1 X119.584 Y122.25 E10.12607
G1 X119.055 Y122.353 E10.15116
G1 X118.516 Y122.376 E10.17628
G1 X117.98 Y122.32 E10.20138
G1 X117.458 Y122.185 E10.22648
G1 X116.749 Y121.891 E10.26222
G1 X116.271 Y121.641 E10.28734
G1 X115.803 Y121.293 E10.3145
G1 X115.521 Y121.636 E10.33518
G1 X115.12 Y121.997 E10.3603
G1 X114.55 Y122.365 E10.39189
G1 X114.064 Y122.599 E10.41701
G1 X113.549 Y122.759 E10.44212
G1 X113.016 Y122.842 E10.46724
G1 X112.477 Y122.844 E10.49234
G1 X111.943 Y122.767 E10.51746
G1 X111.484 Y122.633 E10.53972
G1 X111.391 Y122.66 E10.54423
G1 X110.684 Y122.738 E10.57735
G1 X110.518 Y122.74 E10.58508
G1 X109.98 Y122.706 E10.61019
G1 X109.452 Y122.594 E10.63532
G1 X108.947 Y122.404 E10.66044
G1 X108.476 Y122.143 E10.68552
G1 X107.954 Y121.726 E10.71663
G1 X107.532 Y121.321 E10.74386
G1 X107.171 Y120.92 E10.76899
G1 X106.874 Y120.47 E10.79409
G1 X106.647 Y119.981 E10.8192
G1 X106.494 Y119.464 E10.8443
G1 X106.357 Y119.034 E10.86532
G1 X106.065 Y119.07 E10.87902
G1 X105.526 Y119.055 E10.90412
G1 X104.995 Y118.961 E10.92923
G1 X104.656 Y118.848 E10.94587
G1 X104.379 Y119.309 E10.97092
G1 X104.035 Y119.724 E10.99602
G1 X103.634 Y120.085 E11.02114
G1 X103.069 Y120.449 E11.05244
G1 X102.583 Y120.683 E11.07755
G1 X102.068 Y120.843 E11.10266
G1 X101.535 Y120.926 E11.12778
G1 X100.996 Y120.928 E11.15288
G1 X100.462 Y120.851 E11.178
G1 X100.006 Y120.718 E11.20012
G1 X99.931 Y120.74 E11.20376
G1 X99.248 Y120.821 E11.23579
G1 X99.081 Y120.825 E11.24356
G1 X98.543 Y120.798 E11.26865
G1 X98.014 Y120.692 E11.29377
G1 X97.507 Y120.508 E11.31888
G1 X97.032 Y120.252 E11.34401
G1 X96.47 Y119.809 E11.37733
G1 X96.046 Y119.401 E11.40473
G1 X95.686 Y118.999 E11.42986
G1 X95.39 Y118.549 E11.45494
G1 X95.163 Y118.06 E11.48004
G1 X95.011 Y117.542 E11.50518
G1 X94.853 Y117.057 E11.52893
G1 X94.766 Y116.739 E11.54428
G1 X94.663 Y116.209 E11.56942
G1 X94.639 Y115.671 E11.5945
G1 X94.694 Y115.134 E11.61964
G1 X94.829 Y114.612 E11.64474
G1 X94.901 Y114.442 E11.65334
G1 X94.601 Y114.463 E11.66734
G1 X94.064 Y114.421 E11.69242
G1 X93.752 Y114.349 E11.70733
G1 X93.626 Y114.653 E11.72266
G1 X93.349 Y115.115 E11.74774
G1 X93.006 Y115.532 E11.77288
G1 X92.605 Y115.893 E11.79801
G1 X92.035 Y116.261 E11.8296
G1 X91.549 Y116.495 E11.85471
G1 X91.034 Y116.655 E11.87983
G1 X90.501 Y116.738 E11.90494
G1 X89.962 Y116.74 E11.93004
G1 X89.428 Y116.663 E11.95516
G1 X88.969 Y116.529 E11.97743
G1 X88.876 Y116.556 E11.98194
G1 X88.169 Y116.634 E12.01506
G1 X88.003 Y116.636 E12.02279
G1 X87.465 Y116.602 E12.04789
G1 X86.937 Y116.49 E12.07302
G1 X86.432 Y116.3 E12.09815
G1 X85.961 Y116.039 E12.12322
G1 X85.439 Y115.622 E12.15433
G1 X85.017 Y115.217 E12.18157
G1 X84.656 Y114.816 E12.20669
G1 X84.359 Y114.366 E12.2318
G1 X84.132 Y113.877 E12.2569
G1 X83.979 Y113.36 E12.28201
G1 X83.819 Y112.869 E12.30605
G1 X83.732 Y112.551 E12.32141
G1 X83.629 Y112.021 E12.34655
G1 X83.605 Y111.483 E12.37162
G1 X83.66 Y110.946 E12.39676
G1 X83.795 Y110.424 E12.42186
