;FLAVOR:Marlin
;TIME:335
;Filament used: 0.231555m
;Layer height: 0.2
;MINX:91.596
;MINY:91.871
;MINZ:0.2
;MAXX:119.688
;MAXY:117.493
;MAXZ:5.2
;Generated with Cura_SteamEngine 4.11.0
M140 S60
M105
M190 S60
M104 S200
M105
M109 S200
M82 ;absolute extrusion mode
G21 ;metric values
G90 ;absolute positioning
M82 ;set extruder to absolute mode
M107 ;start with the fan off
G28 X0 Y0 ;move X/Y to min endstops
G28 Z0 ;move Z to min endstops
G1 Z15.0 F100 ;move the platform down 15mm
G92 E0 ;zero the extruded length
G1 F200 E3 ;extrude 3mm of feed stock
G92 E0 ;zero the extruded length again
G1 F100
G0 Y20 F100
M117 Printing...
G5
G92 E0
G92 E0
G1 F2400 E-6
;LAYER_COUNT:26
;LAYER:0
M107
M204 S3000
M205 X10 Y10
G1 F600 Z0.275
G0 F3000 X96.093 Y93.961 Z0.275
M204 S1800
M205 X8 Y8
;TYPE:SKIRT
G1 F600 Z0.2
G1 F2400 E0
G1 X96.505 Y93.554 E0.02697
G1 X96.969 Y93.207 E0.05395
G1 X97.476 Y92.927 E0.08092
G1 X97.893 Y92.759 E0.10185
G1 X98.759 Y92.464 E0.14445
G1 X99.377 Y92.305 E0.17416
G1 X100.214 Y92.156 E0.21375
G1 X100.752 Y92.096 E0.23896
G1 X102.13 Y92.031 E0.30319
G1 X102.709 Y92.043 E0.33016
G1 X103.281 Y92.136 E0.35714
G1 X103.835 Y92.306 E0.38413
G1 X104.36 Y92.55 E0.41109
G1 X104.8 Y92.831 E0.4354
G1 X105.326 Y93.214 E0.46569
G1 X105.77 Y93.586 E0.49267
G1 X105.792 Y93.611 E0.49422
G1 X106.202 Y93.25 E0.51965
G1 X106.685 Y92.931 E0.54661
G1 X107.477 Y92.584 E0.58687
G1 X108.469 Y92.267 E0.63536
G1 X108.886 Y92.157 E0.65544
G1 X109.874 Y91.95 E0.70245
G1 X110.448 Y91.871 E0.72943
G1 X111.027 Y91.871 E0.75639
G1 X111.601 Y91.951 E0.78337
G1 X112.056 Y92.074 E0.80532
G1 X113.188 Y92.449 E0.86085
G1 X113.724 Y92.669 E0.88783
G1 X114.225 Y92.96 E0.91481
G1 X114.656 Y93.295 E0.94022
G1 X115.379 Y93.937 E0.98525
G1 X115.784 Y94.351 E1.01222
G1 X116.031 Y94.669 E1.03097
G1 X116.68 Y95.596 E1.08366
G1 X117.431 Y96.663 E1.14441
G1 X117.93 Y97.405 E1.18605
G1 X118.154 Y97.779 E1.20635
G1 X118.582 Y98.585 E1.24884
G1 X118.818 Y99.114 E1.27582
G1 X118.951 Y99.549 E1.297
G1 X119.155 Y100.376 E1.33666
G1 X119.207 Y100.617 E1.34814
G1 X119.374 Y101.519 E1.39086
G1 X119.443 Y102.215 E1.42342
G1 X119.459 Y103.187 E1.46869
G1 X119.442 Y103.646 E1.49008
G1 X119.359 Y104.537 E1.53175
G1 X119.343 Y104.675 E1.53821
G1 X119.52 Y105.281 E1.56761
G1 X119.644 Y105.847 E1.59459
G1 X119.688 Y106.425 E1.62158
G1 X119.616 Y107.229 E1.65917
G1 X119.333 Y108.74 E1.73075
G1 X119.188 Y109.301 E1.75773
G1 X118.966 Y109.836 E1.78471
G1 X118.673 Y110.336 E1.81169
G1 X118.626 Y110.742 E1.83072
G1 X118.667 Y111.271 E1.85543
G1 X118.669 Y111.876 E1.8836
G1 X118.581 Y113.175 E1.94423
G1 X118.502 Y113.749 E1.97121
G1 X118.345 Y114.306 E1.99815
G1 X118.113 Y114.837 E2.02513
G1 X117.81 Y115.331 E2.05212
G1 X117.442 Y115.778 E2.07908
G1 X116.864 Y116.286 E2.11491
G1 X116.312 Y116.688 E2.14671
G1 X115.821 Y116.996 E2.1737
G1 X115.292 Y117.234 E2.20071
G1 X114.736 Y117.396 E2.22767
G1 X114.163 Y117.48 E2.25464
G1 X113.839 Y117.493 E2.26974
G1 X113.157 Y117.493 E2.3015
G1 X112.579 Y117.453 E2.32848
G1 X112.012 Y117.334 E2.35545
G1 X111.467 Y117.138 E2.38242
G1 X110.954 Y116.869 E2.40939
G1 X110.684 Y116.688 E2.42453
G1 X110.132 Y116.286 E2.45633
G1 X109.689 Y115.914 E2.48326
G1 X109.301 Y115.484 E2.51023
G1 X108.975 Y115.004 E2.53725
G1 X108.719 Y114.485 E2.5642
G1 X108.586 Y114.112 E2.58264
G1 X108.171 Y112.746 E2.64911
G1 X108.028 Y112.086 E2.68056
G1 X107.934 Y111.39 E2.71326
G1 X107.686 Y110.812 E2.74255
G1 X107.607 Y110.569 E2.75445
G1 X107.246 Y110.267 E2.77636
G1 X106.858 Y109.837 E2.80333
G1 X106.533 Y109.357 E2.83032
G1 X106.385 Y109.059 E2.84582
G1 X106.149 Y109.07 E2.85682
G1 X104.075 Y109.07 E2.95339
G1 X103.798 Y109.051 E2.96632
G1 X103.754 Y109.205 E2.97378
G1 X103.55 Y109.832 E3.00448
G1 X103.333 Y110.37 E3.03149
G1 X103.044 Y110.872 E3.05847
G1 X102.689 Y111.33 E3.08545
G1 X102.405 Y111.607 E3.10392
G1 X102.383 Y111.675 E3.10725
G1 X102.165 Y112.212 E3.13424
G1 X101.876 Y112.714 E3.16121
G1 X101.793 Y112.821 E3.16751
G1 X101.625 Y113.308 E3.1915
G1 X101.362 Y113.825 E3.21851
G1 X101.031 Y114.3 E3.24547
G1 X100.638 Y114.725 E3.27242
G1 X100.227 Y115.066 E3.29729
G1 X99.683 Y115.461 E3.3286
G1 X99.192 Y115.768 E3.35556
G1 X98.663 Y116.005 E3.38255
G1 X98.107 Y116.166 E3.4095
G1 X97.533 Y116.25 E3.43652
G1 X97.215 Y116.262 E3.45134
G1 X96.545 Y116.262 E3.48253
G1 X95.967 Y116.222 E3.50951
G1 X95.4 Y116.103 E3.53649
G1 X94.855 Y115.907 E3.56346
G1 X94.342 Y115.638 E3.59043
G1 X94.077 Y115.461 E3.60527
G1 X93.533 Y115.066 E3.63657
G1 X93.089 Y114.694 E3.66354
G1 X92.7 Y114.264 E3.69054
G1 X92.374 Y113.785 E3.71752
G1 X92.117 Y113.266 E3.74449
G1 X92.008 Y112.969 E3.75922
G1 X91.8 Y112.331 E3.79047
G1 X91.659 Y111.769 E3.81745
G1 X91.596 Y111.193 E3.84443
G1 X91.614 Y110.614 E3.87141
G1 X91.71 Y110.043 E3.89837
G1 X91.885 Y109.49 E3.92537
G1 X92.134 Y108.967 E3.95235
G1 X92.375 Y108.586 E3.97334
G1 X92.463 Y108.059 E3.99822
G1 X92.637 Y107.506 E4.02521
G1 X92.884 Y106.982 E4.05219
G1 X93.202 Y106.498 E4.07915
G1 X93.565 Y106.082 E4.10486
G1 X93.493 Y105.972 E4.11098
G1 X92.737 Y104.658 E4.18157
G1 X92.483 Y104.137 E4.20856
G1 X92.303 Y103.586 E4.23555
G1 X92.201 Y103.016 E4.26252
G1 X92.179 Y102.437 E4.2895
G1 X92.25 Y101.784 E4.32008
G1 X92.46 Y100.673 E4.37273
G1 X92.631 Y99.796 E4.41434
G1 X92.78 Y99.237 E4.44128
G1 X92.971 Y98.774 E4.4646
G1 X93.393 Y97.901 E4.50975
G1 X93.534 Y97.409 E4.53358
G1 X93.732 Y96.865 E4.56054
G1 X94.003 Y96.353 E4.58751
G1 X94.513 Y95.69 E4.62646
G1 X95.418 Y94.728 E4.68796
G1 X96.093 Y93.961 E4.73554
M204 S3000
M205 X10 Y10
G0 F3000 X96.514 Y94.331
M204 S1800
M205 X8 Y8
G1 F2400 X96.899 Y93.954 E4.76063
G1 X97.335 Y93.637 E4.78573
G1 X97.814 Y93.389 E4.81085
G1 X98.073 Y93.289 E4.82377
G1 X98.939 Y92.994 E4.86637
G1 X99.475 Y92.856 E4.89215
G1 X100.312 Y92.707 E4.93173
G1 X100.778 Y92.655 E4.95357
G1 X102.156 Y92.59 E5.0178
G1 X102.696 Y92.605 E5.04296
G1 X103.227 Y92.699 E5.06807
G1 X103.738 Y92.87 E5.09316
G1 X104.218 Y93.115 E5.11825
G1 X104.471 Y93.283 E5.13239
G1 X104.997 Y93.666 E5.16269
G1 X105.408 Y94.015 E5.1878
G1 X105.763 Y94.421 E5.21291
G1 X105.768 Y94.429 E5.21335
G1 X106.165 Y94.027 E5.23966
G1 X106.572 Y93.672 E5.26481
G1 X107.026 Y93.382 E5.28989
G1 X107.647 Y93.118 E5.32131
G1 X108.639 Y92.801 E5.36981
G1 X109.001 Y92.705 E5.38724
G1 X109.989 Y92.498 E5.43425
G1 X110.523 Y92.427 E5.45933
G1 X111.062 Y92.436 E5.48443
G1 X111.594 Y92.524 E5.50954
G1 X111.88 Y92.606 E5.5234
G1 X113.012 Y92.981 E5.57892
G1 X113.51 Y93.188 E5.60404
G1 X113.971 Y93.466 E5.6291
G1 X114.284 Y93.714 E5.6477
G1 X115.007 Y94.356 E5.69272
G1 X115.382 Y94.743 E5.71781
G1 X115.572 Y94.99 E5.73233
G1 X116.213 Y95.906 E5.78438
G1 X116.92 Y96.908 E5.84149
G1 X117.465 Y97.718 E5.88695
G1 X117.66 Y98.042 E5.90455
G1 X118.088 Y98.848 E5.94705
G1 X118.305 Y99.342 E5.97217
G1 X118.407 Y99.683 E5.98875
G1 X118.611 Y100.51 E6.02841
G1 X118.656 Y100.719 E6.03836
G1 X118.823 Y101.621 E6.08108
G1 X118.884 Y102.224 E6.1093
G1 X118.9 Y103.196 E6.15457
G1 X118.884 Y103.594 E6.17311
G1 X118.801 Y104.485 E6.21478
G1 X118.773 Y104.716 E6.22562
G1 X118.983 Y105.438 E6.26063
G1 X119.095 Y105.965 E6.28572
G1 X119.128 Y106.503 E6.31082
G1 X119.066 Y107.126 E6.33997
G1 X118.783 Y108.637 E6.41155
G1 X118.645 Y109.158 E6.43665
G1 X118.431 Y109.653 E6.46176
G1 X118.115 Y110.14 E6.48879
G1 X118.064 Y110.744 E6.51702
G1 X118.108 Y111.314 E6.54364
G1 X118.111 Y111.838 E6.56804
G1 X118.023 Y113.137 E6.62866
G1 X117.946 Y113.671 E6.65378
G1 X117.792 Y114.188 E6.6789
G1 X117.563 Y114.676 E6.704
G1 X117.265 Y115.125 E6.7291
G1 X116.903 Y115.525 E6.75422
G1 X116.534 Y115.833 E6.7766
G1 X115.982 Y116.235 E6.8084
G1 X115.524 Y116.52 E6.83351
G1 X115.028 Y116.733 E6.85865
G1 X114.507 Y116.871 E6.88375
G1 X113.839 Y116.933 E6.91499
G1 X113.157 Y116.933 E6.94674
G1 X112.619 Y116.893 E6.97186
G1 X112.093 Y116.774 E6.99697
G1 X111.591 Y116.579 E7.02205
G1 X111.014 Y116.235 E7.05333
G1 X110.462 Y115.833 E7.08513
G1 X110.051 Y115.485 E7.11021
G1 X109.696 Y115.079 E7.13532
G1 X109.405 Y114.625 E7.16043
G1 X109.122 Y113.949 E7.19455
G1 X108.707 Y112.583 E7.26103
G1 X108.583 Y112.011 E7.28828
G1 X108.48 Y111.244 E7.32432
G1 X108.219 Y110.639 E7.355
G1 X108.088 Y110.237 E7.37469
G1 X108.019 Y110.187 E7.37865
G1 X107.608 Y109.838 E7.40376
G1 X107.253 Y109.432 E7.42887
G1 X106.962 Y108.978 E7.45398
G1 X106.737 Y108.453 E7.48058
G1 X106.149 Y108.51 E7.50809
G1 X104.075 Y108.51 E7.60466
G1 X103.537 Y108.47 E7.62978
G1 X103.457 Y108.452 E7.6336
G1 X103.221 Y109.032 E7.66276
G1 X103.017 Y109.659 E7.69346
G1 X102.813 Y110.158 E7.71856
G1 X102.537 Y110.622 E7.7437
G1 X102.196 Y111.039 E7.76879
G1 X101.922 Y111.279 E7.78575
G1 X101.85 Y111.501 E7.79661
G1 X101.646 Y112 E7.82172
G1 X101.369 Y112.463 E7.84684
G1 X101.264 Y112.651 E7.85687
G1 X101.08 Y113.158 E7.88198
G1 X100.823 Y113.632 E7.90709
G1 X100.499 Y114.063 E7.9322
G1 X100.115 Y114.442 E7.95732
G1 X99.898 Y114.612 E7.97015
G1 X99.354 Y115.007 E8.00146
G1 X98.895 Y115.291 E8.02659
G1 X98.4 Y115.504 E8.05168
G1 X97.878 Y115.641 E8.07681
G1 X97.215 Y115.702 E8.10782
G1 X96.545 Y115.702 E8.13901
G1 X96.007 Y115.662 E8.16414
G1 X95.481 Y115.543 E8.18925
G1 X94.979 Y115.348 E8.21432
G1 X94.406 Y115.007 E8.24537
G1 X93.862 Y114.612 E8.27668
G1 X93.451 Y114.264 E8.30175
G1 X93.095 Y113.859 E8.32686
G1 X92.803 Y113.405 E8.352
G1 X92.54 Y112.795 E8.38293
G1 X92.332 Y112.157 E8.41418
G1 X92.204 Y111.634 E8.43925
G1 X92.154 Y111.097 E8.46436
G1 X92.184 Y110.558 E8.4895
G1 X92.293 Y110.03 E8.5146
G1 X92.479 Y109.524 E8.5397
G1 X92.783 Y108.982 E8.56864
G1 X92.915 Y108.788 E8.57957
G1 X92.925 Y108.684 E8.58443
G1 X93.017 Y108.153 E8.60953
G1 X93.186 Y107.641 E8.63463
G1 X93.429 Y107.159 E8.65977
G1 X93.74 Y106.719 E8.68486
G1 X94.114 Y106.33 E8.70998
G1 X94.316 Y106.166 E8.7221
G1 X93.978 Y105.692 E8.74921
G1 X93.222 Y104.378 E8.8198
G1 X92.988 Y103.892 E8.84491
G1 X92.829 Y103.377 E8.87001
G1 X92.748 Y102.844 E8.89512
G1 X92.746 Y102.305 E8.92021
G1 X92.8 Y101.888 E8.93979
G1 X93.009 Y100.78 E8.9923
G1 X93.18 Y99.903 E9.0339
G1 X93.322 Y99.383 E9.059
G1 X93.475 Y99.017 E9.07747
G1 X93.918 Y98.099 E9.12494
G1 X94.072 Y97.564 E9.15086
G1 X94.259 Y97.058 E9.17598
G1 X94.519 Y96.585 E9.20111
G1 X94.92 Y96.074 E9.23136
G1 X95.851 Y95.085 E9.2946
G1 X96.514 Y94.331 E9.34136
M204 S3000
M205 X10 Y10
G0 F3000 X96.934 Y94.701
M204 S1800
M205 X8 Y8
G1 F2400 X97.291 Y94.356 E9.36447
G1 X97.698 Y94.073 E9.38756
G1 X98.254 Y93.82 E9.416
G1 X99.12 Y93.525 E9.4586
G1 X99.573 Y93.408 E9.48039
G1 X100.41 Y93.259 E9.51997
G1 X100.805 Y93.214 E9.53848
G1 X102.183 Y93.149 E9.60272
G1 X102.679 Y93.166 E9.62583
G1 X103.165 Y93.262 E9.6489
G1 X103.63 Y93.435 E9.672
G1 X104.141 Y93.736 E9.69962
G1 X104.667 Y94.119 E9.72991
G1 X105.043 Y94.442 E9.753
G1 X105.363 Y94.822 E9.77613
G1 X105.655 Y95.342 E9.8039
G1 X106.564 Y94.421 E9.86415
G1 X106.94 Y94.097 E9.88726
G1 X107.362 Y93.838 E9.91032
G1 X107.817 Y93.651 E9.93323
G1 X108.809 Y93.334 E9.98172
G1 X109.115 Y93.253 E9.99646
G1 X110.103 Y93.046 E10.04346
G1 X110.595 Y92.984 E10.06655
G1 X111.091 Y93.002 E10.08967
G1 X111.704 Y93.137 E10.11889
G1 X112.836 Y93.512 E10.17442
G1 X113.292 Y93.706 E10.1975
G1 X113.912 Y94.133 E10.23255
G1 X114.635 Y94.775 E10.27757
G1 X115.113 Y95.312 E10.31105
G1 X115.756 Y96.229 E10.3632
G1 X116.502 Y97.288 E10.42352
G1 X117.001 Y98.03 E10.46515
G1 X117.165 Y98.304 E10.48002
G1 X117.593 Y99.11 E10.52252
G1 X117.863 Y99.817 E10.55776
G1 X118.067 Y100.644 E10.59742
G1 X118.106 Y100.821 E10.60586
G1 X118.273 Y101.723 E10.64857
G1 X118.324 Y102.233 E10.67244
G1 X118.34 Y103.205 E10.71771
G1 X118.327 Y103.542 E10.73341
G1 X118.244 Y104.433 E10.77508
G1 X118.202 Y104.76 E10.79043
G1 X118.445 Y105.594 E10.83088
G1 X118.545 Y106.08 E10.85398
G1 X118.566 Y106.576 E10.8771
G1 X118.515 Y107.023 E10.89805
G1 X118.232 Y108.534 E10.96963
G1 X118.102 Y109.013 E10.99274
G1 X117.897 Y109.464 E11.01581
G1 X117.618 Y109.881 E11.03917
G1 X117.561 Y109.953 E11.04345
G1 X117.563 Y110.021 E11.04662
G1 X117.503 Y110.739 E11.08017
G1 X117.55 Y111.357 E11.10903
G1 X117.552 Y111.8 E11.12966
G1 X117.464 Y113.099 E11.19028
G1 X117.391 Y113.59 E11.2134
G1 X117.24 Y114.062 E11.23647
G1 X117.015 Y114.504 E11.25957
G1 X116.722 Y114.904 E11.28265
G1 X116.204 Y115.381 E11.31544
G1 X115.652 Y115.783 E11.34724
G1 X115.229 Y116.041 E11.37031
G1 X114.77 Y116.229 E11.39341
G1 X114.287 Y116.34 E11.41648
G1 X113.839 Y116.373 E11.4374
G1 X113.157 Y116.373 E11.46916
G1 X112.663 Y116.333 E11.49224
G1 X112.181 Y116.214 E11.51535
G1 X111.725 Y116.02 E11.53843
G1 X111.344 Y115.783 E11.55932
G1 X110.792 Y115.381 E11.59112
G1 X110.416 Y115.057 E11.61423
G1 X110.096 Y114.678 E11.63733
G1 X109.842 Y114.252 E11.66042
G1 X109.658 Y113.786 E11.68375
G1 X109.243 Y112.42 E11.75023
G1 X109.138 Y111.936 E11.77329
G1 X109.017 Y111.04 E11.81539
G1 X108.751 Y110.466 E11.84485
G1 X108.564 Y109.89 E11.87305
G1 X107.973 Y109.411 E11.90847
G1 X107.653 Y109.031 E11.9316
G1 X107.399 Y108.605 E11.9547
G1 X107.177 Y108.025 E11.98362
G1 X107.121 Y107.788 E11.99496
G1 X106.581 Y107.92 E12.02084
G1 X106.149 Y107.95 E12.04101
G1 X104.075 Y107.95 E12.13758
G1 X103.581 Y107.91 E12.16066
G1 X103.094 Y107.789 E12.18402
G1 X102.961 Y108.211 E12.20463
G1 X102.739 Y108.654 E12.2277
G1 X102.689 Y108.859 E12.23753
G1 X102.485 Y109.486 E12.26823
G1 X102.294 Y109.944 E12.29133
G1 X102.032 Y110.365 E12.31442
G1 X101.706 Y110.739 E12.33753
G1 X101.436 Y110.966 E12.35395
G1 X101.127 Y111.785 E12.39471
G1 X100.757 Y112.328 E12.42531
G1 X100.535 Y113.001 E12.45831
G1 X100.285 Y113.429 E12.48139
G1 X99.97 Y113.812 E12.50448
G1 X99.569 Y114.159 E12.52917
G1 X99.025 Y114.554 E12.56047
G1 X98.601 Y114.812 E12.58359
G1 X98.142 Y114.999 E12.60666
G1 X97.658 Y115.11 E12.62979
G1 X97.215 Y115.142 E12.65047
G1 X96.545 Y115.142 E12.68167
G1 X96.051 Y115.102 E12.70474
G1 X95.569 Y114.983 E12.72786
G1 X95.113 Y114.789 E12.75094
G1 X94.735 Y114.554 E12.77166
G1 X94.191 Y114.159 E12.80297
G1 X93.815 Y113.837 E12.82602
G1 X93.495 Y113.457 E12.84915
G1 X93.24 Y113.032 E12.87223
G1 X93.073 Y112.622 E12.89284
G1 X92.865 Y111.984 E12.92409
G1 X92.749 Y111.501 E12.94722
G1 X92.713 Y111.007 E12.97028
G1 X92.757 Y110.513 E12.99338
G1 X92.879 Y110.032 E13.01648
G1 X93.077 Y109.577 E13.03959
G1 X93.458 Y108.985 E13.07237
G1 X93.57 Y108.25 E13.10699
G1 X93.735 Y107.782 E13.1301
G1 X93.972 Y107.347 E13.15316
G1 X94.277 Y106.956 E13.17625
G1 X94.733 Y106.548 E13.20475
G1 X94.853 Y106.46 E13.21168
G1 X94.998 Y106.083 E13.23048
G1 X94.836 Y105.929 E13.24089
G1 X94.463 Y105.413 E13.27054
G1 X93.707 Y104.099 E13.34113
G1 X93.495 Y103.651 E13.36421
G1 X93.358 Y103.174 E13.38732
G1 X93.299 Y102.681 E13.41044
G1 X93.35 Y101.992 E13.44261
G1 X93.559 Y100.888 E13.49493
G1 X93.73 Y100.011 E13.53653
G1 X93.979 Y99.261 E13.57333
G1 X94.446 Y98.295 E13.62329
G1 X94.611 Y97.719 E13.65119
G1 X94.786 Y97.254 E13.67433
G1 X95.033 Y96.824 E13.69742
G1 X95.328 Y96.458 E13.71931
G1 X96.254 Y95.474 E13.78222
G1 X96.934 Y94.701 E13.83016
M204 S3000
M205 X10 Y10
G0 F3000 X97.355 Y95.071
M204 S1800
M205 X8 Y8
G1 F2400 X97.68 Y94.762 E13.85104
G1 X98.054 Y94.515 E13.87191
G1 X98.434 Y94.35 E13.89121
G1 X99.3 Y94.055 E13.93381
G1 X99.671 Y93.959 E13.95165
G1 X100.508 Y93.81 E13.99124
G1 X100.831 Y93.774 E14.00637
G1 X102.209 Y93.709 E14.07061
G1 X102.657 Y93.728 E14.09149
G1 X103.095 Y93.826 E14.11239
G1 X103.509 Y94 E14.1333
G1 X103.811 Y94.189 E14.14989
G1 X104.337 Y94.572 E14.18018
G1 X104.675 Y94.867 E14.20107
G1 X104.955 Y95.218 E14.22198
G1 X105.25 Y95.828 E14.25353
G1 X105.451 Y96.445 E14.28375
G1 X105.494 Y96.632 E14.29268
G1 X105.718 Y96.167 E14.31672
G1 X106.073 Y95.714 E14.34352
G1 X106.962 Y94.814 E14.40242
G1 X107.305 Y94.524 E14.42334
G1 X107.693 Y94.3 E14.4442
G1 X107.988 Y94.185 E14.45894
G1 X108.98 Y93.868 E14.50743
G1 X109.23 Y93.802 E14.51947
G1 X110.218 Y93.595 E14.56648
G1 X110.664 Y93.542 E14.58739
G1 X111.111 Y93.569 E14.60824
G1 X111.527 Y93.669 E14.62817
G1 X112.659 Y94.044 E14.68369
G1 X113.071 Y94.222 E14.70459
G1 X113.54 Y94.552 E14.7313
G1 X114.263 Y95.194 E14.77632
