;FLAVOR:Marlin
;TIME:835
;Filament used: 1.10006m
;Layer height: 0.3
;MINX:86.961
;MINY:90.053
;MINZ:0.3
;MAXX:125.856
;MAXY:119.406
;MAXZ:24.9
;Generated with Cura_SteamEngine 4.11.0
M140 S60
M105
M190 S60
M104 S200
M105
M109 S200
M82 ;absolute extrusion mode
G21 ;metric values
G90 ;absolute positioning
M82 ;set extruder to absolute mode
M107 ;start with the fan off
G28 X0 Y0 ;move X/Y to min endstops
G28 Z0 ;move Z to min endstops
G1 Z15.0 F100 ;move the platform down 15mm
G92 E0 ;zero the extruded length
G1 F200 E3 ;extrude 3mm of feed stock
G92 E0 ;zero the extruded length again
G1 F100
G0 Y20 F100
M117 Printing...
G5
G92 E0
G92 E0
G1 F2400 E-6
;LAYER_COUNT:83
;LAYER:0
M107
M204 S3000
M205 X10 Y10
G1 F600 Z0.375
G0 F3000 X90.472 Y95.485 Z0.375
M204 S1800
M205 X8 Y8
;TYPE:SKIRT
G1 F600 Z0.3
G1 F2400 E0
G1 X90.752 Y95.223 E0.02678
G1 X91.257 Y94.793 E0.07311
G1 X91.54 Y94.572 E0.09819
G1 X92.057 Y94.203 E0.14255
G1 X92.366 Y94.003 E0.16826
G1 X92.906 Y93.685 E0.21203
G1 X93.24 Y93.508 E0.23844
G1 X93.844 Y93.222 E0.28511
G1 X94.196 Y93.074 E0.31178
G1 X94.802 Y92.852 E0.35686
G1 X95.131 Y92.747 E0.38098
G1 X95.726 Y92.583 E0.42409
G1 X96.096 Y92.499 E0.45059
G1 X96.739 Y92.383 E0.49623
G1 X97.096 Y92.334 E0.5214
G1 X97.72 Y92.276 E0.56517
G1 X98.353 Y92.249 E0.60942
G1 X98.973 Y92.259 E0.65273
G1 X99.334 Y92.28 E0.67799
G1 X99.967 Y92.345 E0.72244
G1 X100.313 Y92.395 E0.74685
G1 X100.904 Y92.506 E0.78885
G1 X101.682 Y92.707 E0.84498
G1 X101.768 Y92.494 E0.86102
G1 X102.056 Y91.991 E0.90151
G1 X102.41 Y91.533 E0.94194
G1 X102.824 Y91.127 E0.98244
G1 X103.29 Y90.783 E1.02289
G1 X103.798 Y90.506 E1.06331
G1 X104.502 Y90.256 E1.11549
G1 X104.743 Y90.194 E1.13287
G1 X105.578 Y90.067 E1.19186
G1 X105.856 Y90.053 E1.2113
G1 X106.609 Y90.083 E1.26394
G1 X106.824 Y90.111 E1.27908
G1 X107.392 Y90.225 E1.31955
G1 X107.939 Y90.417 E1.36004
G1 X108.437 Y90.672 E1.39912
G1 X108.722 Y90.749 E1.41974
G1 X109.27 Y90.938 E1.46023
G1 X109.786 Y91.201 E1.50068
G1 X110.252 Y91.525 E1.54032
G1 X110.352 Y91.558 E1.54768
G1 X111.566 Y91.982 E1.63749
G1 X111.877 Y91.982 E1.65921
G1 X112.451 Y92.061 E1.69968
G1 X113.074 Y92.242 E1.745
G1 X113.943 Y92.589 E1.81035
G1 X114.332 Y92.622 E1.83762
G1 X114.897 Y92.75 E1.87808
G1 X115.38 Y92.928 E1.91404
G1 X115.756 Y93.093 E1.94272
G1 X116.016 Y93.12 E1.96098
G1 X116.579 Y93.258 E2.00146
G1 X117.345 Y93.589 E2.05975
G1 X117.611 Y93.709 E2.08013
G1 X118.169 Y93.863 E2.12056
G1 X118.701 Y94.092 E2.16101
G1 X119.117 Y94.313 E2.19392
G1 X119.662 Y94.508 E2.23435
G1 X120.176 Y94.776 E2.27483
G1 X120.829 Y95.249 E2.33115
G1 X120.966 Y95.302 E2.34141
G1 X121.472 Y95.584 E2.38187
G1 X121.934 Y95.933 E2.42231
G1 X122.433 Y96.436 E2.4718
G1 X122.663 Y96.569 E2.49036
G1 X123.12 Y96.925 E2.53082
G1 X123.524 Y97.341 E2.57132
G1 X123.845 Y97.775 E2.60903
G1 X124.454 Y98.718 E2.68743
G1 X124.742 Y99.033 E2.71724
G1 X125.071 Y99.51 E2.75772
G1 X125.361 Y100.101 E2.8037
G1 X125.559 Y100.639 E2.84374
G1 X125.726 Y101.329 E2.89333
G1 X125.807 Y101.856 E2.93057
G1 X125.856 Y102.433 E2.97101
G1 X125.827 Y102.989 E3.0099
G1 X125.82 Y103.048 E3.01405
G1 X125.63 Y103.891 E3.07441
G1 X125.55 Y104.129 E3.09194
G1 X125.328 Y104.664 E3.1324
G1 X125.05 Y105.141 E3.17096
G1 X124.93 Y105.317 E3.18584
G1 X124.327 Y106.178 E3.25926
G1 X123.963 Y106.629 E3.29974
G1 X123.54 Y107.025 E3.34021
G1 X123.306 Y107.19 E3.36021
G1 X123.574 Y107.527 E3.39029
G1 X123.87 Y108.025 E3.43075
G1 X124.094 Y108.559 E3.4712
G1 X124.242 Y109.119 E3.51165
G1 X124.28 Y109.49 E3.5377
G1 X124.382 Y109.777 E3.55898
G1 X124.538 Y110.335 E3.59944
G1 X124.612 Y110.873 E3.63738
G1 X124.616 Y110.928 E3.64123
G1 X124.618 Y111.508 E3.68174
G1 X124.53 Y112.159 E3.72762
G1 X124.396 Y112.723 E3.76811
G1 X124.257 Y113.1 E3.79618
G1 X123.961 Y113.688 E3.84216
G1 X123.615 Y114.253 E3.88843
G1 X123.497 Y114.431 E3.90335
G1 X123.127 Y114.909 E3.94557
G1 X122.722 Y115.362 E3.98801
G1 X122.307 Y115.767 E4.02851
G1 X121.84 Y116.11 E4.06898
G1 X121.331 Y116.386 E4.10942
G1 X121.201 Y116.436 E4.11915
G1 X120.827 Y116.71 E4.15154
G1 X120.086 Y117.144 E4.21152
G1 X117.955 Y118.116 E4.37511
G1 X117.413 Y118.32 E4.41556
G1 X116.847 Y118.447 E4.45608
G1 X116.287 Y118.494 E4.49533
G1 X115.745 Y118.64 E4.53453
G1 X115.17 Y118.712 E4.57501
G1 X114.684 Y118.706 E4.60896
G1 X114.269 Y118.814 E4.63891
G1 X113.699 Y118.921 E4.67942
G1 X113.121 Y118.948 E4.71983
G1 X112.544 Y118.895 E4.7603
G1 X112.232 Y118.948 E4.78241
G1 X111.656 Y119.01 E4.82287
G1 X111.077 Y118.992 E4.86333
G1 X110.612 Y118.913 E4.89627
G1 X109.545 Y119.027 E4.97122
G1 X108.966 Y119.049 E5.0117
G1 X108.39 Y118.991 E5.05213
G1 X107.827 Y118.854 E5.0926
G1 X107.789 Y118.839 E5.09545
G1 X106.913 Y118.904 E5.15681
G1 X106.7 Y119 E5.17313
G1 X106.144 Y119.164 E5.21362
G1 X105.571 Y119.249 E5.25407
G1 X104.779 Y119.254 E5.30939
G1 X104.364 Y119.347 E5.3391
G1 X103.787 Y119.406 E5.37961
G1 X103.208 Y119.385 E5.42008
G1 X102.765 Y119.313 E5.45143
G1 X102.26 Y119.204 E5.48751
G1 X101.754 Y119.062 E5.52422
G1 X101.717 Y119.049 E5.52696
G1 X101.185 Y118.819 E5.56744
G1 X100.534 Y118.431 E5.62037
G1 X100.064 Y118.092 E5.66085
G1 X99.645 Y117.692 E5.70131
G1 X99.361 Y117.346 E5.73257
G1 X99.04 Y116.863 E5.77308
G1 X98.789 Y116.341 E5.81354
G1 X98.612 Y115.79 E5.85396
G1 X98.523 Y115.281 E5.89005
G1 X98.415 Y115.282 E5.89759
G1 X97.817 Y115.264 E5.93938
G1 X97.264 Y115.22 E5.97813
G1 X96.66 Y115.14 E6.02068
G1 X96.304 Y115.077 E6.04594
G1 X95.703 Y114.944 E6.08893
G1 X95.376 Y114.858 E6.11255
G1 X94.774 Y114.673 E6.15653
G1 X94.411 Y114.542 E6.18349
G1 X93.82 Y114.299 E6.22812
G1 X93.488 Y114.146 E6.25365
G1 X92.935 Y113.86 E6.29714
G1 X92.636 Y113.689 E6.3212
G1 X92.096 Y113.351 E6.36569
G1 X91.795 Y113.144 E6.39121
G1 X91.274 Y112.751 E6.43679
G1 X90.971 Y112.499 E6.46432
G1 X90.498 Y112.067 E6.50906
G1 X90.245 Y111.816 E6.53395
G1 X89.81 Y111.345 E6.57873
G1 X89.577 Y111.07 E6.60391
G1 X89.182 Y110.561 E6.64891
G1 X88.964 Y110.252 E6.67532
G1 X88.618 Y109.712 E6.72012
G1 X88.434 Y109.395 E6.74572
G1 X88.139 Y108.832 E6.79011
G1 X87.876 Y108.267 E6.83364
G1 X87.652 Y107.701 E6.87616
G1 X87.526 Y107.333 E6.90333
G1 X87.339 Y106.693 E6.9499
G1 X87.252 Y106.34 E6.97529
G1 X87.122 Y105.691 E7.02152
G1 X87.064 Y105.312 E7.0483
G1 X86.999 Y104.704 E7.09101
G1 X86.976 Y104.358 E7.11523
G1 X86.961 Y103.726 E7.15938
G1 X86.968 Y103.372 E7.18412
G1 X87.006 Y102.746 E7.22792
G1 X87.044 Y102.383 E7.25341
G1 X87.138 Y101.75 E7.29811
G1 X87.209 Y101.381 E7.32436
G1 X87.353 Y100.785 E7.36718
G1 X87.452 Y100.443 E7.39205
G1 X87.646 Y99.861 E7.4349
G1 X87.861 Y99.3 E7.47686
G1 X88.117 Y98.732 E7.52038
G1 X88.289 Y98.393 E7.54693
G1 X88.604 Y97.835 E7.59169
G1 X88.795 Y97.528 E7.61694
G1 X89.155 Y97.002 E7.66146
G1 X89.38 Y96.702 E7.68765
G1 X89.798 Y96.195 E7.73355
G1 X90.036 Y95.931 E7.75837
G1 X90.472 Y95.485 E7.80194
M204 S3000
M205 X10 Y10
G0 F3000 X90.872 Y95.876
M204 S1800
M205 X8 Y8
G1 F2400 X91.115 Y95.65 E7.82512
G1 X91.62 Y95.22 E7.87144
G1 X91.865 Y95.028 E7.89318
G1 X92.382 Y94.659 E7.93755
G1 X92.65 Y94.485 E7.95987
G1 X93.19 Y94.167 E8.00364
G1 X93.479 Y94.014 E8.02648
G1 X94.083 Y93.728 E8.07315
G1 X94.389 Y93.6 E8.09632
G1 X94.995 Y93.378 E8.1414
G1 X95.28 Y93.287 E8.1623
G1 X95.875 Y93.123 E8.2054
G1 X96.196 Y93.05 E8.2284
G1 X96.839 Y92.934 E8.27403
G1 X97.148 Y92.892 E8.29581
G1 X97.772 Y92.834 E8.33959
G1 X98.344 Y92.808 E8.37958
G1 X98.964 Y92.818 E8.42289
G1 X99.277 Y92.837 E8.44479
G1 X99.91 Y92.902 E8.48924
G1 X100.21 Y92.946 E8.51042
G1 X100.801 Y93.057 E8.55242
G1 X101.107 Y93.128 E8.57436
G1 X101.713 Y93.297 E8.6183
G1 X102.027 Y93.4 E8.64138
G1 X102.203 Y92.89 E8.67906
G1 X102.451 Y92.411 E8.71674
G1 X102.768 Y91.975 E8.75439
G1 X103.145 Y91.59 E8.79203
G1 X103.576 Y91.265 E8.82973
G1 X104.049 Y91.007 E8.86736
G1 X104.641 Y90.799 E8.91119
G1 X104.882 Y90.737 E8.92857
G1 X105.606 Y90.627 E8.97972
G1 X105.884 Y90.613 E8.99916
G1 X106.537 Y90.638 E9.0448
G1 X106.752 Y90.666 E9.05995
G1 X107.28 Y90.776 E9.09762
G1 X107.786 Y90.961 E9.13525
G1 X108.205 Y91.19 E9.1686
G1 X108.577 Y91.29 E9.1955
G1 X109.085 Y91.469 E9.23313
G1 X109.562 Y91.72 E9.27077
G1 X109.976 Y92.025 E9.30669
G1 X110.167 Y92.086 E9.32069
G1 X111.459 Y92.537 E9.41627
G1 X111.95 Y92.55 E9.45058
G1 X112.482 Y92.642 E9.48829
G1 X113.173 Y92.878 E9.53929
G1 X113.288 Y92.923 E9.54792
G1 X113.799 Y93.136 E9.58659
G1 X113.821 Y93.135 E9.58812
G1 X114.357 Y93.194 E9.62579
G1 X114.878 Y93.332 E9.66343
G1 X115.61 Y93.64 E9.7189
G1 X115.994 Y93.685 E9.74591
G1 X116.514 Y93.827 E9.78356
G1 X117.073 Y94.079 E9.82638
G1 X117.369 Y94.244 E9.85005
G1 X117.573 Y94.274 E9.86446
G1 X118.089 Y94.43 E9.90211
G1 X118.781 Y94.786 E9.95646
G1 X119.037 Y94.873 E9.97535
G1 X119.54 Y95.067 E10.013
G1 X120.206 Y95.476 E10.06759
G1 X120.55 Y95.742 E10.09796
G1 X120.761 Y95.825 E10.1138
G1 X121.228 Y96.095 E10.15148
G1 X121.65 Y96.43 E10.18911
G1 X122.078 Y96.876 E10.23229
G1 X122.412 Y97.076 E10.25948
G1 X122.828 Y97.418 E10.29709
G1 X123.19 Y97.818 E10.33477
G1 X123.374 Y98.078 E10.35702
G1 X124.006 Y99.057 E10.43841
G1 X124.327 Y99.411 E10.47179
G1 X124.626 Y99.86 E10.50947
G1 X124.917 Y100.501 E10.55864
G1 X125.028 Y100.816 E10.58196
G1 X125.173 Y101.414 E10.62494
G1 X125.254 Y101.941 E10.66218
G1 X125.296 Y102.479 E10.69987
G1 X125.264 Y102.982 E10.73508
G1 X125.099 Y103.713 E10.78742
G1 X125.019 Y103.951 E10.80496
G1 X124.81 Y104.448 E10.84262
G1 X124.507 Y104.945 E10.88327
G1 X123.869 Y105.857 E10.96101
G1 X123.527 Y106.275 E10.99873
G1 X123.128 Y106.637 E11.03636
G1 X122.68 Y106.937 E11.07402
G1 X122.394 Y107.072 E11.09611
G1 X122.436 Y107.107 E11.09993
G1 X122.825 Y107.48 E11.13757
G1 X123.155 Y107.907 E11.17527
G1 X123.418 Y108.377 E11.21288
G1 X123.609 Y108.882 E11.25059
G1 X123.723 Y109.409 E11.28826
G1 X123.742 Y109.647 E11.30493
G1 X123.854 Y109.964 E11.32841
G1 X123.996 Y110.484 E11.36606
G1 X124.057 Y110.969 E11.40021
G1 X124.057 Y111.508 E11.43785
G1 X123.978 Y112.067 E11.47729
G1 X123.85 Y112.591 E11.51496
G1 X123.739 Y112.888 E11.53711
G1 X123.482 Y113.398 E11.577
G1 X123.148 Y113.943 E11.62164
G1 X123.03 Y114.121 E11.63656
G1 X122.71 Y114.536 E11.67316
G1 X122.305 Y114.989 E11.7156
G1 X121.916 Y115.363 E11.75329
G1 X121.477 Y115.676 E11.79095
G1 X120.862 Y115.989 E11.83915
G1 X120.496 Y116.258 E11.87088
G1 X119.854 Y116.635 E11.92288
G1 X117.723 Y117.607 E12.08647
G1 X117.217 Y117.794 E12.12415
G1 X116.689 Y117.904 E12.16182
G1 X116.121 Y117.959 E12.20168
G1 X115.6 Y118.097 E12.23932
G1 X115.064 Y118.157 E12.277
G1 X114.635 Y118.14 E12.30698
G1 X114.128 Y118.272 E12.34358
G1 X113.597 Y118.369 E12.38128
G1 X113.058 Y118.386 E12.41894
G1 X112.535 Y118.324 E12.45573
G1 X112.133 Y118.396 E12.48425
G1 X111.597 Y118.452 E12.5219
G1 X111.058 Y118.427 E12.55958
G1 X110.646 Y118.346 E12.58891
G1 X109.485 Y118.47 E12.67046
G1 X108.946 Y118.488 E12.70813
G1 X108.411 Y118.425 E12.74576
G1 X107.89 Y118.284 E12.78346
G1 X107.862 Y118.272 E12.78558
G1 X106.778 Y118.352 E12.8615
G1 X106.435 Y118.5 E12.8876
G1 X105.914 Y118.639 E12.92526
G1 X105.26 Y118.702 E12.97115
G1 X104.7 Y118.687 E13.01028
G1 X104.613 Y118.718 E13.01673
G1 X104.084 Y118.822 E13.05438
G1 X103.546 Y118.846 E13.092
G1 X102.883 Y118.766 E13.13864
G1 X102.378 Y118.657 E13.17473
G1 X101.902 Y118.52 E13.20932
G1 X101.188 Y118.178 E13.26462
G1 X100.829 Y117.955 E13.29414
G1 X100.394 Y117.637 E13.33177
G1 X99.865 Y117.082 E13.38533
G1 X99.805 Y117.004 E13.3922
G1 X99.509 Y116.554 E13.42982
G1 X99.282 Y116.064 E13.46754
G1 X99.131 Y115.547 E13.50516
G1 X99.057 Y115.013 E13.54281
G1 X99.06 Y114.703 E13.56447
G1 X98.431 Y114.722 E13.60842
G1 X97.833 Y114.704 E13.65021
G1 X97.337 Y114.664 E13.68496
G1 X96.733 Y114.584 E13.72752
G1 X96.425 Y114.53 E13.74936
G1 X95.824 Y114.397 E13.79235
G1 X95.541 Y114.322 E13.8128
G1 X94.939 Y114.137 E13.85679
G1 X94.624 Y114.025 E13.88014
G1 X94.033 Y113.782 E13.92477
G1 X93.745 Y113.648 E13.94696
G1 X93.192 Y113.362 E13.99045
G1 X92.933 Y113.214 E14.01128
G1 X92.393 Y112.876 E14.05578
G1 X92.132 Y112.697 E14.07788
G1 X91.611 Y112.304 E14.12346
G1 X91.348 Y112.086 E14.14732
G1 X90.875 Y111.654 E14.19207
G1 X90.656 Y111.436 E14.21365
G1 X90.221 Y110.965 E14.25843
G1 X90.019 Y110.727 E14.28023
G1 X89.624 Y110.218 E14.32524
G1 X89.435 Y109.95 E14.34814
G1 X89.089 Y109.41 E14.39294
G1 X88.93 Y109.135 E14.41512
G1 X88.579 Y108.462 E14.46814
G1 X88.396 Y108.06 E14.49899
G1 X88.172 Y107.494 E14.54151
G1 X88.063 Y107.176 E14.56499
G1 X87.876 Y106.536 E14.61156
G1 X87.801 Y106.23 E14.63356
G1 X87.671 Y105.581 E14.67979
G1 X87.621 Y105.253 E14.70297
G1 X87.556 Y104.645 E14.74568
G1 X87.536 Y104.344 E14.76675
G1 X87.521 Y103.712 E14.8109
G1 X87.527 Y103.405 E14.83235
G1 X87.565 Y102.779 E14.87615
G1 X87.597 Y102.465 E14.8982
G1 X87.691 Y101.832 E14.94289
G1 X87.754 Y101.512 E14.96567
G1 X87.898 Y100.916 E15.0085
G1 X87.983 Y100.62 E15.03001
G1 X88.214 Y99.932 E15.0807
G1 X88.371 Y99.53 E15.11084
G1 X88.627 Y98.962 E15.15436
G1 X88.776 Y98.669 E15.17732
G1 X89.091 Y98.111 E15.22208
G1 X89.257 Y97.844 E15.24404
G1 X89.617 Y97.318 E15.28855
G1 X89.812 Y97.058 E15.31125
G1 X90.23 Y96.551 E15.35715
G1 X90.436 Y96.322 E15.37866
G1 X90.872 Y95.876 E15.42223
M204 S3000
M205 X10 Y10
G0 F3000 X91.273 Y96.268
M204 S1800
M205 X8 Y8
G1 F2400 X91.478 Y96.076 E15.44185
G1 X91.983 Y95.646 E15.48817
G1 X92.191 Y95.484 E15.50659
G1 X92.708 Y95.115 E15.55095
G1 X92.934 Y94.968 E15.56978
G1 X93.474 Y94.65 E15.61355
G1 X93.719 Y94.52 E15.63293
G1 X94.323 Y94.234 E15.6796
G1 X94.582 Y94.126 E15.6992
G1 X95.188 Y93.904 E15.74428
G1 X95.429 Y93.827 E15.76195
G1 X96.024 Y93.663 E15.80506
G1 X96.295 Y93.601 E15.82448
G1 X96.938 Y93.485 E15.87011
G1 X97.2 Y93.449 E15.88859
G1 X97.824 Y93.391 E15.93236
G1 X98.335 Y93.368 E15.96809
G1 X98.955 Y93.378 E16.0114
G1 X99.22 Y93.394 E16.02994
G1 X99.853 Y93.459 E16.07438
G1 X100.107 Y93.496 E16.09231
G1 X100.698 Y93.607 E16.13431
G1 X100.956 Y93.667 E16.15281
G1 X101.562 Y93.836 E16.19676
G1 X101.807 Y93.916 E16.21476
G1 X102.397 Y94.135 E16.25871
G1 X102.475 Y94.168 E16.26463
G1 X102.529 Y93.715 E16.29649
G1 X102.666 Y93.239 E16.33109
G1 X102.877 Y92.79 E16.36574
G1 X103.158 Y92.381 E16.4004
G1 X103.501 Y92.023 E16.43503
G1 X103.897 Y91.724 E16.46969
G1 X104.336 Y91.493 E16.50434
G1 X105.022 Y91.279 E16.55453
G1 X105.634 Y91.186 E16.59777
G1 X105.912 Y91.172 E16.61721
G1 X106.465 Y91.194 E16.65586
G1 X107.165 Y91.325 E16.7056
G1 X107.627 Y91.505 E16.74024
G1 X107.929 Y91.696 E16.76519
G1 X108.431 Y91.831 E16.8015
G1 X108.898 Y91.998 E16.83614
G1 X109.332 Y92.238 E16.87078
G1 X109.699 Y92.526 E16.90337
G1 X109.982 Y92.615 E16.92409
G1 X111.39 Y93.107 E17.02826
G1 X112.014 Y93.121 E17.07186
G1 X112.679 Y93.29 E17.11978
G1 X113.072 Y93.44 E17.14916
G1 X113.702 Y93.702 E17.19682
G1 X114.371 Y93.769 E17.24378
G1 X114.93 Y93.953 E17.28489
G1 X115.457 Y94.184 E17.32508
G1 X115.966 Y94.251 E17.36093
G1 X116.44 Y94.397 E17.39558
G1 X117.182 Y94.781 E17.45393
G1 X117.528 Y94.838 E17.47842
G1 X117.998 Y94.997 E17.51308
G1 X118.473 Y95.254 E17.5508
G1 X118.624 Y95.354 E17.56345
G1 X118.951 Y95.433 E17.58695
G1 X119.407 Y95.627 E17.62156
G1 X119.864 Y95.919 E17.65944
G1 X120.272 Y96.234 E17.69544
G1 X120.554 Y96.347 E17.71666
G1 X120.978 Y96.603 E17.75126
G1 X121.44 Y97.012 E17.79435
G1 X121.733 Y97.317 E17.82389
G1 X122.154 Y97.58 E17.85856
G1 X122.527 Y97.907 E17.89321
G1 X122.904 Y98.382 E17.93557
G1 X123.562 Y99.402 E18.02035
G1 X123.91 Y99.787 E18.0566
G1 X124.177 Y100.205 E18.09124
G1 X124.397 Y100.708 E18.12959
G1 X124.497 Y100.993 E18.15068
G1 X124.619 Y101.499 E18.18704
G1 X124.7 Y102.026 E18.22428
G1 X124.736 Y102.521 E18.25894
G1 X124.708 Y102.916 E18.2866
G1 X124.568 Y103.534 E18.33086
G1 X124.293 Y104.228 E18.383
G1 X124.013 Y104.675 E18.41984
G1 X123.41 Y105.536 E18.49326
G1 X123.094 Y105.918 E18.52789
G1 X122.72 Y106.244 E18.56254
G1 X122.299 Y106.506 E18.59718
G1 X121.652 Y106.753 E18.64555
G1 X121.097 Y106.888 E18.68544
G1 X120.989 Y106.908 E18.69311
G1 X121.323 Y107.035 E18.71807
G1 X121.965 Y107.443 E18.7712
G1 X122.435 Y107.884 E18.81622
