;FLAVOR:Marlin
;TIME:925
;Filament used: 0.858393m
;Layer height: 0.3
;MINX:88.378
;MINY:72.164
;MINZ:0.3
;MAXX:122.487
;MAXY:116.808
;MAXZ:37.2
;Generated with Cura_SteamEngine 4.11.0
M140 S60
M105
M190 S60
M104 S200
M105
M109 S200
M82 ;absolute extrusion mode
G21 ;metric values
G90 ;absolute positioning
M82 ;set extruder to absolute mode
M107 ;start with the fan off
G28 X0 Y0 ;move X/Y to min endstops
G28 Z0 ;move Z to min endstops
G1 Z15.0 F100 ;move the platform down 15mm
G92 E0 ;zero the extruded length
G1 F200 E3 ;extrude 3mm of feed stock
G92 E0 ;zero the extruded length again
G1 F100
G0 Y20 F100
M117 Printing...
G5
G92 E0
G92 E0
G1 F2400 E-6
;LAYER_COUNT:125
;LAYER:0
M107
M204 S3000
M205 X10 Y10
G1 F600 Z0.375
G0 F3000 X94.767 Y79.924 Z0.375
M204 S1800
M205 X8 Y8
;TYPE:SKIRT
G1 F600 Z0.3
G1 F2400 E0
G1 X95.121 Y79.512 E0.03794
G1 X95.6 Y78.999 E0.08696
G1 X96.67 Y77.885 E0.19485
G1 X98.457 Y75.914 E0.38067
G1 X99.369 Y74.865 E0.47776
G1 X99.943 Y74.284 E0.53481
G1 X100.374 Y73.906 E0.57485
G1 X100.539 Y73.77 E0.58978
G1 X101.116 Y73.347 E0.63975
G1 X102.038 Y72.849 E0.71295
G1 X102.3 Y72.734 E0.73293
G1 X102.97 Y72.483 E0.7829
G1 X103.663 Y72.309 E0.83281
G1 X104.266 Y72.223 E0.87535
G1 X104.592 Y72.192 E0.89823
G1 X105.307 Y72.164 E0.9482
G1 X106.049 Y72.22 E1.00018
G1 X106.198 Y72.24 E1.01068
G1 X106.835 Y72.358 E1.05593
G1 X107.065 Y72.413 E1.07244
G1 X107.751 Y72.618 E1.12245
G1 X108.409 Y72.899 E1.17243
G1 X109.044 Y73.259 E1.22341
G1 X109.59 Y73.616 E1.26898
G1 X110.092 Y73.976 E1.31212
G1 X111.823 Y75.277 E1.46337
G1 X114.717 Y77.311 E1.71043
G1 X115.136 Y77.603 E1.74611
G1 X115.434 Y77.825 E1.77206
G1 X115.98 Y78.287 E1.82202
G1 X116.471 Y78.807 E1.87197
G1 X116.901 Y79.379 E1.92195
G1 X117.296 Y80.039 E1.97568
G1 X117.615 Y80.679 E2.02562
G1 X117.862 Y81.35 E2.07556
G1 X118.003 Y81.901 E2.11529
G1 X118.129 Y82.521 E2.15948
G1 X118.62 Y85.652 E2.38084
G1 X118.692 Y86.16 E2.41668
G1 X118.969 Y87.796 E2.53257
G1 X119.047 Y88.322 E2.56971
G1 X119.104 Y88.779 E2.60188
G1 X119.469 Y91.412 E2.78754
G1 X119.912 Y94.049 E2.97431
G1 X120.42 Y96.625 E3.1577
G1 X121.005 Y99.209 E3.34275
G1 X121.664 Y101.781 E3.5282
G1 X121.777 Y102.185 E3.5575
G1 X122.066 Y103.287 E3.63707
G1 X122.119 Y103.505 E3.65274
G1 X122.248 Y104.078 E3.69376
G1 X122.388 Y104.912 E3.75283
G1 X122.442 Y105.417 E3.7883
G1 X122.476 Y105.958 E3.82617
G1 X122.487 Y106.463 E3.86145
G1 X122.455 Y107.257 E3.91695
G1 X122.397 Y107.821 E3.95655
G1 X122.263 Y108.623 E4.01334
G1 X122.216 Y108.824 E4.02776
G1 X122.064 Y109.365 E4.06701
G1 X121.899 Y109.867 E4.10392
G1 X121.512 Y110.792 E4.17395
G1 X121.34 Y111.127 E4.20026
G1 X121.013 Y111.692 E4.24585
G1 X120.779 Y112.052 E4.27584
G1 X120.292 Y112.706 E4.3328
G1 X119.831 Y113.221 E4.38107
G1 X119.502 Y113.554 E4.41377
G1 X118.929 Y114.068 E4.46753
G1 X118.463 Y114.432 E4.50883
G1 X117.924 Y114.808 E4.55474
G1 X117.566 Y115.034 E4.58431
G1 X117.038 Y115.333 E4.62669
G1 X116.508 Y115.601 E4.66817
G1 X115.948 Y115.855 E4.71112
G1 X115.395 Y116.064 E4.75241
G1 X114.72 Y116.283 E4.80198
G1 X114.02 Y116.471 E4.8526
G1 X113.085 Y116.656 E4.91917
G1 X112.684 Y116.717 E4.94751
G1 X112.164 Y116.767 E4.98399
G1 X111.515 Y116.802 E5.02939
G1 X110.752 Y116.807 E5.08268
G1 X110.119 Y116.784 E5.12692
G1 X108.206 Y116.686 E5.26072
G1 X105.596 Y116.625 E5.44306
G1 X102.922 Y116.639 E5.62984
G1 X100.279 Y116.727 E5.81454
G1 X98.93 Y116.802 E5.90891
G1 X98.3 Y116.808 E5.95292
G1 X97.678 Y116.765 E5.99646
G1 X97.408 Y116.733 E6.01545
G1 X96.794 Y116.629 E6.05895
G1 X96.515 Y116.568 E6.0789
G1 X95.758 Y116.353 E6.13386
G1 X95.028 Y116.076 E6.1884
G1 X94.883 Y116.012 E6.19947
G1 X94.369 Y115.757 E6.23954
G1 X94.002 Y115.554 E6.26884
G1 X93.4 Y115.176 E6.31849
G1 X92.965 Y114.854 E6.35629
G1 X92.553 Y114.514 E6.3936
G1 X92.093 Y114.088 E6.43739
G1 X91.938 Y113.931 E6.4528
G1 X91.519 Y113.464 E6.49662
G1 X91.122 Y112.974 E6.54067
G1 X90.712 Y112.413 E6.5892
G1 X90.37 Y111.878 E6.63355
G1 X90.089 Y111.385 E6.67319
G1 X89.744 Y110.696 E6.72701
G1 X89.383 Y109.858 E6.79074
G1 X89.201 Y109.359 E6.82784
G1 X88.994 Y108.698 E6.87622
G1 X88.811 Y108.01 E6.92594
G1 X88.656 Y107.316 E6.97561
G1 X88.551 Y106.719 E7.01795
G1 X88.482 Y106.21 E7.05383
G1 X88.415 Y105.498 E7.10378
G1 X88.387 Y104.974 E7.14043
G1 X88.378 Y104.22 E7.1931
G1 X88.409 Y103.388 E7.25125
G1 X88.464 Y102.82 E7.29111
G1 X88.553 Y102.193 E7.33534
G1 X88.693 Y101.443 E7.38863
G1 X88.849 Y100.821 E7.43342
G1 X89.035 Y100.214 E7.47776
G1 X89.453 Y98.972 E7.56929
G1 X89.474 Y98.887 E7.57541
G1 X89.854 Y97.769 E7.65788
G1 X90.642 Y95.209 E7.84497
G1 X91.343 Y92.679 E8.02834
G1 X91.986 Y90.087 E8.21487
G1 X92.54 Y87.525 E8.39795
G1 X93.032 Y84.906 E8.58407
G1 X93.286 Y83.336 E8.69516
G1 X93.33 Y83.094 E8.71234
G1 X93.497 Y82.399 E8.76226
G1 X93.759 Y81.684 E8.81545
G1 X93.897 Y81.367 E8.8396
G1 X94.219 Y80.729 E8.88952
G1 X94.767 Y79.924 E8.95753
M204 S3000
M205 X10 Y10
G0 F3000 X95.205 Y80.274
M204 S1800
M205 X8 Y8
G1 F2400 X95.53 Y79.894 E8.99246
G1 X96.004 Y79.386 E9.04099
G1 X97.092 Y78.252 E9.15075
G1 X98.873 Y76.289 E9.33588
G1 X99.791 Y75.233 E9.43361
G1 X100.316 Y74.702 E9.48577
G1 X100.731 Y74.339 E9.52428
G1 X100.896 Y74.203 E9.53921
G1 X101.447 Y73.8 E9.58689
G1 X102.263 Y73.361 E9.65161
G1 X102.525 Y73.246 E9.6716
G1 X103.165 Y73.009 E9.71927
G1 X103.829 Y72.848 E9.76699
G1 X104.645 Y72.749 E9.8244
G1 X105.328 Y72.724 E9.87214
G1 X105.975 Y72.775 E9.91747
G1 X106.124 Y72.795 E9.92797
G1 X106.705 Y72.903 E9.96925
G1 X106.935 Y72.958 E9.98576
G1 X107.589 Y73.156 E10.03349
G1 X108.216 Y73.428 E10.08123
G1 X108.741 Y73.729 E10.1235
G1 X109.269 Y74.075 E10.16759
G1 X109.763 Y74.429 E10.21004
G1 X111.475 Y75.717 E10.35967
G1 X114.417 Y77.785 E10.61085
G1 X114.934 Y78.149 E10.65501
G1 X115.097 Y78.272 E10.66927
G1 X115.617 Y78.715 E10.71699
G1 X116.082 Y79.216 E10.76473
G1 X116.65 Y80.037 E10.83446
G1 X116.81 Y80.317 E10.85698
G1 X117.113 Y80.929 E10.90468
G1 X117.343 Y81.572 E10.95238
G1 X117.542 Y82.431 E11.01397
G1 X117.656 Y83.114 E11.06233
G1 X118.079 Y85.821 E11.2537
G1 X118.14 Y86.252 E11.2841
G1 X118.415 Y87.881 E11.39949
G1 X118.491 Y88.392 E11.43558
G1 X118.541 Y88.792 E11.46373
G1 X118.921 Y91.531 E11.65688
G1 X119.354 Y94.113 E11.83974
G1 X119.872 Y96.74 E12.02676
G1 X120.468 Y99.369 E12.21504
G1 X121.115 Y101.894 E12.3971
G1 X121.235 Y102.328 E12.42855
G1 X121.524 Y103.43 E12.50813
G1 X121.572 Y103.628 E12.52236
G1 X121.701 Y104.201 E12.56338
G1 X121.831 Y104.971 E12.61792
G1 X121.885 Y105.476 E12.6534
G1 X121.917 Y105.97 E12.68797
G1 X121.928 Y106.475 E12.72325
G1 X121.898 Y107.199 E12.77386
G1 X121.84 Y107.763 E12.81347
G1 X121.718 Y108.496 E12.86537
G1 X121.671 Y108.697 E12.87979
G1 X121.532 Y109.191 E12.91563
G1 X121.367 Y109.693 E12.95254
G1 X121.014 Y110.536 E13.01637
G1 X120.842 Y110.871 E13.04267
G1 X120.544 Y111.387 E13.08429
G1 X120.31 Y111.747 E13.11428
G1 X119.865 Y112.344 E13.16629
G1 X119.432 Y112.827 E13.2116
G1 X119.103 Y113.16 E13.24429
G1 X118.581 Y113.629 E13.29331
G1 X118.132 Y113.981 E13.33316
G1 X117.625 Y114.334 E13.37631
G1 X117.267 Y114.56 E13.40588
G1 X116.785 Y114.834 E13.4446
G1 X116.255 Y115.102 E13.48609
G1 X115.727 Y115.341 E13.52657
G1 X115.222 Y115.531 E13.56425
G1 X114.547 Y115.75 E13.61382
G1 X113.901 Y115.924 E13.66055
G1 X112.984 Y116.105 E13.72583
G1 X112.133 Y116.208 E13.78571
G1 X111.484 Y116.243 E13.8311
G1 X110.759 Y116.247 E13.88174
G1 X110.071 Y116.221 E13.92983
G1 X108.246 Y116.127 E14.05747
G1 X105.607 Y116.065 E14.24184
G1 X102.935 Y116.079 E14.42847
G1 X100.229 Y116.17 E14.61759
G1 X98.899 Y116.243 E14.71062
G1 X98.311 Y116.248 E14.75169
G1 X97.744 Y116.208 E14.79139
G1 X97.474 Y116.176 E14.81038
G1 X96.914 Y116.082 E14.85004
G1 X96.635 Y116.021 E14.86999
G1 X95.944 Y115.825 E14.92016
G1 X95.254 Y115.564 E14.97169
G1 X95.109 Y115.5 E14.98276
G1 X94.64 Y115.267 E15.01933
G1 X94.273 Y115.064 E15.04863
G1 X93.723 Y114.719 E15.09398
G1 X93.316 Y114.417 E15.12937
G1 X92.923 Y114.094 E15.16491
G1 X92.491 Y113.695 E15.20598
G1 X92.336 Y113.538 E15.22139
G1 X91.954 Y113.111 E15.26141
G1 X91.557 Y112.621 E15.30545
G1 X91.18 Y112.105 E15.35009
G1 X90.853 Y111.594 E15.39246
G1 X90.585 Y111.124 E15.43025
G1 X90.249 Y110.453 E15.48267
G1 X89.91 Y109.666 E15.54252
G1 X89.728 Y109.167 E15.57962
G1 X89.535 Y108.554 E15.62451
G1 X89.352 Y107.866 E15.67423
G1 X89.207 Y107.219 E15.72054
G1 X89.102 Y106.622 E15.76288
G1 X89.04 Y106.157 E15.79565
G1 X88.973 Y105.445 E15.8456
G1 X88.947 Y104.968 E15.87896
G1 X88.938 Y104.214 E15.93163
G1 X88.968 Y103.417 E15.98734
G1 X89.018 Y102.898 E16.02376
G1 X89.107 Y102.271 E16.06799
G1 X89.242 Y101.553 E16.11902
G1 X89.385 Y100.983 E16.16006
G1 X89.566 Y100.393 E16.20317
G1 X89.959 Y99.224 E16.28931
G1 X90.004 Y99.067 E16.30072
G1 X90.388 Y97.937 E16.38408
G1 X91.172 Y95.389 E16.57028
G1 X91.887 Y92.81 E16.75721
G1 X92.533 Y90.204 E16.94473
G1 X93.087 Y87.644 E17.12768
G1 X93.587 Y84.981 E17.31693
G1 X93.837 Y83.436 E17.42625
G1 X93.881 Y83.194 E17.44343
G1 X94.043 Y82.53 E17.49117
G1 X94.272 Y81.908 E17.53746
G1 X94.41 Y81.591 E17.56161
G1 X94.719 Y80.982 E17.60931
G1 X95.205 Y80.274 E17.66929
M204 S3000
M205 X10 Y10
G0 F3000 X95.642 Y80.624
M204 S1800
M205 X8 Y8
G1 F2400 X95.94 Y80.276 E17.70129
G1 X96.408 Y79.774 E17.74923
G1 X97.499 Y78.638 E17.85924
G1 X99.292 Y76.66 E18.04571
G1 X100.214 Y75.6 E18.14383
G1 X100.688 Y75.12 E18.19095
G1 X101.087 Y74.771 E18.22797
G1 X101.252 Y74.635 E18.24291
G1 X101.777 Y74.253 E18.28826
G1 X102.488 Y73.874 E18.34453
G1 X102.75 Y73.759 E18.36452
G1 X103.36 Y73.535 E18.40991
G1 X103.992 Y73.388 E18.45523
G1 X104.698 Y73.307 E18.50486
G1 X105.347 Y73.285 E18.55022
G1 X105.9 Y73.33 E18.58897
G1 X106.049 Y73.35 E18.59947
G1 X106.575 Y73.448 E18.63684
G1 X106.805 Y73.503 E18.65336
G1 X107.426 Y73.692 E18.6987
G1 X108.02 Y73.957 E18.74413
G1 X108.783 Y74.423 E18.80658
G1 X109.434 Y74.882 E18.86221
G1 X111.162 Y76.182 E19.01325
G1 X114.118 Y78.259 E19.26558
G1 X114.596 Y78.596 E19.30643
G1 X114.759 Y78.719 E19.3207
G1 X115.253 Y79.142 E19.36612
G1 X115.691 Y79.622 E19.41151
G1 X116.163 Y80.314 E19.47001
G1 X116.323 Y80.594 E19.49254
G1 X116.61 Y81.177 E19.53793
G1 X116.824 Y81.791 E19.58334
G1 X116.994 Y82.546 E19.6374
G1 X117.109 Y83.243 E19.68674
G1 X117.525 Y85.9 E19.87458
G1 X117.589 Y86.351 E19.9064
G1 X117.862 Y87.966 E20.0208
G1 X117.936 Y88.461 E20.05576
G1 X117.994 Y88.924 E20.08835
G1 X118.366 Y91.608 E20.27761
G1 X118.809 Y94.245 E20.46437
G1 X119.326 Y96.869 E20.65117
G1 X119.912 Y99.454 E20.83631
G1 X120.59 Y102.101 E21.02716
G1 X120.693 Y102.47 E21.05392
G1 X120.982 Y103.572 E21.13349
G1 X121.026 Y103.751 E21.14636
G1 X121.155 Y104.324 E21.18739
G1 X121.274 Y105.031 E21.23746
G1 X121.328 Y105.536 E21.27294
G1 X121.357 Y105.982 E21.30416
G1 X121.368 Y106.487 E21.33944
G1 X121.341 Y107.142 E21.38522
G1 X121.283 Y107.706 E21.42483
G1 X121.172 Y108.368 E21.47171
G1 X121 Y109.016 E21.51854
G1 X120.835 Y109.518 E21.55544
G1 X120.516 Y110.281 E21.61321
G1 X120.344 Y110.616 E21.63951
G1 X120.074 Y111.082 E21.67713
G1 X119.84 Y111.442 E21.70712
G1 X119.438 Y111.981 E21.75408
G1 X119.034 Y112.434 E21.79648
G1 X118.705 Y112.767 E21.82917
G1 X118.233 Y113.191 E21.87349
G1 X117.8 Y113.529 E21.91186
G1 X117.327 Y113.861 E21.95222
G1 X116.969 Y114.087 E21.98179
G1 X116.533 Y114.334 E22.01679
G1 X116.003 Y114.602 E22.05827
G1 X115.506 Y114.827 E22.09638
G1 X115.049 Y114.998 E22.13046
G1 X114.374 Y115.217 E22.18002
G1 X113.782 Y115.377 E22.22286
G1 X112.883 Y115.554 E22.28685
G1 X112.103 Y115.648 E22.34173
G1 X111.454 Y115.683 E22.38712
G1 X110.765 Y115.687 E22.43525
G1 X110.163 Y115.665 E22.47732
G1 X108.288 Y115.569 E22.60846
G1 X105.581 Y115.505 E22.79758
G1 X102.913 Y115.519 E22.98394
G1 X100.226 Y115.609 E23.17172
G1 X98.868 Y115.684 E23.26671
G1 X98.323 Y115.688 E23.30478
G1 X97.81 Y115.652 E23.3407
G1 X97.54 Y115.62 E23.35969
G1 X97.033 Y115.535 E23.3956
G1 X96.754 Y115.474 E23.41555
G1 X96.13 Y115.297 E23.46085
G1 X95.48 Y115.051 E23.50939
G1 X94.911 Y114.777 E23.5535
G1 X94.544 Y114.574 E23.5828
G1 X94.047 Y114.262 E23.62378
G1 X93.474 Y113.826 E23.67407
G1 X92.89 Y113.302 E23.72888
G1 X92.735 Y113.145 E23.74429
G1 X92.39 Y112.759 E23.78045
G1 X91.993 Y112.269 E23.82449
G1 X91.648 Y111.797 E23.86533
G1 X91.337 Y111.311 E23.90563
G1 X91.08 Y110.863 E23.9417
G1 X90.753 Y110.21 E23.99271
G1 X90.436 Y109.474 E24.04868
G1 X90.254 Y108.975 E24.08578
G1 X90.076 Y108.41 E24.12716
G1 X89.893 Y107.722 E24.17688
G1 X89.759 Y107.122 E24.21982
G1 X89.654 Y106.525 E24.26216
G1 X89.597 Y106.105 E24.29177
G1 X89.53 Y105.393 E24.34172
G1 X89.507 Y104.961 E24.37193
G1 X89.498 Y104.207 E24.4246
G1 X89.527 Y103.446 E24.47779
G1 X89.572 Y102.977 E24.5107
G1 X89.661 Y102.35 E24.55493
G1 X89.791 Y101.663 E24.60377
G1 X89.921 Y101.145 E24.64107
G1 X90.097 Y100.572 E24.68294
G1 X90.504 Y99.363 E24.77204
G1 X90.534 Y99.247 E24.78041
G1 X90.932 Y98.074 E24.86693
G1 X91.707 Y95.559 E25.05074
G1 X92.428 Y92.959 E25.23919
G1 X93.073 Y90.353 E25.42671
G1 X93.644 Y87.714 E25.6153
G1 X94.129 Y85.133 E25.79872
G1 X94.388 Y83.536 E25.91173
G1 X94.432 Y83.294 E25.92891
G1 X94.587 Y82.664 E25.97422
G1 X94.786 Y82.131 E26.01396
G1 X94.924 Y81.814 E26.03811
G1 X95.219 Y81.236 E26.08343
G1 X95.642 Y80.624 E26.1354
M204 S3000
M205 X10 Y10
G0 F3000 X99.995 Y84.068
M204 S1800
M205 X8 Y8
;TYPE:SUPPORT
G1 F1800 X100.231 Y83.883 E26.15634
G1 X100.854 Y83.793 E26.20031
G1 X100.652 Y84.033 E26.22222
G1 X100.509 Y84.529 E26.25827
G1 X100.856 Y87.002 E26.43269
G1 X101.216 Y87.429 E26.4717
G1 X103.564 Y88.176 E26.6438
G1 X104.081 Y88.108 E26.68022
G1 X105.066 Y87.482 E26.76174
G1 X107.223 Y87.8 E26.91403
G1 X110.153 Y87.971 E27.11903
G1 X110.613 Y87.51 E27.16451
G1 X110.366 Y83.454 E27.44833
G1 X110.175 Y83.075 E27.47798
G1 X110.801 Y82.869 E27.52401
G1 X111.142 Y82.947 E27.54844
G1 X111.375 Y83.119 E27.56867
G1 X111.497 Y83.338 E27.58618
G1 X111.543 Y83.582 E27.60352
G1 X111.332 Y84.844 E27.69289
G1 X111.55 Y85.36 E27.73202
G1 X111.785 Y85.524 E27.75203
G1 X111.208 Y87.301 E27.88253
G1 X111.319 Y87.836 E27.92069
G1 X112.346 Y88.991 E28.02864
G1 X112.422 Y89.147 E28.04076
G1 X111.834 Y90.439 E28.13991
G1 X109.96 Y91.499 E28.29029
G1 X109.797 Y92.112 E28.33459
G1 X110.822 Y93.81 E28.47313
G1 X110.849 Y93.922 E28.48117
G1 X110.582 Y94.277 E28.5122
G1 X110.472 Y94.786 E28.54857
G1 X111.219 Y98.118 E28.78708
G1 X111.49 Y99.054 E28.85514
G1 X111.681 Y99.583 E28.89442
G1 X111.699 Y99.622 E28.89742
G1 X111.152 Y99.466 E28.93715
G1 X110.61 Y99.645 E28.97702
G1 X110.25 Y100.113 E29.01826
G1 X110.168 Y100.151 E29.02457
G1 X109.489 Y98.838 E29.12782
G1 X109.211 Y98.268 E29.17211
G1 X107.962 Y94.682 E29.43734
G1 X107.255 Y94.547 E29.48761
G1 X105.528 Y96.523 E29.67091
G1 X105.018 Y96.545 E29.70656
G1 X103.555 Y97.682 E29.83598
G1 X103.306 Y98.126 E29.87154
G1 X103.198 Y99.052 E29.93665
G1 X103.179 Y99.174 E29.94528
G1 X102.933 Y100.008 E30.00601
G1 X102.636 Y100.838 E30.06758
G1 X102.094 Y100.467 E30.11346
G1 X101.567 Y100.148 E30.15649
G1 X101.265 Y99.996 E30.1801
G1 X101.282 Y99.833 E30.19155
G1 X101.442 Y97.605 E30.34756
G1 X101.455 Y96.852 E30.40017
G1 X101.478 Y96.5 E30.42481
G1 X101.548 Y95.801 E30.47387
G1 X101.937 Y92.274 E30.72171
G1 X100.699 Y90.165 E30.89252
G1 X100.699 Y89.581 E30.93331
G1 X100.463 Y89.114 E30.96986
G1 X100.971 Y88.276 E31.03831
G1 X100.935 Y87.703 E31.07841
G1 X100.332 Y86.937 E31.1465
G1 X100.142 Y86.616 E31.17255
G1 X100.387 Y86.445 E31.19342
G1 X100.543 Y85.863 E31.23551
G1 X99.904 Y84.514 E31.33976
G1 X99.902 Y84.271 E31.35674
G1 X99.995 Y84.068 E31.37233
M204 S3000
M205 X10 Y10
G0 F3000 X104.399 Y81.697
M204 S1800
M205 X8 Y8
G1 F1800 X104.564 Y81.532 E31.38863
G1 X104.57 Y80.906 E31.43236
G1 X103.855 Y80.159 E31.50458
G1 X104.453 Y79.185 E31.58441
G1 X104.775 Y78.921 E31.61349
G1 X104.953 Y78.856 E31.62673
G1 X105.215 Y78.834 E31.64509
G1 X105.478 Y78.892 E31.6639
G1 X105.876 Y79.158 E31.69734
G1 X106.35 Y79.707 E31.748
G1 X106.54 Y79.8 E31.76278
G1 X106.117 Y80.59 E31.82537
G1 X106.15 Y81.145 E31.8642
G1 X106.317 Y81.385 E31.88462
