;FLAVOR:Marlin
;TIME:2631
;Filament used: 4.21928m
;Layer height: 0.3
;MINX:116.671
;MINY:90.935
;MINZ:0.3
;MAXX:177.482
;MAXY:158.924
;MAXZ:32.1
;Generated with Cura_SteamEngine 4.11.0
M140 S60
M105
M190 S60
M104 S200
M105
M109 S200
M82 ;absolute extrusion mode
G21 ;metric values
G90 ;absolute positioning
M82 ;set extruder to absolute mode
M107 ;start with the fan off
G28 X0 Y0 ;move X/Y to min endstops
G28 Z0 ;move Z to min endstops
G1 Z15.0 F100 ;move the platform down 15mm
G92 E0 ;zero the extruded length
G1 F200 E3 ;extrude 3mm of feed stock
G92 E0 ;zero the extruded length again
G1 F100
G0 Y20 F100
M117 Printing...
G5
G92 E0
G92 E0
G1 F2400 E-6
;LAYER_COUNT:107
;LAYER:0
M107
M204 S3000
M205 X10 Y10
G1 F600 Z0.375
G0 F3000 X127.395 Y102.114 Z0.375
M204 S1800
M205 X8 Y8
;TYPE:SKIRT
G1 F600 Z0.3
G1 F2400 E0
G1 X128.452 Y100.838 E0.11573
G1 X128.593 Y100.675 E0.13078
G1 X129.204 Y99.986 E0.1951
G1 X129.606 Y99.554 E0.23632
G1 X130.348 Y98.785 E0.31096
G1 X130.492 Y98.641 E0.32518
G1 X130.964 Y98.183 E0.37112
G1 X131.337 Y97.831 E0.40694
G1 X132.003 Y97.229 E0.46965
G1 X132.681 Y96.647 E0.53206
G1 X132.806 Y96.543 E0.54342
G1 X133.237 Y96.193 E0.58219
G1 X133.397 Y96.067 E0.59642
G1 X134.036 Y95.581 E0.65249
G1 X134.187 Y95.47 E0.66558
G1 X134.749 Y95.068 E0.71385
G1 X135.228 Y94.743 E0.75428
G1 X135.395 Y94.634 E0.7682
G1 X136.298 Y94.069 E0.8426
G1 X136.893 Y93.721 E0.89075
G1 X137.405 Y93.44 E0.93154
G1 X137.881 Y93.197 E0.96887
G1 X138.342 Y92.973 E1.00467
G1 X138.911 Y92.714 E1.04834
G1 X139.124 Y92.622 E1.06454
G1 X139.954 Y92.28 E1.12724
G1 X140.664 Y92.017 E1.18013
G1 X141.447 Y91.772 E1.23743
G1 X142.565 Y91.472 E1.31828
G1 X143.28 Y91.309 E1.3695
G1 X143.89 Y91.198 E1.41281
G1 X144.169 Y91.154 E1.43254
G1 X144.776 Y91.071 E1.47533
G1 X145.508 Y90.998 E1.52671
G1 X145.883 Y90.974 E1.55295
G1 X147.02 Y90.937 E1.63241
G1 X147.31 Y90.935 E1.65267
G1 X147.818 Y90.947 E1.68816
G1 X148.412 Y90.98 E1.72971
G1 X148.685 Y91.001 E1.74884
G1 X149.283 Y91.06 E1.79081
G1 X149.587 Y91.097 E1.8122
G1 X150.185 Y91.185 E1.85442
G1 X150.496 Y91.239 E1.87646
G1 X151.112 Y91.361 E1.92032
G1 X151.37 Y91.418 E1.93878
G1 X151.975 Y91.564 E1.98225
G1 X152.694 Y91.765 E2.03439
G1 X153.006 Y91.864 E2.05726
G1 X153.863 Y92.16 E2.12058
G1 X154.093 Y92.244 E2.13769
G1 X154.862 Y92.543 E2.19532
G1 X155.369 Y92.757 E2.23375
G1 X155.623 Y92.873 E2.25326
G1 X156.132 Y93.119 E2.29274
G1 X156.693 Y93.409 E2.33685
G1 X157.69 Y93.962 E2.41648
G1 X158.299 Y94.324 E2.46597
G1 X158.828 Y94.659 E2.5097
G1 X159.014 Y94.783 E2.52532
G1 X159.791 Y95.319 E2.59125
G1 X160.318 Y95.702 E2.63675
G1 X160.477 Y95.822 E2.65066
G1 X161.174 Y96.367 E2.71246
G1 X161.324 Y96.488 E2.72592
G1 X161.906 Y96.972 E2.77879
G1 X162.361 Y97.368 E2.82092
G1 X162.606 Y97.589 E2.84397
G1 X163.23 Y98.166 E2.90333
G1 X163.369 Y98.298 E2.91672
G1 X163.835 Y98.757 E2.96241
G1 X164.503 Y99.437 E3.02898
G1 X164.635 Y99.576 E3.04237
G1 X165.066 Y100.043 E3.08676
G1 X165.775 Y100.836 E3.16106
G1 X166.039 Y101.147 E3.18955
G1 X167.169 Y102.541 E3.31489
G1 X167.32 Y102.735 E3.33206
G1 X168.131 Y103.818 E3.42656
G1 X168.268 Y104.008 E3.44292
G1 X169.14 Y105.266 E3.54983
G1 X169.258 Y105.443 E3.56469
G1 X170.03 Y106.64 E3.66418
G1 X170.146 Y106.826 E3.67949
G1 X170.871 Y108.039 E3.77819
G1 X170.969 Y108.209 E3.7919
G1 X171.646 Y109.425 E3.88911
G1 X171.738 Y109.597 E3.90273
G1 X172.344 Y110.768 E3.99482
G1 X172.429 Y110.938 E4.0081
G1 X173.016 Y112.16 E4.10279
G1 X173.102 Y112.347 E4.11716
G1 X173.659 Y113.609 E4.21351
G1 X173.732 Y113.78 E4.2265
G1 X174.222 Y114.984 E4.31729
G1 X174.291 Y115.162 E4.33063
G1 X174.717 Y116.305 E4.41583
G1 X174.778 Y116.476 E4.42851
G1 X175.178 Y117.65 E4.51514
G1 X175.236 Y117.828 E4.52821
G1 X175.57 Y118.911 E4.60737
G1 X175.622 Y119.088 E4.62026
G1 X175.945 Y120.254 E4.70476
G1 X175.991 Y120.431 E4.71754
G1 X176.241 Y121.445 E4.79048
G1 X176.28 Y121.614 E4.8026
G1 X176.535 Y122.784 E4.88623
G1 X176.571 Y122.958 E4.89865
G1 X176.754 Y123.926 E4.96745
G1 X176.783 Y124.091 E4.97916
G1 X176.955 Y125.152 E5.05423
G1 X176.98 Y125.321 E5.06616
G1 X177.122 Y126.375 E5.14045
G1 X177.141 Y126.532 E5.15149
G1 X177.242 Y127.453 E5.21621
G1 X177.328 Y128.426 E5.28443
G1 X177.342 Y128.615 E5.29767
G1 X177.436 Y130.276 E5.41387
G1 X177.453 Y130.715 E5.44455
G1 X177.48 Y131.769 E5.5182
G1 X177.482 Y131.962 E5.53168
G1 X177.478 Y132.71 E5.58392
G1 X177.453 Y133.974 E5.67223
G1 X177.419 Y134.683 E5.7218
G1 X177.316 Y136.209 E5.82863
G1 X177.297 Y136.429 E5.84405
G1 X177.203 Y137.342 E5.90816
G1 X177.18 Y137.537 E5.92188
G1 X177.072 Y138.343 E5.97868
G1 X177.042 Y138.547 E5.99308
G1 X176.889 Y139.463 E6.05794
G1 X176.851 Y139.666 E6.07237
G1 X176.68 Y140.52 E6.1332
G1 X176.628 Y140.757 E6.15015
G1 X176.374 Y141.815 E6.22614
G1 X176.323 Y142.016 E6.24063
G1 X176.175 Y142.555 E6.27967
G1 X176.094 Y142.824 E6.29929
G1 X175.828 Y143.649 E6.35984
G1 X175.737 Y143.913 E6.37934
G1 X175.447 Y144.694 E6.43753
G1 X175.336 Y144.973 E6.4585
G1 X175.024 Y145.706 E6.51414
G1 X174.855 Y146.077 E6.54262
G1 X174.595 Y146.615 E6.58435
G1 X174.344 Y147.103 E6.62268
G1 X174.272 Y147.239 E6.63343
G1 X173.971 Y147.785 E6.67698
G1 X173.694 Y148.256 E6.71514
G1 X173.428 Y148.685 E6.7504
G1 X173.076 Y149.222 E6.79525
G1 X172.971 Y149.376 E6.80827
G1 X172.677 Y149.793 E6.8439
G1 X172.306 Y150.291 E6.88728
G1 X171.988 Y150.696 E6.92324
G1 X171.602 Y151.165 E6.96567
G1 X171.487 Y151.299 E6.978
G1 X171.125 Y151.711 E7.01631
G1 X170.671 Y152.2 E7.06292
G1 X170.201 Y152.677 E7.10969
G1 X169.754 Y153.106 E7.15296
G1 X169.3 Y153.524 E7.19607
G1 X168.868 Y153.9 E7.23607
G1 X168.178 Y154.471 E7.29862
G1 X167.935 Y154.661 E7.32017
G1 X167.226 Y155.192 E7.38204
G1 X166.907 Y155.418 E7.40934
G1 X166.25 Y155.865 E7.46485
G1 X165.958 Y156.053 E7.4891
G1 X164.754 Y156.78 E7.58734
G1 X164.532 Y156.908 E7.60524
G1 X163.609 Y157.416 E7.67883
G1 X163.383 Y157.534 E7.69663
G1 X162.298 Y158.076 E7.78135
G1 X161.748 Y158.332 E7.82372
G1 X161.082 Y158.593 E7.87368
G1 X160.391 Y158.778 E7.92364
G1 X159.362 Y158.906 E7.99607
G1 X158.603 Y158.924 E8.0491
G1 X135.702 Y158.923 E9.64865
G1 X134.999 Y158.913 E9.69776
G1 X134.285 Y158.863 E9.74775
G1 X133.582 Y158.734 E9.79767
G1 X132.897 Y158.527 E9.84765
G1 X132.24 Y158.244 E9.89762
G1 X131.666 Y157.927 E9.94342
G1 X131.4 Y157.766 E9.96513
G1 X130.321 Y157.073 E10.0547
G1 X130.164 Y156.968 E10.06789
G1 X129.577 Y156.566 E10.11759
G1 X129.351 Y156.405 E10.13697
G1 X128.285 Y155.605 E10.23006
G1 X127.855 Y155.266 E10.2683
G1 X127.51 Y154.979 E10.29965
G1 X126.687 Y154.259 E10.37603
G1 X126.52 Y154.108 E10.39175
G1 X125.848 Y153.477 E10.45614
G1 X125.659 Y153.292 E10.47461
G1 X125.003 Y152.623 E10.54005
G1 X124.834 Y152.443 E10.5573
G1 X124.195 Y151.739 E10.6237
G1 X124.035 Y151.556 E10.64068
G1 X123.524 Y150.948 E10.69616
G1 X123.358 Y150.743 E10.71458
G1 X122.811 Y150.035 E10.77707
G1 X122.656 Y149.824 E10.79536
G1 X122.073 Y149.002 E10.86575
G1 X121.932 Y148.796 E10.88318
G1 X121.544 Y148.201 E10.9328
G1 X121.411 Y147.988 E10.95034
G1 X120.863 Y147.071 E11.02495
G1 X120.729 Y146.836 E11.04384
G1 X120.345 Y146.127 E11.10016
G1 X120.235 Y145.914 E11.11691
G1 X119.853 Y145.141 E11.17713
G1 X119.747 Y144.915 E11.19457
G1 X119.33 Y143.981 E11.26601
G1 X119.24 Y143.768 E11.28216
G1 X118.944 Y143.035 E11.33737
G1 X118.864 Y142.827 E11.35294
G1 X118.581 Y142.049 E11.41076
G1 X118.509 Y141.842 E11.42607
G1 X118.19 Y140.862 E11.49806
G1 X118.126 Y140.654 E11.51326
G1 X117.919 Y139.936 E11.56545
G1 X117.862 Y139.723 E11.58085
G1 X117.611 Y138.724 E11.65279
G1 X117.564 Y138.521 E11.66735
G1 X117.385 Y137.696 E11.72631
G1 X117.343 Y137.491 E11.74093
G1 X117.163 Y136.507 E11.8108
G1 X117.13 Y136.304 E11.82516
G1 X117.005 Y135.47 E11.88406
G1 X116.979 Y135.278 E11.8976
G1 X116.878 Y134.43 E11.95724
G1 X116.858 Y134.234 E11.97101
G1 X116.765 Y133.177 E12.04512
G1 X116.75 Y132.969 E12.05968
G1 X116.703 Y132.117 E12.11928
G1 X116.695 Y131.923 E12.13285
G1 X116.673 Y131.036 E12.19482
G1 X116.671 Y130.84 E12.20851
G1 X116.677 Y129.808 E12.28059
G1 X116.682 Y129.594 E12.29554
G1 X116.721 Y128.6 E12.36502
G1 X116.733 Y128.388 E12.37985
G1 X116.802 Y127.437 E12.44645
G1 X116.82 Y127.235 E12.46062
G1 X116.928 Y126.202 E12.53316
G1 X116.953 Y125.993 E12.54786
G1 X117.093 Y124.978 E12.61943
G1 X117.125 Y124.771 E12.63406
G1 X117.298 Y123.761 E12.70563
G1 X117.334 Y123.571 E12.71914
G1 X117.559 Y122.461 E12.79824
G1 X117.605 Y122.252 E12.81319
G1 X117.838 Y121.272 E12.88355
G1 X117.885 Y121.085 E12.89702
G1 X118.193 Y119.943 E12.97963
G1 X118.244 Y119.763 E12.9927
G1 X118.571 Y118.678 E13.07185
G1 X118.631 Y118.491 E13.08557
G1 X119.042 Y117.265 E13.17588
G1 X119.106 Y117.084 E13.18929
G1 X119.52 Y115.962 E13.27282
G1 X119.584 Y115.795 E13.28531
G1 X120.054 Y114.623 E13.37351
G1 X120.126 Y114.451 E13.38653
G1 X120.677 Y113.185 E13.48297
G1 X120.752 Y113.019 E13.49569
G1 X121.308 Y111.835 E13.58706
G1 X121.386 Y111.673 E13.59962
G1 X121.976 Y110.503 E13.69114
G1 X122.056 Y110.35 E13.7032
G1 X122.711 Y109.134 E13.79967
G1 X122.809 Y108.96 E13.81362
G1 X123.534 Y107.709 E13.91461
G1 X123.628 Y107.551 E13.92745
G1 X124.371 Y106.35 E14.02609
G1 X124.482 Y106.177 E14.04045
G1 X125.29 Y104.96 E14.14248
G1 X125.412 Y104.783 E14.15749
G1 X126.278 Y103.569 E14.26165
G1 X126.411 Y103.389 E14.27728
G1 X127.247 Y102.3 E14.37317
G1 X127.395 Y102.114 E14.38977
M204 S3000
M205 X10 Y10
G0 F3000 X127.827 Y102.472
M204 S1800
M205 X8 Y8
G1 F2400 X128.884 Y101.196 E14.5055
G1 X129.012 Y101.046 E14.51928
G1 X129.623 Y100.357 E14.5836
G1 X130.014 Y99.938 E14.62363
G1 X130.751 Y99.174 E14.69777
G1 X130.882 Y99.043 E14.71071
G1 X131.35 Y98.589 E14.75625
G1 X131.713 Y98.247 E14.79109
G1 X132.379 Y97.645 E14.85379
G1 X132.5 Y97.538 E14.86507
G1 X133.045 Y97.072 E14.91516
G1 X133.59 Y96.628 E14.96426
G1 X133.736 Y96.513 E14.97724
G1 X134.375 Y96.027 E15.03331
G1 X134.512 Y95.925 E15.04524
G1 X135.074 Y95.523 E15.09351
G1 X135.54 Y95.208 E15.13279
G1 X135.692 Y95.109 E15.14546
G1 X136.595 Y94.544 E15.21986
G1 X137.174 Y94.205 E15.26672
G1 X137.672 Y93.932 E15.30639
G1 X138.19 Y93.668 E15.347
G1 X138.574 Y93.483 E15.37677
G1 X139.143 Y93.224 E15.42044
G1 X139.337 Y93.139 E15.43523
G1 X140.167 Y92.797 E15.49793
G1 X140.837 Y92.55 E15.54781
G1 X141.592 Y92.313 E15.60308
G1 X142.71 Y92.013 E15.68393
G1 X143.38 Y91.86 E15.73193
G1 X143.99 Y91.749 E15.77524
G1 X144.245 Y91.709 E15.79327
G1 X144.852 Y91.626 E15.83606
G1 X145.559 Y91.555 E15.88569
G1 X145.901 Y91.534 E15.90962
G1 X147.038 Y91.497 E15.98908
G1 X147.787 Y91.506 E16.04139
G1 X148.381 Y91.539 E16.08295
G1 X148.63 Y91.558 E16.10039
G1 X149.228 Y91.617 E16.14236
G1 X149.505 Y91.651 E16.16185
G1 X150.103 Y91.739 E16.20407
G1 X150.388 Y91.788 E16.22427
G1 X151.004 Y91.91 E16.26813
G1 X151.239 Y91.962 E16.28494
G1 X151.844 Y92.108 E16.32841
G1 X152.538 Y92.303 E16.37876
G1 X152.824 Y92.393 E16.3997
G1 X153.681 Y92.689 E16.46303
G1 X153.89 Y92.766 E16.47859
G1 X154.659 Y93.065 E16.53622
G1 X155.147 Y93.271 E16.57322
G1 X155.379 Y93.377 E16.59103
G1 X156.027 Y93.692 E16.64136
G1 X156.422 Y93.899 E16.6725
G1 X157.419 Y94.452 E16.75213
G1 X158.01 Y94.803 E16.80015
G1 X158.526 Y95.131 E16.84285
G1 X158.696 Y95.244 E16.85711
G1 X159.473 Y95.78 E16.92304
G1 X159.987 Y96.153 E16.9674
G1 X160.132 Y96.263 E16.98011
G1 X160.829 Y96.808 E17.04191
G1 X160.966 Y96.919 E17.05422
G1 X161.548 Y97.403 E17.10709
G1 X161.991 Y97.789 E17.14813
G1 X162.226 Y98 E17.17019
G1 X162.85 Y98.577 E17.22955
G1 X162.976 Y98.698 E17.24176
G1 X163.435 Y99.149 E17.2867
G1 X164.103 Y99.829 E17.35328
G1 X164.224 Y99.956 E17.36553
G1 X164.649 Y100.417 E17.40933
G1 X165.358 Y101.21 E17.48363
G1 X165.604 Y101.499 E17.51013
G1 X166.734 Y102.893 E17.63547
G1 X166.872 Y103.07 E17.65115
G1 X167.683 Y104.153 E17.74565
G1 X167.808 Y104.327 E17.76061
G1 X168.68 Y105.585 E17.86752
G1 X168.788 Y105.747 E17.88112
G1 X169.56 Y106.944 E17.98061
G1 X169.665 Y107.113 E17.99451
G1 X170.39 Y108.326 E18.09321
G1 X170.48 Y108.481 E18.10573
G1 X171.157 Y109.697 E18.20294
G1 X171.241 Y109.854 E18.21537
G1 X171.847 Y111.025 E18.30747
G1 X171.924 Y111.18 E18.31956
G1 X172.511 Y112.402 E18.41424
G1 X172.59 Y112.573 E18.4274
G1 X173.147 Y113.835 E18.52375
G1 X173.213 Y113.992 E18.53565
G1 X173.703 Y115.196 E18.62644
G1 X173.766 Y115.357 E18.63851
G1 X174.192 Y116.5 E18.72371
G1 X174.248 Y116.657 E18.73536
G1 X174.648 Y117.831 E18.82198
G1 X174.701 Y117.993 E18.83389
G1 X175.035 Y119.076 E18.91305
G1 X175.082 Y119.238 E18.92483
G1 X175.405 Y120.404 E19.00934
G1 X175.447 Y120.565 E19.02096
G1 X175.697 Y121.579 E19.09391
G1 X175.733 Y121.733 E19.10495
G1 X175.988 Y122.903 E19.18859
G1 X176.02 Y123.062 E19.19992
G1 X176.23 Y124.18 E19.27937
G1 X176.402 Y125.241 E19.35445
G1 X176.425 Y125.396 E19.36539
G1 X176.567 Y126.45 E19.43967
G1 X176.685 Y127.514 E19.51445
G1 X176.77 Y128.475 E19.58183
G1 X176.783 Y128.647 E19.59388
G1 X176.876 Y130.299 E19.70945
G1 X176.893 Y130.729 E19.7395
G1 X176.92 Y131.783 E19.81315
G1 X176.922 Y131.96 E19.82551
G1 X176.918 Y132.7 E19.8772
G1 X176.897 Y133.829 E19.95607
G1 X176.86 Y134.654 E20.01375
G1 X176.757 Y136.171 E20.11995
G1 X176.74 Y136.372 E20.13404
G1 X176.646 Y137.285 E20.19815
G1 X176.625 Y137.463 E20.21066
G1 X176.517 Y138.269 E20.26746
G1 X176.489 Y138.455 E20.2806
G1 X176.336 Y139.371 E20.34547
G1 X176.302 Y139.556 E20.3586
G1 X176.131 Y140.41 E20.41944
G1 X176.084 Y140.626 E20.43488
G1 X175.83 Y141.684 E20.51087
G1 X175.783 Y141.867 E20.52407
G1 X175.635 Y142.406 E20.56311
G1 X175.561 Y142.652 E20.58105
G1 X175.295 Y143.477 E20.6416
G1 X175.212 Y143.718 E20.6594
G1 X174.922 Y144.499 E20.71759
G1 X174.82 Y144.753 E20.73671
G1 X174.457 Y145.603 E20.80127
G1 X174.351 Y145.833 E20.81895
G1 X174.091 Y146.371 E20.86069
G1 X173.848 Y146.845 E20.89789
G1 X173.48 Y147.514 E20.95122
G1 X173.218 Y147.96 E20.98735
G1 X172.952 Y148.389 E21.02261
G1 X172.609 Y148.912 E21.06629
G1 X172.513 Y149.053 E21.07821
G1 X172.219 Y149.47 E21.11385
G1 X171.865 Y149.946 E21.15528
G1 X171.547 Y150.351 E21.19124
G1 X171.171 Y150.807 E21.23253
G1 X171.066 Y150.93 E21.24382
G1 X170.704 Y151.342 E21.28213
G1 X170.271 Y151.808 E21.32656
G1 X169.812 Y152.274 E21.37224
G1 X169.375 Y152.694 E21.41458
G1 X168.921 Y153.112 E21.45768
G1 X168.511 Y153.469 E21.49565
G1 X167.831 Y154.032 E21.55732
G1 X167.599 Y154.212 E21.57782
G1 X166.89 Y154.743 E21.63969
G1 X166.592 Y154.955 E21.66524
G1 X165.935 Y155.402 E21.72074
G1 X165.669 Y155.573 E21.74283
G1 X164.465 Y156.3 E21.84106
G1 X164.262 Y156.417 E21.85743
G1 X163.339 Y156.925 E21.93102
G1 X163.133 Y157.033 E21.94726
G1 X162.048 Y157.575 E22.03198
G1 X161.515 Y157.823 E22.07304
G1 X160.878 Y158.07 E22.12076
G1 X160.217 Y158.241 E22.16844
G1 X159.338 Y158.347 E22.23028
G1 X158.596 Y158.364 E22.28212
G1 X135.71 Y158.363 E23.88063
G1 X135.007 Y158.353 E23.92973
G1 X134.326 Y158.304 E23.97742
G1 X133.655 Y158.175 E24.02515
G1 X133.003 Y157.968 E24.07293
G1 X132.176 Y157.575 E24.13688
G1 X131.703 Y157.295 E24.17527
G1 X130.624 Y156.602 E24.26484
G1 X130.48 Y156.506 E24.27693
G1 X129.893 Y156.104 E24.32662
G1 X129.688 Y155.957 E24.34424
G1 X128.622 Y155.157 E24.43733
G1 X128.203 Y154.827 E24.47458
G1 X127.879 Y154.557 E24.50404
G1 X127.056 Y153.837 E24.58042
G1 X126.903 Y153.699 E24.59481
G1 X126.231 Y153.068 E24.6592
G1 X126.059 Y152.9 E24.67599
G1 X125.403 Y152.231 E24.74143
G1 X125.249 Y152.067 E24.75715
G1 X124.61 Y151.363 E24.82355
G1 X124.463 Y151.195 E24.83914
G1 X123.952 Y150.587 E24.89462
G1 X123.802 Y150.4 E24.91136
G1 X123.255 Y149.692 E24.97385
G1 X123.112 Y149.501 E24.99052
G1 X122.529 Y148.679 E25.06091
G1 X122.401 Y148.49 E25.07685
G1 X122.013 Y147.895 E25.12646
G1 X121.892 Y147.701 E25.14243
G1 X121.344 Y146.784 E25.21705
G1 X121.222 Y146.569 E25.23431
G1 X120.838 Y145.86 E25.29063
G1 X120.737 Y145.666 E25.30591
G1 X120.355 Y144.893 E25.36613
G1 X120.258 Y144.687 E25.38204
G1 X119.841 Y143.753 E25.45348
G1 X119.759 Y143.559 E25.46819
G1 X119.463 Y142.826 E25.5234
G1 X119.39 Y142.635 E25.53769
G1 X119.107 Y141.857 E25.59551
G1 X119.042 Y141.669 E25.6094
