;FLAVOR:Marlin
;TIME:585
;Filament used: 0.531906m
;Layer height: 0.3
;MINX:86.684
;MINY:65.492
;MINZ:0.3
;MAXX:127.168
;MAXY:115.31
;MAXZ:13.5
;Generated with Cura_SteamEngine 4.11.0
M140 S60
M105
M190 S60
M104 S200
M105
M109 S200
M82 ;absolute extrusion mode
G21 ;metric values
G90 ;absolute positioning
M82 ;set extruder to absolute mode
M107 ;start with the fan off
G28 X0 Y0 ;move X/Y to min endstops
G28 Z0 ;move Z to min endstops
G1 Z15.0 F100 ;move the platform down 15mm
G92 E0 ;zero the extruded length
G1 F200 E3 ;extrude 3mm of feed stock
G92 E0 ;zero the extruded length again
G1 F100
G0 Y20 F100
M117 Printing...
G5
G92 E0
G92 E0
G1 F2400 E-6
;LAYER_COUNT:45
;LAYER:0
M107
M204 S3000
M205 X10 Y10
G1 F600 Z0.375
G0 F3000 X89.634 Y79.407 Z0.375
M204 S1800
M205 X8 Y8
;TYPE:SKIRT
G1 F600 Z0.3
G1 F2400 E0
G1 X89.696 Y79.344 E0.00617
G1 X90.226 Y78.863 E0.05616
G1 X90.965 Y78.345 E0.1192
G1 X91.476 Y78.039 E0.1608
G1 X92.949 Y77.173 E0.28015
G1 X95.229 Y75.745 E0.46805
G1 X97.411 Y74.292 E0.65116
G1 X99.572 Y72.761 E0.83613
G1 X101.695 Y71.166 E1.0216
G1 X103.764 Y69.519 E1.20631
G1 X106.16 Y67.487 E1.42574
G1 X106.635 Y67.07 E1.46989
G1 X107.198 Y66.629 E1.51984
G1 X107.808 Y66.255 E1.56982
G1 X108.455 Y65.95 E1.61978
G1 X109.132 Y65.72 E1.66972
G1 X109.83 Y65.566 E1.71965
G1 X110.542 Y65.492 E1.76964
G1 X111.512 Y65.518 E1.83742
G1 X111.869 Y65.555 E1.86249
G1 X112.575 Y65.668 E1.91243
G1 X113.264 Y65.86 E1.96238
G1 X113.928 Y66.127 E2.01237
G1 X114.557 Y66.467 E2.06231
G1 X115.145 Y66.874 E2.11226
G1 X115.683 Y67.345 E2.1622
G1 X116.166 Y67.873 E2.21219
G1 X116.587 Y68.451 E2.26213
G1 X116.94 Y69.073 E2.31208
G1 X117.222 Y69.73 E2.36202
G1 X117.496 Y70.725 E2.4341
G1 X117.609 Y71.319 E2.47634
G1 X117.64 Y71.492 E2.48861
G1 X117.929 Y73.278 E2.61498
G1 X118.394 Y75.916 E2.80208
G1 X118.932 Y78.53 E2.98848
G1 X119.529 Y81.077 E3.1712
G1 X120.213 Y83.65 E3.35716
G1 X120.963 Y86.185 E3.5418
G1 X121.785 Y88.699 E3.72655
G1 X122.678 Y91.191 E3.91144
G1 X123.646 Y93.671 E4.09739
G1 X124.681 Y96.112 E4.28258
G1 X125.774 Y98.501 E4.46607
G1 X125.938 Y98.839 E4.49231
G1 X126.542 Y100.105 E4.59029
G1 X126.814 Y100.767 E4.64028
G1 X127.046 Y101.626 E4.70242
G1 X127.147 Y102.334 E4.75237
G1 X127.168 Y103.049 E4.80234
G1 X127.116 Y103.756 E4.85185
G1 X127.049 Y104.306 E4.89055
G1 X126.893 Y105.114 E4.94803
G1 X126.82 Y105.393 E4.96817
G1 X126.6 Y106.074 E5.01816
G1 X126.306 Y106.726 E5.06811
G1 X125.941 Y107.341 E5.11806
G1 X125.325 Y108.121 E5.18749
G1 X125.076 Y108.39 E5.21309
G1 X124.561 Y108.886 E5.26303
G1 X123.995 Y109.323 E5.31297
G1 X123.48 Y109.646 E5.35543
G1 X122.993 Y109.924 E5.3946
G1 X122.351 Y110.241 E5.44461
G1 X121.679 Y110.484 E5.49452
G1 X120.983 Y110.651 E5.54451
G1 X120.205 Y110.743 E5.59923
G1 X119.225 Y110.799 E5.66779
G1 X116.553 Y110.989 E5.8549
G1 X113.892 Y111.254 E6.04168
G1 X111.295 Y111.587 E6.22455
G1 X108.664 Y112 E6.41057
G1 X106.05 Y112.486 E6.59627
G1 X103.503 Y113.036 E6.77827
G1 X100.926 Y113.667 E6.96358
G1 X98.343 Y114.38 E7.15074
G1 X97.444 Y114.656 E7.21643
G1 X96.097 Y115.055 E7.31455
G1 X95.401 Y115.22 E7.36451
G1 X94.691 Y115.306 E7.41447
G1 X93.945 Y115.31 E7.46657
G1 X93.247 Y115.263 E7.51544
G1 X92.533 Y115.143 E7.56601
G1 X91.845 Y114.947 E7.61597
G1 X91.184 Y114.675 E7.6659
G1 X90.557 Y114.33 E7.71588
G1 X89.972 Y113.918 E7.76586
G1 X89.437 Y113.444 E7.81578
G1 X88.928 Y112.875 E7.86911
G1 X88.73 Y112.625 E7.89138
G1 X88.318 Y112.04 E7.94136
G1 X87.974 Y111.413 E7.99131
G1 X87.701 Y110.751 E8.04132
G1 X87.543 Y110.223 E8.07982
G1 X87.298 Y109.251 E8.14983
G1 X87.073 Y108.303 E8.21789
G1 X86.864 Y107.464 E8.27828
G1 X86.734 Y106.761 E8.32821
G1 X86.684 Y106.048 E8.37814
G1 X86.735 Y105.137 E8.44186
G1 X86.81 Y104.555 E8.48285
G1 X86.87 Y104.026 E8.52004
G1 X86.894 Y103.884 E8.5301
G1 X87.086 Y102.361 E8.63731
G1 X87.378 Y99.744 E8.82124
G1 X87.597 Y97.112 E9.00571
G1 X87.743 Y94.439 E9.19268
G1 X87.812 Y91.797 E9.37728
G1 X87.806 Y89.153 E9.56195
G1 X87.726 Y86.512 E9.7465
G1 X87.692 Y85.932 E9.78708
G1 X87.637 Y84.707 E9.87273
G1 X87.662 Y83.793 E9.9366
G1 X87.687 Y83.539 E9.95442
G1 X87.859 Y82.567 E10.02337
G1 X87.875 Y82.505 E10.02784
G1 X88.092 Y81.823 E10.07783
G1 X88.384 Y81.17 E10.12779
G1 X88.699 Y80.619 E10.17212
G1 X89.099 Y80.026 E10.22208
G1 X89.634 Y79.407 E10.27923
M204 S3000
M205 X10 Y10
G0 F3000 X90.034 Y79.8
M204 S1800
M205 X8 Y8
G1 F2400 X90.096 Y79.737 E10.2854
G1 X90.602 Y79.279 E10.33307
G1 X91.253 Y78.825 E10.38851
G1 X91.759 Y78.522 E10.4297
G1 X93.268 Y77.635 E10.55196
G1 X95.508 Y76.232 E10.73657
G1 X97.743 Y74.744 E10.92411
G1 X99.897 Y73.218 E11.10849
G1 X102.021 Y71.622 E11.29405
G1 X104.129 Y69.943 E11.48229
G1 X106.526 Y67.909 E11.70186
G1 X107.004 Y67.491 E11.74621
G1 X107.543 Y67.072 E11.7939
G1 X108.128 Y66.718 E11.84165
G1 X108.75 Y66.435 E11.88938
G1 X109.401 Y66.227 E11.93712
G1 X110.071 Y66.096 E11.9848
G1 X110.752 Y66.045 E12.0325
G1 X111.454 Y66.075 E12.08158
G1 X111.811 Y66.112 E12.10665
G1 X112.485 Y66.222 E12.15434
G1 X113.142 Y66.41 E12.20208
G1 X113.773 Y66.674 E12.24985
G1 X114.368 Y67.009 E12.29754
G1 X114.92 Y67.412 E12.34528
G1 X115.421 Y67.876 E12.39298
G1 X115.865 Y68.395 E12.44068
G1 X116.245 Y68.963 E12.48841
G1 X116.556 Y69.572 E12.53618
G1 X116.793 Y70.212 E12.58384
G1 X116.946 Y70.83 E12.62831
G1 X117.059 Y71.424 E12.67054
G1 X117.087 Y71.582 E12.68175
G1 X117.379 Y73.385 E12.80933
G1 X117.844 Y76.023 E12.99642
G1 X118.379 Y78.626 E13.18203
G1 X118.986 Y81.213 E13.36763
G1 X119.676 Y83.809 E13.55525
G1 X120.425 Y86.341 E13.73967
G1 X121.257 Y88.885 E13.92662
G1 X122.16 Y91.406 E14.11366
G1 X123.123 Y93.873 E14.29863
G1 X124.163 Y96.326 E14.48473
G1 X125.27 Y98.746 E14.6706
G1 X125.433 Y99.08 E14.69656
G1 X126.037 Y100.346 E14.79454
G1 X126.294 Y100.979 E14.84225
G1 X126.497 Y101.736 E14.89699
G1 X126.591 Y102.412 E14.94466
G1 X126.584 Y103.427 E15.01556
G1 X126.494 Y104.235 E15.07235
G1 X126.351 Y104.972 E15.12478
G1 X126.278 Y105.251 E15.14493
G1 X126.066 Y105.901 E15.19268
G1 X125.781 Y106.522 E15.2404
G1 X125.424 Y107.105 E15.28815
G1 X124.914 Y107.74 E15.34504
G1 X124.665 Y108.009 E15.37064
G1 X124.172 Y108.482 E15.41836
G1 X123.398 Y109.041 E15.48505
G1 X122.717 Y109.437 E15.54007
G1 X122.104 Y109.738 E15.58777
G1 X121.459 Y109.965 E15.63553
G1 X120.793 Y110.115 E15.68321
G1 X120.174 Y110.184 E15.72671
G1 X119.151 Y110.242 E15.79828
G1 X116.493 Y110.431 E15.9844
G1 X113.873 Y110.692 E16.1683
G1 X111.171 Y111.039 E16.35858
G1 X108.577 Y111.445 E16.54197
G1 X105.973 Y111.93 E16.72697
G1 X103.362 Y112.494 E16.91355
G1 X100.779 Y113.126 E17.09928
G1 X98.196 Y113.839 E17.28644
G1 X97.285 Y114.12 E17.35303
G1 X95.938 Y114.519 E17.45115
G1 X95.272 Y114.674 E17.49892
G1 X94.593 Y114.751 E17.54664
G1 X93.974 Y114.751 E17.58988
G1 X93.309 Y114.706 E17.63643
G1 X92.627 Y114.59 E17.68475
G1 X91.971 Y114.397 E17.73251
G1 X91.343 Y114.129 E17.7802
G1 X90.75 Y113.789 E17.82795
G1 X90.201 Y113.383 E17.87564
G1 X89.703 Y112.915 E17.92337
G1 X89.367 Y112.527 E17.95922
G1 X89.169 Y112.277 E17.9815
G1 X88.777 Y111.717 E18.02924
G1 X88.453 Y111.116 E18.07693
G1 X88.201 Y110.481 E18.12465
G1 X88.086 Y110.086 E18.15338
G1 X87.843 Y109.122 E18.22282
G1 X87.614 Y108.158 E18.29203
G1 X87.408 Y107.332 E18.35149
G1 X87.286 Y106.66 E18.39919
G1 X87.243 Y105.978 E18.44692
G1 X87.291 Y105.209 E18.50074
G1 X87.357 Y104.7 E18.53659
G1 X87.426 Y104.089 E18.57953
G1 X87.452 Y103.939 E18.59017
G1 X87.635 Y102.49 E18.69218
G1 X87.937 Y99.782 E18.88249
G1 X88.158 Y97.118 E19.0692
G1 X88.302 Y94.484 E19.25345
G1 X88.372 Y91.81 E19.44029
G1 X88.366 Y89.135 E19.62713
G1 X88.286 Y86.497 E19.81147
G1 X88.252 Y85.907 E19.85274
G1 X88.197 Y84.682 E19.93839
G1 X88.219 Y83.848 E19.99666
G1 X88.244 Y83.594 E20.01449
G1 X88.401 Y82.707 E20.07741
G1 X88.417 Y82.645 E20.08188
G1 X88.626 Y81.994 E20.12963
G1 X89.056 Y81.114 E20.19804
G1 X89.18 Y80.906 E20.21496
G1 X89.563 Y80.34 E20.26269
G1 X90.034 Y79.8 E20.31274
M204 S3000
M205 X10 Y10
G0 F3000 X90.433 Y80.192
M204 S1800
M205 X8 Y8
G1 F2400 X90.495 Y80.129 E20.31891
G1 X90.978 Y79.695 E20.36427
G1 X91.541 Y79.305 E20.4121
G1 X92.043 Y79.005 E20.45295
G1 X93.556 Y78.116 E20.57552
G1 X95.806 Y76.706 E20.76098
G1 X98.042 Y75.218 E20.94858
G1 X100.238 Y73.662 E21.13656
G1 X102.365 Y72.064 E21.32238
G1 X104.478 Y70.381 E21.51106
G1 X106.893 Y68.332 E21.73227
G1 X107.373 Y67.912 E21.77682
G1 X107.887 Y67.515 E21.82218
G1 X108.446 Y67.184 E21.86756
G1 X109.041 Y66.924 E21.91291
G1 X109.664 Y66.739 E21.95831
G1 X110.305 Y66.632 E22.0037
G1 X110.954 Y66.605 E22.04907
G1 X111.753 Y66.669 E22.10505
G1 X112.394 Y66.776 E22.15044
G1 X113.017 Y66.96 E22.19581
G1 X113.612 Y67.22 E22.24117
G1 X114.172 Y67.55 E22.28657
G1 X114.686 Y67.947 E22.33193
G1 X115.148 Y68.404 E22.37732
G1 X115.55 Y68.915 E22.42273
G1 X115.886 Y69.47 E22.46805
G1 X116.151 Y70.063 E22.51341
G1 X116.396 Y70.934 E22.57661
G1 X116.509 Y71.528 E22.61884
G1 X116.534 Y71.671 E22.62898
G1 X116.817 Y73.421 E22.7528
G1 X117.293 Y76.124 E22.9445
G1 X117.834 Y78.749 E23.1317
G1 X118.445 Y81.356 E23.31872
G1 X119.139 Y83.967 E23.50743
G1 X119.887 Y86.496 E23.69163
G1 X120.739 Y89.103 E23.8832
G1 X121.626 Y91.579 E24.0669
G1 X122.611 Y94.1 E24.25594
G1 X123.64 Y96.528 E24.44013
G1 X124.773 Y99.005 E24.63038
G1 X124.927 Y99.321 E24.65493
G1 X125.531 Y100.587 E24.75291
G1 X125.775 Y101.19 E24.79834
G1 X125.947 Y101.846 E24.84571
G1 X126.035 Y102.489 E24.89104
G1 X126.027 Y103.374 E24.95286
G1 X125.938 Y104.164 E25.00839
G1 X125.809 Y104.831 E25.05584
G1 X125.736 Y105.11 E25.07598
G1 X125.533 Y105.727 E25.12135
G1 X125.256 Y106.314 E25.16668
G1 X124.909 Y106.863 E25.21205
G1 X124.503 Y107.36 E25.25687
G1 X124.254 Y107.629 E25.28247
G1 X123.784 Y108.077 E25.32782
G1 X123.108 Y108.562 E25.38593
G1 X122.442 Y108.949 E25.43974
G1 X121.857 Y109.234 E25.48519
G1 X121.243 Y109.444 E25.53051
G1 X120.607 Y109.577 E25.57589
G1 X120.142 Y109.625 E25.60855
G1 X119.148 Y109.681 E25.67808
G1 X116.435 Y109.875 E25.86806
G1 X113.781 Y110.139 E26.05435
G1 X111.117 Y110.48 E26.24194
G1 X108.497 Y110.891 E26.42717
G1 X105.822 Y111.39 E26.61723
G1 X103.255 Y111.943 E26.80064
G1 X100.633 Y112.586 E26.9892
G1 X98.049 Y113.298 E27.17641
G1 X97.126 Y113.583 E27.24388
G1 X95.779 Y113.982 E27.34201
G1 X95.146 Y114.127 E27.38737
G1 X94.499 Y114.194 E27.4328
G1 X93.678 Y114.175 E27.49016
G1 X93.362 Y114.149 E27.5123
G1 X92.722 Y114.037 E27.55768
G1 X92.1 Y113.848 E27.60309
G1 X91.507 Y113.584 E27.64843
G1 X90.95 Y113.25 E27.69379
G1 X90.439 Y112.849 E27.73916
G1 X89.806 Y112.179 E27.80354
G1 X89.608 Y111.929 E27.82581
G1 X89.237 Y111.396 E27.87117
G1 X88.934 Y110.821 E27.91657
G1 X88.629 Y109.948 E27.98116
G1 X88.387 Y108.993 E28.04997
G1 X88.145 Y107.971 E28.12333
G1 X87.952 Y107.2 E28.17884
G1 X87.838 Y106.561 E28.22418
G1 X87.803 Y105.912 E28.26957
G1 X87.846 Y105.28 E28.31382
G1 X87.921 Y104.698 E28.3548
G1 X87.983 Y104.152 E28.39319
G1 X88.004 Y104.032 E28.40169
G1 X88.197 Y102.501 E28.50948
G1 X88.493 Y99.856 E28.69537
G1 X88.717 Y97.16 E28.88433
G1 X88.862 Y94.492 E29.07095
G1 X88.932 Y91.824 E29.25737
G1 X88.926 Y89.14 E29.44483
G1 X88.844 Y86.447 E29.63302
G1 X88.811 Y85.882 E29.67255
G1 X88.756 Y84.657 E29.7582
G1 X88.776 Y83.903 E29.81088
G1 X88.801 Y83.649 E29.8287
G1 X88.943 Y82.847 E29.88559
G1 X88.959 Y82.785 E29.89006
G1 X89.16 Y82.167 E29.93546
G1 X89.537 Y81.4 E29.99515
G1 X89.661 Y81.192 E30.01206
G1 X90.027 Y80.656 E30.0574
G1 X90.433 Y80.192 E30.10046
M204 S3000
M205 X10 Y10
G0 F3000 X98.151 Y84.309
M204 S1800
M205 X8 Y8
;TYPE:SUPPORT
G1 F1800 X98.683 Y84.155 E30.13914
G1 X99.28 Y84.354 E30.1831
G1 X98.949 Y84.691 E30.21609
G1 X98.538 Y85.126 E30.25789
G1 X98.468 Y85.221 E30.26613
G1 X98.168 Y85.781 E30.31051
G1 X98.021 Y86.319 E30.34946
G1 X97.792 Y87.178 E30.41155
G1 X97.583 Y87.077 E30.42777
G1 X97.358 Y86.253 E30.48743
G1 X97.545 Y86.082 E30.50513
G1 X97.846 Y85.68 E30.5402
G1 X97.903 Y85.586 E30.54788
G1 X98.115 Y85.075 E30.58652
G1 X98.171 Y84.45 E30.63035
G1 X98.151 Y84.309 E30.6403
M204 S3000
M205 X10 Y10
G0 F3000 X105.074 Y83.189
M204 S1800
M205 X8 Y8
G1 F1800 X105.12 Y82.788 E30.66849
G1 X105.794 Y82.659 E30.71642
G1 X106.162 Y81.87 E30.77723
G1 X106.691 Y82.019 E30.81562
G1 X107.213 Y81.8 E30.85515
G1 X107.578 Y81.87 E30.88111
G1 X108.087 Y81.674 E30.91921
G1 X108.93 Y81.846 E30.9793
G1 X109.457 Y81.519 E31.02262
G1 X109.544 Y81.192 E31.04626
G1 X110.865 Y81.373 E31.13938
G1 X111.046 Y81.176 E31.15807
G1 X110.922 Y81.379 E31.17469
G1 X111.112 Y82.391 E31.2466
G1 X111.017 Y82.519 E31.25774
G1 X110.736 Y82.501 E31.27741
G1 X110.001 Y82.654 E31.32984
G1 X109.597 Y82.545 E31.35907
G1 X109.231 Y82.664 E31.38595
G1 X108.834 Y82.568 E31.41448
G1 X108.315 Y82.769 E31.45335
G1 X107.842 Y82.688 E31.48687
G1 X107.066 Y83.026 E31.54599
G1 X106.192 Y83.125 E31.60743
G1 X105.756 Y83.48 E31.6467
G1 X105.599 Y83.964 E31.68224
G1 X105.502 Y83.767 E31.69757
G1 X105.215 Y83.351 E31.73287
G1 X105.074 Y83.189 E31.74787
M204 S3000
M205 X10 Y10
G0 F3000 X111.197 Y80.261
M204 S1800
M205 X8 Y8
G1 F1800 X111.16 Y80.101 E31.75934
G1 X111.225 Y80.19 E31.76704
G1 X111.197 Y80.261 E31.77237
M204 S3000
M205 X10 Y10
G0 F3000 X110.778 Y78.427
M204 S1800
M205 X8 Y8
G1 F1800 X110.635 Y77.798 E31.81743
G1 X111.245 Y76.706 E31.90479
G1 X111.311 Y76.911 E31.91984
G1 X111.266 Y77.331 E31.94934
G1 X111.306 Y77.472 E31.95958
G1 X111.246 Y77.844 E31.98589
G1 X110.778 Y78.427 E32.03811
M204 S3000
M205 X10 Y10
G0 F3000 X111.119 Y75.229
M204 S1800
M205 X8 Y8
G1 F1800 X110.379 Y75.135 E32.09021
G1 X110.348 Y74.776 E32.11538
G1 X109.811 Y73.819 E32.19203
G1 X110.966 Y72.682 E32.30523
G1 X110.997 Y72.539 E32.31545
G1 X111.17 Y73.276 E32.36833
G1 X111.024 Y74.327 E32.44244
G1 X111.1 Y75.196 E32.50337
G1 X111.119 Y75.229 E32.50603
M204 S3000
M205 X10 Y10
G0 F3000 X110.823 Y74.58
M204 S1800
M205 X8 Y8
G1 F1800 X110.564 Y74.729 E32.5269
M204 S3000
M205 X10 Y10
G0 F3000 X112.715 Y92.062
M204 S1800
M205 X8 Y8
G1 F1800 X113.221 Y92.316 E32.56644
G1 X113.316 Y92.497 E32.58072
G1 X113.47 Y93.304 E32.6381
G1 X113.029 Y94.329 E32.71604
G1 X112.268 Y95.305 E32.80248
G1 X111.55 Y95.762 E32.86193
G1 X111.273 Y95.877 E32.88288
G1 X111.037 Y95.88 E32.89936
G1 X110.327 Y95.676 E32.95096
G1 X110.699 Y95.556 E32.97826
G1 X111.259 Y95.273 E33.02209
G1 X111.365 Y95.193 E33.03136
G1 X111.767 Y94.804 E33.07044
G1 X111.861 Y94.675 E33.08158
G1 X112.124 Y94.118 E33.12461
G1 X112.163 Y93.997 E33.13349
G1 X112.265 Y93.332 E33.18048
G1 X112.265 Y93.218 E33.18844
G1 X112.194 Y92.555 E33.23501
G1 X112.075 Y92.148 E33.26463
G1 X112.129 Y92.177 E33.26891
G1 X112.715 Y92.062 E33.31062
M204 S3000
M205 X10 Y10
G0 F3000 X107.828 Y96.948
M204 S1800
M205 X8 Y8
G1 F1800 X107.724 Y97.046 E33.3206
G1 X107.36 Y97.185 E33.34782
G1 X107.371 Y96.981 E33.36209
G1 X107.828 Y96.948 E33.39409
M204 S3000
M205 X10 Y10
G0 F3000 X105.744 Y97.859
M204 S1800
M205 X8 Y8
G1 F1800 X104.991 Y97.961 E33.44716
G1 X104.552 Y98.251 E33.48391
G1 X103.396 Y100.196 E33.64195
G1 X103.436 Y100.768 E33.682
G1 X103.543 Y100.904 E33.69408
G1 X103.666 Y102.314 E33.79294
G1 X103.941 Y102.766 E33.8299
G1 X104.471 Y103.099 E33.87361
G1 X104.446 Y103.33 E33.88984
G1 X104.139 Y103.296 E33.91142
G1 X103.788 Y103.376 E33.93656
G1 X103.577 Y103.495 E33.95348
G1 X103.381 Y103.686 E33.9726
G1 X103.296 Y103.307 E33.99973
G1 X103.414 Y102.203 E34.07728
G1 X102.976 Y101.598 E34.12944
G1 X102.986 Y101.462 E34.13897
G1 X102.782 Y100.972 E34.17604
G1 X102.476 Y100.706 E34.20436
G1 X102.476 Y100.56 E34.21456
G1 X102.205 Y100.124 E34.25041
G1 X102.21 Y100.047 E34.2558
G1 X101.931 Y99.555 E34.29531
G1 X101.91 Y99.219 E34.31882
G1 X101.703 Y98.834 E34.34935
G1 X101.788 Y98.164 E34.39653
G1 X101.621 Y97.881 E34.41948
G1 X102.966 Y95.09 E34.63587
G1 X102.569 Y94.491 E34.68607
G1 X100.738 Y94.589 E34.81414
G1 X100.519 Y94.074 E34.85323
G1 X100.046 Y93.761 E34.89284
G1 X98.829 Y93.761 E34.97785
G1 X99.051 Y93.553 E34.99909
G1 X99.325 Y93.163 E35.03238
G1 X99.516 Y92.697 E35.06756
G1 X99.573 Y92.398 E35.08882
G1 X99.656 Y92.416 E35.09475
G1 X100.259 Y92.485 E35.13714
