;FLAVOR:Marlin
;TIME:78
;Filament used: 0.0893187m
;Layer height: 0.2
;MINX:91.759
;MINY:78.154
;MINZ:0.2
;MAXX:128.368
;MAXY:113.101
;MAXZ:0.8
;Generated with Cura_SteamEngine 4.11.0
M140 S60
M105
M190 S60
M104 S200
M105
M109 S200
M82 ;absolute extrusion mode
G21 ;metric values
G90 ;absolute positioning
M82 ;set extruder to absolute mode
M107 ;start with the fan off
G28 X0 Y0 ;move X/Y to min endstops
G28 Z0 ;move Z to min endstops
G1 Z15.0 F100 ;move the platform down 15mm
G92 E0 ;zero the extruded length
G1 F200 E3 ;extrude 3mm of feed stock
G92 E0 ;zero the extruded length again
G1 F100
G0 Y20 F100
M117 Printing...
G5
G92 E0
G92 E0
G1 F2400 E-6
;LAYER_COUNT:4
;LAYER:0
M107
M204 S3000
M205 X10 Y10
G1 F600 Z0.275
G0 F3000 X101.449 Y81.032 Z0.275
M204 S1800
M205 X8 Y8
;TYPE:SKIRT
G1 F600 Z0.2
G1 F2400 E0
G1 X101.858 Y80.621 E0.027
G1 X102.36 Y80.244 E0.05623
G1 X103.083 Y79.781 E0.09621
G1 X103.323 Y79.639 E0.10919
G1 X103.948 Y79.295 E0.14241
G1 X104.242 Y79.147 E0.15774
G1 X104.735 Y78.924 E0.18294
G1 X105.057 Y78.794 E0.19911
G1 X105.627 Y78.591 E0.22728
G1 X106.041 Y78.468 E0.24739
G1 X106.57 Y78.339 E0.27275
G1 X107.103 Y78.244 E0.29795
G1 X107.79 Y78.168 E0.33014
G1 X108.58 Y78.154 E0.36693
G1 X109.324 Y78.208 E0.40167
G1 X109.642 Y78.243 E0.41656
G1 X110.153 Y78.349 E0.44086
G1 X110.872 Y78.545 E0.47557
G1 X111.453 Y78.748 E0.50422
G1 X111.946 Y78.961 E0.52923
G1 X112.373 Y79.175 E0.55147
G1 X113.163 Y79.629 E0.5939
G1 X113.428 Y79.795 E0.60846
G1 X113.994 Y80.181 E0.64036
G1 X114.266 Y80.376 E0.65594
G1 X115.553 Y81.322 E0.73032
G1 X115.983 Y81.627 E0.75487
G1 X116.456 Y81.947 E0.78146
G1 X116.886 Y82.221 E0.8052
G1 X117.379 Y82.517 E0.83198
G1 X117.879 Y82.802 E0.85878
G1 X119.177 Y83.502 E0.92744
G1 X120.346 Y84.142 E0.9895
G1 X120.479 Y84.218 E0.99663
G1 X121.073 Y84.572 E1.02883
G1 X121.237 Y84.675 E1.03785
G1 X121.802 Y85.048 E1.06938
G1 X121.985 Y85.176 E1.07977
G1 X122.522 Y85.573 E1.11087
G1 X122.776 Y85.776 E1.12601
G1 X123.279 Y86.212 E1.15701
G1 X123.545 Y86.462 E1.17401
G1 X123.997 Y86.926 E1.20417
G1 X124.252 Y87.213 E1.22204
G1 X124.666 Y87.724 E1.25267
G1 X124.899 Y88.04 E1.27095
G1 X125.268 Y88.594 E1.30194
G1 X125.473 Y88.937 E1.32055
G1 X125.797 Y89.541 E1.35247
G1 X125.953 Y89.865 E1.36921
G1 X126.217 Y90.478 E1.40029
G1 X126.328 Y90.762 E1.41449
G1 X126.563 Y91.439 E1.44786
G1 X126.645 Y91.702 E1.46069
G1 X126.832 Y92.382 E1.49352
G1 X126.879 Y92.573 E1.50268
G1 X127.034 Y93.261 E1.53552
G1 X127.07 Y93.437 E1.54389
G1 X127.215 Y94.245 E1.58211
G1 X127.341 Y95.053 E1.62019
G1 X127.44 Y95.784 E1.65454
G1 X127.613 Y97.133 E1.71787
G1 X127.698 Y97.779 E1.74821
G1 X127.778 Y98.334 E1.77432
G1 X127.863 Y98.879 E1.8
G1 X128.129 Y100.471 E1.87516
G1 X128.283 Y101.566 E1.92665
G1 X128.317 Y101.92 E1.94321
G1 X128.368 Y102.866 E1.98732
G1 X128.362 Y103.414 E2.01284
G1 X128.288 Y104.376 E2.05777
G1 X128.189 Y105.014 E2.08783
G1 X127.958 Y105.998 E2.1349
G1 X127.834 Y106.423 E2.15551
G1 X127.659 Y106.924 E2.18022
G1 X127.56 Y107.181 E2.19305
G1 X127.328 Y107.727 E2.22067
G1 X127.22 Y107.961 E2.23267
G1 X126.946 Y108.51 E2.26124
G1 X126.842 Y108.705 E2.27153
G1 X126.52 Y109.273 E2.30194
G1 X126.425 Y109.433 E2.3106
G1 X126.057 Y110.02 E2.34286
G1 X125.951 Y110.179 E2.35176
G1 X125.544 Y110.767 E2.38506
G1 X125.452 Y110.896 E2.39244
G1 X125.132 Y111.323 E2.41728
G1 X124.753 Y111.761 E2.44425
G1 X124.318 Y112.144 E2.47124
G1 X123.834 Y112.462 E2.49821
G1 X123.311 Y112.711 E2.52518
G1 X122.759 Y112.886 E2.55214
G1 X122.188 Y112.983 E2.57911
G1 X121.684 Y113.003 E2.6026
G1 X121.396 Y112.997 E2.61601
G1 X120.819 Y112.945 E2.64299
G1 X120.254 Y112.814 E2.67
G1 X119.713 Y112.607 E2.69697
G1 X119.206 Y112.327 E2.72394
G1 X118.742 Y111.98 E2.75092
G1 X118.33 Y111.573 E2.77788
G1 X118.029 Y111.187 E2.80068
G1 X116.908 Y109.566 E2.89245
G1 X116.612 Y109.068 E2.91942
G1 X116.387 Y108.534 E2.94641
G1 X116.249 Y108.029 E2.97078
G1 X116.226 Y107.918 E2.97606
G1 X116.148 Y107.344 E3.00304
G1 X116.15 Y106.765 E3.03
G1 X116.207 Y106.316 E3.05107
G1 X116.997 Y101.962 E3.25712
G1 X115.224 Y94.624 E3.60864
G1 X108.532 Y89.981 E3.98791
G1 X103.244 Y88.08 E4.24957
G1 X102.714 Y87.847 E4.27652
G1 X102.221 Y87.543 E4.30349
G1 X101.774 Y87.175 E4.33045
G1 X101.382 Y86.748 E4.35744
G1 X101.053 Y86.271 E4.38443
G1 X100.792 Y85.754 E4.41139
G1 X100.606 Y85.206 E4.43834
G1 X100.493 Y84.609 E4.46663
G1 X100.453 Y84.262 E4.4829
G1 X100.426 Y83.683 E4.50989
G1 X100.48 Y83.106 E4.53687
G1 X100.612 Y82.542 E4.56385
G1 X100.82 Y82.002 E4.59079
G1 X101.101 Y81.495 E4.61778
G1 X101.449 Y81.032 E4.64475
M204 S3000
M205 X10 Y10
G0 F3000 X102.024 Y81.234
M204 S1800
M205 X8 Y8
G1 F2400 X102.429 Y80.878 E4.66986
G1 X102.662 Y80.716 E4.68307
G1 X103.385 Y80.253 E4.72305
G1 X103.593 Y80.129 E4.73433
G1 X104.218 Y79.785 E4.76755
G1 X104.473 Y79.658 E4.78081
G1 X104.966 Y79.435 E4.80601
G1 X105.245 Y79.322 E4.82002
G1 X105.815 Y79.119 E4.8482
G1 X106.174 Y79.012 E4.86564
G1 X106.703 Y78.883 E4.891
G1 X107.165 Y78.801 E4.91285
G1 X107.852 Y78.725 E4.94503
G1 X108.54 Y78.713 E4.97707
G1 X109.284 Y78.767 E5.01181
G1 X110.005 Y78.889 E5.04586
G1 X110.724 Y79.085 E5.08056
G1 X111.231 Y79.263 E5.10558
G1 X111.724 Y79.476 E5.13059
G1 X112.094 Y79.661 E5.14985
G1 X112.884 Y80.115 E5.19228
G1 X113.114 Y80.259 E5.20491
G1 X113.593 Y80.584 E5.23186
G1 X113.934 Y80.827 E5.25136
G1 X115.234 Y81.783 E5.3265
G1 X115.635 Y82.067 E5.34938
G1 X116.152 Y82.417 E5.37845
G1 X116.59 Y82.697 E5.40266
G1 X117.115 Y83.011 E5.43114
G1 X117.605 Y83.29 E5.4574
G1 X118.908 Y83.993 E5.52634
G1 X120.077 Y84.633 E5.5884
G1 X120.192 Y84.699 E5.59457
G1 X120.786 Y85.053 E5.62677
G1 X120.928 Y85.142 E5.63457
G1 X121.493 Y85.515 E5.6661
G1 X121.652 Y85.626 E5.67513
G1 X122.189 Y86.023 E5.70623
G1 X122.409 Y86.199 E5.71934
G1 X122.912 Y86.635 E5.75034
G1 X123.144 Y86.853 E5.76516
G1 X123.596 Y87.317 E5.79533
G1 X123.817 Y87.566 E5.81083
G1 X124.231 Y88.077 E5.84145
G1 X124.433 Y88.35 E5.85727
G1 X124.802 Y88.904 E5.88826
G1 X124.98 Y89.201 E5.90438
G1 X125.304 Y89.805 E5.9363
G1 X125.439 Y90.086 E5.95082
G1 X125.703 Y90.699 E5.98189
G1 X125.799 Y90.945 E5.99419
G1 X126.034 Y91.622 E6.02756
G1 X126.105 Y91.851 E6.03872
G1 X126.292 Y92.531 E6.07156
G1 X126.333 Y92.696 E6.07948
G1 X126.488 Y93.384 E6.11232
G1 X126.519 Y93.537 E6.11959
G1 X126.662 Y94.332 E6.1572
G1 X126.786 Y95.128 E6.19471
G1 X126.884 Y95.855 E6.22887
G1 X127.058 Y97.206 E6.2923
G1 X127.143 Y97.853 E6.32268
G1 X127.221 Y98.394 E6.34814
G1 X127.31 Y98.971 E6.37532
G1 X127.591 Y100.661 E6.4551
G1 X127.728 Y101.644 E6.50131
G1 X127.758 Y101.95 E6.51563
G1 X127.809 Y102.896 E6.55974
G1 X127.803 Y103.371 E6.58186
G1 X127.729 Y104.333 E6.62679
G1 X127.644 Y104.886 E6.65284
G1 X127.413 Y105.87 E6.69991
G1 X127.305 Y106.238 E6.71776
G1 X127.13 Y106.739 E6.74247
G1 X127.044 Y106.962 E6.7536
G1 X126.812 Y107.508 E6.78123
G1 X126.719 Y107.71 E6.79158
G1 X126.445 Y108.259 E6.82015
G1 X126.355 Y108.429 E6.82911
G1 X126.033 Y108.997 E6.85951
G1 X125.95 Y109.135 E6.86701
G1 X125.582 Y109.722 E6.89927
G1 X125.491 Y109.861 E6.90701
G1 X125.084 Y110.449 E6.94031
G1 X125.004 Y110.56 E6.94668
G1 X124.684 Y110.987 E6.97152
G1 X124.329 Y111.393 E6.99664
G1 X123.919 Y111.743 E7.02174
G1 X123.461 Y112.028 E7.04686
G1 X122.966 Y112.242 E7.07197
G1 X122.445 Y112.381 E7.09708
G1 X121.695 Y112.443 E7.13212
G1 X121.407 Y112.437 E7.14553
G1 X120.87 Y112.386 E7.17065
G1 X120.347 Y112.256 E7.19574
G1 X119.849 Y112.05 E7.22084
G1 X119.386 Y111.773 E7.24596
G1 X118.969 Y111.431 E7.27107
G1 X118.489 Y110.868 E7.30552
G1 X117.368 Y109.247 E7.3973
G1 X117.095 Y108.782 E7.4224
G1 X116.894 Y108.282 E7.4475
G1 X116.775 Y107.805 E7.47039
G1 X116.705 Y107.27 E7.49551
G1 X116.714 Y106.731 E7.52061
G1 X116.758 Y106.416 E7.53542
G1 X117.569 Y101.945 E7.74701
G1 X115.719 Y94.286 E8.1139
G1 X108.79 Y89.478 E8.50661
G1 X103.434 Y87.553 E8.77163
G1 X102.941 Y87.334 E8.79675
G1 X102.486 Y87.044 E8.82187
G1 X102.08 Y86.69 E8.84695
G1 X101.729 Y86.28 E8.87209
G1 X101.444 Y85.823 E8.89716
G1 X101.229 Y85.328 E8.92229
G1 X101.049 Y84.545 E8.9597
G1 X101.009 Y84.198 E8.97597
G1 X100.987 Y83.659 E9.00109
G1 X101.045 Y83.123 E9.02619
G1 X101.182 Y82.601 E9.05132
G1 X101.394 Y82.105 E9.07644
G1 X101.677 Y81.646 E9.10155
G1 X102.024 Y81.234 E9.12663
M204 S3000
M205 X10 Y10
G0 F3000 X102.252 Y81.817
M204 S1800
M205 X8 Y8
G1 F2400 X102.598 Y81.462 E9.14971
G1 X102.964 Y81.187 E9.17103
G1 X103.687 Y80.724 E9.21101
G1 X103.863 Y80.62 E9.22053
G1 X104.488 Y80.276 E9.25375
G1 X104.704 Y80.168 E9.26499
G1 X105.197 Y79.945 E9.29019
G1 X105.433 Y79.85 E9.30203
G1 X106.003 Y79.647 E9.33021
G1 X106.306 Y79.556 E9.34494
G1 X106.835 Y79.427 E9.37029
G1 X107.226 Y79.358 E9.38878
G1 X107.913 Y79.282 E9.42097
G1 X108.499 Y79.271 E9.44826
G1 X109.243 Y79.325 E9.48299
G1 X109.858 Y79.429 E9.51204
G1 X110.577 Y79.625 E9.54674
G1 X111.009 Y79.777 E9.56806
G1 X111.502 Y79.99 E9.59307
G1 X111.815 Y80.147 E9.60937
G1 X112.605 Y80.601 E9.6518
G1 X112.799 Y80.722 E9.66245
G1 X113.342 Y81.092 E9.69304
G1 X113.602 Y81.278 E9.70793
G1 X114.908 Y82.238 E9.78341
G1 X115.321 Y82.531 E9.80698
G1 X115.821 Y82.869 E9.83509
G1 X116.329 Y83.194 E9.86317
G1 X116.819 Y83.488 E9.88978
G1 X117.326 Y83.776 E9.91693
G1 X118.639 Y84.484 E9.98639
G1 X119.808 Y85.124 E10.04845
G1 X119.906 Y85.18 E10.0537
G1 X120.5 Y85.534 E10.0859
G1 X120.62 Y85.61 E10.09251
G1 X121.185 Y85.983 E10.12404
G1 X121.319 Y86.076 E10.13163
G1 X121.856 Y86.473 E10.16273
G1 X122.042 Y86.623 E10.17386
G1 X122.545 Y87.059 E10.20485
G1 X122.743 Y87.244 E10.21747
G1 X123.195 Y87.708 E10.24763
G1 X123.382 Y87.918 E10.26073
G1 X123.796 Y88.429 E10.29135
G1 X123.966 Y88.661 E10.30474
G1 X124.335 Y89.215 E10.33574
G1 X124.486 Y89.466 E10.34938
G1 X124.81 Y90.07 E10.38129
G1 X124.925 Y90.308 E10.3936
G1 X125.189 Y90.921 E10.42468
G1 X125.27 Y91.129 E10.43507
G1 X125.505 Y91.806 E10.46844
G1 X125.565 Y91.999 E10.47785
G1 X125.752 Y92.679 E10.51069
G1 X125.787 Y92.819 E10.51741
G1 X125.942 Y93.507 E10.55025
G1 X125.968 Y93.636 E10.55638
G1 X126.109 Y94.419 E10.59343
G1 X126.231 Y95.203 E10.63037
G1 X126.329 Y95.926 E10.66434
G1 X126.503 Y97.291 E10.72842
G1 X126.584 Y97.895 E10.7568
G1 X126.668 Y98.48 E10.78432
G1 X126.758 Y99.063 E10.81178
G1 X127.037 Y100.738 E10.89085
G1 X127.174 Y101.721 E10.93707
G1 X127.199 Y101.98 E10.94918
G1 X127.25 Y102.926 E10.9933
G1 X127.245 Y103.328 E11.01202
G1 X127.171 Y104.29 E11.05695
G1 X127.098 Y104.758 E11.079
G1 X126.867 Y105.742 E11.12607
G1 X126.777 Y106.054 E11.14119
G1 X126.602 Y106.555 E11.1659
G1 X126.529 Y106.743 E11.17529
G1 X126.297 Y107.289 E11.20291
G1 X126.218 Y107.46 E11.21168
G1 X125.944 Y108.009 E11.24025
G1 X125.867 Y108.153 E11.24786
G1 X125.545 Y108.721 E11.27826
G1 X125.476 Y108.838 E11.28459
G1 X125.108 Y109.425 E11.31685
G1 X125.031 Y109.542 E11.32337
G1 X124.624 Y110.13 E11.35667
G1 X124.556 Y110.224 E11.36207
G1 X124.236 Y110.651 E11.38692
G1 X123.907 Y111.023 E11.41004
G1 X123.523 Y111.337 E11.43314
G1 X123.094 Y111.585 E11.45621
G1 X122.631 Y111.762 E11.47929
G1 X122.145 Y111.861 E11.50239
G1 X121.419 Y111.877 E11.5362
G1 X120.925 Y111.827 E11.55932
G1 X120.446 Y111.698 E11.58242
G1 X119.994 Y111.494 E11.60551
G1 X119.581 Y111.22 E11.62859
G1 X119.217 Y110.884 E11.65166
G1 X118.95 Y110.55 E11.67157
G1 X117.829 Y108.929 E11.76334
G1 X117.58 Y108.5 E11.78644
G1 X117.346 Y107.802 E11.82072
G1 X117.262 Y107.199 E11.84906
G1 X117.309 Y106.516 E11.88094
G1 X118.142 Y101.929 E12.09803
G1 X116.213 Y93.947 E12.4804
G1 X109.048 Y88.976 E12.88647
G1 X103.623 Y87.026 E13.1549
G1 X103.171 Y86.822 E13.17799
G1 X102.758 Y86.547 E13.2011
G1 X102.395 Y86.21 E13.22416
G1 X102.09 Y85.818 E13.24729
G1 X101.852 Y85.383 E13.27038
G1 X101.687 Y84.915 E13.29348
G1 X101.565 Y84.134 E13.33029
G1 X101.548 Y83.638 E13.3534
G1 X101.611 Y83.146 E13.3765
G1 X101.752 Y82.671 E13.39957
G1 X101.968 Y82.224 E13.42269
G1 X102.252 Y81.817 E13.4458
M204 S3000
M205 X10 Y10
G0 F3000 X102.827 Y82.015
M204 S1800
M205 X8 Y8
G1 F2400 X103.266 Y81.659 E13.47211
G1 X103.989 Y81.196 E13.51209
G1 X104.133 Y81.11 E13.5199
G1 X104.758 Y80.766 E13.55312
G1 X104.934 Y80.678 E13.56228
G1 X105.427 Y80.455 E13.58748
G1 X105.621 Y80.377 E13.59722
G1 X106.191 Y80.174 E13.62539
G1 X106.439 Y80.1 E13.63744
G1 X106.968 Y79.971 E13.6628
G1 X107.288 Y79.914 E13.67793
G1 X107.975 Y79.838 E13.71011
G1 X108.458 Y79.83 E13.73261
G1 X109.202 Y79.884 E13.76734
G1 X109.711 Y79.97 E13.79138
G1 X110.43 Y80.166 E13.82608
G1 X110.786 Y80.291 E13.84365
G1 X111.279 Y80.504 E13.86866
G1 X111.536 Y80.632 E13.88203
G1 X112.326 Y81.086 E13.92445
G1 X112.485 Y81.186 E13.9332
G1 X113.016 Y81.547 E13.9631
G1 X113.271 Y81.73 E13.97771
G1 X114.558 Y82.676 E14.05209
G1 X115.035 Y83.014 E14.07931
G1 X115.493 Y83.324 E14.10506
G1 X116.033 Y83.669 E14.1349
G1 X116.505 Y83.952 E14.16053
G1 X117.109 Y84.295 E14.19287
G1 X118.37 Y84.976 E14.25961
G1 X119.619 Y85.661 E14.32594
G1 X120.213 Y86.015 E14.35813
G1 X120.311 Y86.077 E14.36353
G1 X120.876 Y86.45 E14.39506
G1 X120.986 Y86.527 E14.40131
G1 X121.523 Y86.924 E14.43241
G1 X121.676 Y87.046 E14.44152
G1 X122.179 Y87.482 E14.47252
G1 X122.342 Y87.635 E14.48293
G1 X122.794 Y88.099 E14.51309
G1 X122.947 Y88.271 E14.52381
G1 X123.361 Y88.782 E14.55443
G1 X123.5 Y88.971 E14.56536
G1 X123.869 Y89.525 E14.59635
G1 X123.993 Y89.731 E14.60755
G1 X124.317 Y90.335 E14.63946
G1 X124.41 Y90.529 E14.64948
G1 X124.674 Y91.142 E14.68056
G1 X124.741 Y91.313 E14.68911
G1 X124.976 Y91.99 E14.72248
G1 X125.025 Y92.148 E14.73018
G1 X125.212 Y92.828 E14.76302
G1 X125.24 Y92.942 E14.76849
G1 X125.395 Y93.63 E14.80133
G1 X125.417 Y93.736 E14.80637
G1 X125.555 Y94.506 E14.84279
G1 X125.676 Y95.278 E14.87918
G1 X125.774 Y95.998 E14.91301
G1 X125.948 Y97.363 E14.97709
G1 X126.029 Y97.975 E15.00584
G1 X126.114 Y98.566 E15.03364
G1 X126.206 Y99.156 E15.06144
G1 X126.482 Y100.815 E15.13975
G1 X126.619 Y101.798 E15.18597
G1 X126.639 Y102.01 E15.19588
G1 X126.69 Y102.956 E15.24
G1 X126.687 Y103.285 E15.25532
G1 X126.613 Y104.247 E15.30025
G1 X126.553 Y104.63 E15.3183
G1 X126.322 Y105.614 E15.36536
G1 X126.248 Y105.869 E15.37773
G1 X126.073 Y106.37 E15.40244
G1 X126.013 Y106.524 E15.41013
G1 X125.781 Y107.07 E15.43776
G1 X125.717 Y107.21 E15.44492
G1 X125.443 Y107.759 E15.4735
G1 X125.38 Y107.877 E15.47972
G1 X125.058 Y108.445 E15.51013
G1 X125.001 Y108.541 E15.51533
G1 X124.633 Y109.128 E15.54759
G1 X124.57 Y109.223 E15.55289
G1 X124.108 Y109.888 E15.5906
G1 X123.788 Y110.315 E15.61545
G1 X123.488 Y110.649 E15.63635
G1 X123.133 Y110.924 E15.65726
G1 X122.736 Y111.132 E15.67813
G1 X122.308 Y111.266 E15.69901
G1 X121.719 Y111.323 E15.72657
G1 X120.985 Y111.268 E15.76084
G1 X120.555 Y111.141 E15.78172
G1 X120.154 Y110.939 E15.80263
G1 X119.795 Y110.67 E15.82352
G1 X119.41 Y110.231 E15.8507
G1 X118.289 Y108.61 E15.94248
G1 X118.068 Y108.22 E15.96335
G1 X117.894 Y107.688 E15.98941
G1 X117.82 Y107.132 E16.01553
G1 X117.86 Y106.616 E16.03963
G1 X118.713 Y101.913 E16.26219
G1 X116.707 Y93.606 E16.66012
G1 X109.31 Y88.475 E17.07931
G1 X103.813 Y86.499 E17.35131
G1 X103.406 Y86.311 E17.37218
G1 X103.039 Y86.053 E17.39307
G1 X102.723 Y85.734 E17.41398
G1 X102.469 Y85.364 E17.43488
G1 X102.285 Y84.955 E17.45576
G1 X102.162 Y84.417 E17.48146
G1 X102.11 Y83.621 E17.5186
G1 X102.178 Y83.178 E17.53947
G1 X102.324 Y82.754 E17.56035
G1 X102.543 Y82.362 E17.58126
G1 X102.827 Y82.015 E17.60214
M204 S3000
M205 X10 Y10
G0 F3000 X103.118 Y82.528
M204 S1800
M205 X8 Y8
G1 F2400 X103.568 Y82.13 E17.63012
G1 X104.291 Y81.667 E17.67009
G1 X104.403 Y81.601 E17.67615
G1 X105.028 Y81.257 E17.70937
G1 X105.165 Y81.188 E17.71651
G1 X105.658 Y80.965 E17.7417
G1 X105.808 Y80.905 E17.74923
G1 X106.378 Y80.702 E17.7774
G1 X106.572 Y80.644 E17.78683
G1 X107.101 Y80.515 E17.81218
G1 X107.349 Y80.471 E17.82391
G1 X108.036 Y80.395 E17.8561
G1 X108.418 Y80.388 E17.87389
G1 X109.162 Y80.442 E17.90862
G1 X109.563 Y80.51 E17.92756
G1 X110.282 Y80.706 E17.96226
G1 X110.564 Y80.805 E17.97618
G1 X111.057 Y81.018 E18.00119
G1 X111.257 Y81.118 E18.0116
G1 X112.047 Y81.572 E18.05403
