;FLAVOR:Marlin
;TIME:891
;Filament used: 0.863128m
;Layer height: 0.3
;MINX:79.365
;MINY:91.762
;MINZ:0.3
;MAXX:130.905
;MAXY:118.461
;MAXZ:33
;Generated with Cura_SteamEngine 4.11.0
M140 S60
M105
M190 S60
M104 S200
M105
M109 S200
M82 ;absolute extrusion mode
G21 ;metric values
G90 ;absolute positioning
M82 ;set extruder to absolute mode
M107 ;start with the fan off
G28 X0 Y0 ;move X/Y to min endstops
G28 Z0 ;move Z to min endstops
G1 Z15.0 F100 ;move the platform down 15mm
G92 E0 ;zero the extruded length
G1 F200 E3 ;extrude 3mm of feed stock
G92 E0 ;zero the extruded length again
G1 F100
G0 Y20 F100
M117 Printing...
G5
G92 E0
G92 E0
G1 F2400 E-6
;LAYER_COUNT:110
;LAYER:0
M107
M204 S3000
M205 X10 Y10
G1 F600 Z0.375
G0 F3000 X82.747 Y93.287 Z0.375
M204 S1800
M205 X8 Y8
;TYPE:SKIRT
G1 F600 Z0.3
G1 F2400 E0
G1 X83.323 Y92.863 E0.04996
G1 X83.942 Y92.505 E0.0999
G1 X84.901 Y92.115 E0.17221
G1 X85.088 Y92.056 E0.18591
G1 X85.781 Y91.879 E0.23586
G1 X86.49 Y91.78 E0.28587
G1 X87.205 Y91.762 E0.33582
G1 X87.706 Y91.797 E0.3709
G1 X88.061 Y91.835 E0.39584
G1 X90.232 Y92.095 E0.54856
G1 X92.897 Y92.338 E0.73547
G1 X95.507 Y92.503 E0.91813
G1 X98.147 Y92.595 E1.10264
G1 X100.825 Y92.612 E1.28969
G1 X103.431 Y92.554 E1.47175
G1 X106.107 Y92.42 E1.6589
G1 X108.728 Y92.214 E1.84253
G1 X109.487 Y92.137 E1.89581
G1 X109.887 Y92.105 E1.92384
G1 X110.602 Y92.093 E1.97379
G1 X111.314 Y92.16 E2.02374
G1 X112.107 Y92.331 E2.0804
G1 X112.35 Y92.4 E2.09804
G1 X113.026 Y92.634 E2.14801
G1 X113.672 Y92.941 E2.19797
G1 X114.196 Y93.257 E2.24071
G1 X114.591 Y93.528 E2.27416
G1 X116.857 Y95.21 E2.47127
G1 X119.036 Y96.732 E2.65692
G1 X121.269 Y98.203 E2.84369
G1 X122.73 Y99.116 E2.96402
G1 X123.549 Y99.723 E3.03522
G1 X124.147 Y100.247 E3.09075
G1 X125.172 Y101.168 E3.187
G1 X127.206 Y102.895 E3.37337
G1 X128.033 Y103.562 E3.44758
G1 X128.421 Y103.884 E3.4828
G1 X129.157 Y104.603 E3.55466
G1 X129.598 Y105.166 E3.60461
G1 X129.972 Y105.776 E3.65459
G1 X130.276 Y106.423 E3.70452
G1 X130.536 Y107.21 E3.76241
G1 X130.739 Y108.089 E3.82542
G1 X130.867 Y109.008 E3.89023
G1 X130.893 Y109.408 E3.91823
G1 X130.905 Y109.948 E3.95595
G1 X130.9 Y110.204 E3.97384
G1 X130.824 Y111.068 E4.03442
G1 X130.69 Y111.855 E4.09018
G1 X130.486 Y112.66 E4.14818
G1 X130.248 Y113.347 E4.19897
G1 X129.967 Y114.005 E4.24894
G1 X129.615 Y114.628 E4.29892
G1 X129.196 Y115.207 E4.34884
G1 X128.472 Y115.962 E4.4219
G1 X128.367 Y116.055 E4.4317
G1 X127.806 Y116.499 E4.48167
G1 X127.199 Y116.877 E4.53161
G1 X126.554 Y117.185 E4.58154
G1 X125.557 Y117.501 E4.65459
G1 X125.324 Y117.555 E4.67129
G1 X123.761 Y117.933 E4.78361
G1 X123.076 Y118.09 E4.8327
G1 X122.712 Y118.163 E4.85863
G1 X121.8 Y118.317 E4.92323
G1 X121.276 Y118.39 E4.96018
G1 X120.768 Y118.439 E4.99583
G1 X120.583 Y118.451 E5.00878
G1 X119.959 Y118.461 E5.05237
G1 X119.435 Y118.443 E5.08899
G1 X117.664 Y118.358 E5.21283
G1 X116.947 Y118.331 E5.26294
G1 X116.759 Y118.32 E5.2761
G1 X115.924 Y118.258 E5.33458
G1 X115.629 Y118.232 E5.35526
G1 X114.967 Y118.139 E5.40195
G1 X113.523 Y117.857 E5.50472
G1 X112.64 Y117.676 E5.56767
G1 X111.437 Y117.417 E5.65363
G1 X109.656 Y117.051 E5.78062
G1 X108.996 Y116.88 E5.82824
G1 X107.897 Y116.534 E5.90872
G1 X107.377 Y116.361 E5.94699
G1 X104.907 Y115.617 E6.12717
G1 X102.298 Y114.911 E6.31595
G1 X100.986 Y114.588 E6.41033
G1 X99.558 Y114.208 E6.51354
G1 X99.502 Y114.198 E6.51751
G1 X97.367 Y113.649 E6.67149
G1 X95.299 Y113.174 E6.81969
G1 X94.413 Y112.979 E6.88305
G1 X93.724 Y112.787 E6.93301
G1 X93.124 Y112.551 E6.97805
G1 X92.461 Y112.234 E7.02937
G1 X91.697 Y111.788 E7.09116
G1 X90.835 Y111.202 E7.16397
G1 X88.585 Y109.716 E7.3523
G1 X86.326 Y108.316 E7.53793
G1 X83.908 Y106.91 E7.73329
G1 X83.279 Y106.556 E7.78371
G1 X82.508 Y106.046 E7.84827
G1 X82.18 Y105.793 E7.87721
G1 X81.526 Y105.213 E7.93826
G1 X81.039 Y104.679 E7.98874
G1 X80.601 Y104.113 E8.03873
G1 X80.228 Y103.503 E8.08867
G1 X79.91 Y102.827 E8.14085
G1 X79.657 Y102.158 E8.19081
G1 X79.481 Y101.465 E8.24075
G1 X79.383 Y100.756 E8.29074
G1 X79.365 Y100.041 E8.34069
G1 X79.414 Y99.398 E8.38573
G1 X79.525 Y98.691 E8.43572
G1 X79.723 Y97.976 E8.48754
G1 X79.739 Y97.929 E8.49101
G1 X80.007 Y97.265 E8.54102
G1 X80.26 Y96.783 E8.57904
G1 X80.917 Y95.65 E8.67052
G1 X81.083 Y95.348 E8.69459
G1 X81.351 Y94.905 E8.73075
G1 X81.755 Y94.315 E8.7807
G1 X82.222 Y93.773 E8.83067
G1 X82.747 Y93.287 E8.88064
M204 S3000
M205 X10 Y10
G0 F3000 X83.175 Y93.661
M204 S1800
M205 X8 Y8
G1 F2400 X83.732 Y93.265 E8.92837
G1 X84.332 Y92.938 E8.9761
G1 X85.07 Y92.649 E9.03146
G1 X85.257 Y92.59 E9.04516
G1 X85.919 Y92.423 E9.09284
G1 X86.597 Y92.334 E9.1406
G1 X87.28 Y92.325 E9.18831
G1 X87.931 Y92.384 E9.23397
G1 X90.149 Y92.65 E9.39
G1 X92.848 Y92.897 E9.5793
G1 X95.487 Y93.063 E9.76399
G1 X98.124 Y93.154 E9.94828
G1 X100.798 Y93.171 E10.13506
G1 X103.473 Y93.113 E10.32194
G1 X106.142 Y92.979 E10.50859
G1 X108.782 Y92.771 E10.69356
G1 X109.543 Y92.694 E10.74698
G1 X109.929 Y92.664 E10.77403
G1 X110.612 Y92.653 E10.82174
G1 X111.291 Y92.723 E10.86941
G1 X111.954 Y92.87 E10.91685
G1 X112.197 Y92.939 E10.93449
G1 X112.842 Y93.164 E10.9822
G1 X113.723 Y93.621 E11.05152
G1 X114.257 Y93.978 E11.09639
G1 X116.521 Y95.659 E11.29334
G1 X118.701 Y97.181 E11.47905
G1 X120.965 Y98.672 E11.66839
G1 X122.433 Y99.59 E11.78932
G1 X123.18 Y100.145 E11.85432
G1 X123.773 Y100.663 E11.90932
G1 X124.831 Y101.614 E12.00868
G1 X126.827 Y103.308 E12.19154
G1 X127.676 Y103.993 E12.26773
G1 X128.064 Y104.315 E12.30295
G1 X128.736 Y104.971 E12.36854
G1 X129.155 Y105.511 E12.41628
G1 X129.508 Y106.096 E12.464
G1 X129.791 Y106.718 E12.51173
G1 X129.994 Y107.35 E12.5581
G1 X130.192 Y108.205 E12.61939
G1 X130.308 Y109.044 E12.67855
G1 X130.345 Y109.937 E12.74098
G1 X130.34 Y110.193 E12.75886
G1 X130.271 Y110.981 E12.81411
G1 X130.139 Y111.753 E12.86882
G1 X129.953 Y112.487 E12.9217
G1 X129.721 Y113.157 E12.97123
G1 X129.452 Y113.785 E13.01895
G1 X129.111 Y114.377 E13.06666
G1 X128.703 Y114.925 E13.11438
G1 X128.101 Y115.543 E13.17464
G1 X127.996 Y115.636 E13.18444
G1 X127.459 Y116.058 E13.23214
G1 X126.876 Y116.415 E13.27989
G1 X126.256 Y116.701 E13.32758
G1 X125.432 Y116.956 E13.38783
G1 X125.123 Y117.027 E13.40997
G1 X123.708 Y117.37 E13.51167
G1 X122.951 Y117.544 E13.56592
G1 X122.618 Y117.61 E13.58963
G1 X121.544 Y117.79 E13.66569
G1 X120.985 Y117.858 E13.70502
G1 X120.547 Y117.892 E13.73571
G1 X119.977 Y117.901 E13.77553
G1 X119.462 Y117.883 E13.81152
G1 X117.705 Y117.798 E13.93438
G1 X116.971 Y117.771 E13.98568
G1 X116.799 Y117.761 E13.99772
G1 X115.973 Y117.7 E14.05557
G1 X115.678 Y117.674 E14.07625
G1 X115.074 Y117.589 E14.11886
G1 X113.635 Y117.309 E14.22125
G1 X112.758 Y117.128 E14.2838
G1 X111.566 Y116.871 E14.36897
G1 X109.769 Y116.502 E14.4971
G1 X109.163 Y116.345 E14.54082
G1 X108.074 Y116.002 E14.62057
G1 X107.58 Y115.837 E14.65695
G1 X105.028 Y115.069 E14.84309
G1 X102.453 Y114.373 E15.0294
G1 X101.13 Y114.046 E15.12459
G1 X99.748 Y113.678 E15.22448
G1 X99.641 Y113.656 E15.23211
G1 X97.477 Y113.1 E15.38816
G1 X95.444 Y112.632 E15.53387
G1 X94.533 Y112.432 E15.59902
G1 X93.875 Y112.247 E15.64676
G1 X93.344 Y112.036 E15.68667
G1 X92.709 Y111.732 E15.73584
G1 X92.012 Y111.325 E15.79222
G1 X91.148 Y110.737 E15.86521
G1 X88.886 Y109.244 E16.05452
G1 X86.625 Y107.842 E16.24034
G1 X84.155 Y106.406 E16.4399
G1 X83.554 Y106.068 E16.48806
G1 X82.85 Y105.602 E16.54702
G1 X82.522 Y105.349 E16.57596
G1 X81.926 Y104.82 E16.63162
G1 X81.462 Y104.311 E16.67972
G1 X81.044 Y103.77 E16.72748
G1 X80.693 Y103.184 E16.77519
G1 X80.422 Y102.601 E16.82009
G1 X80.182 Y101.961 E16.86783
G1 X80.019 Y101.297 E16.91559
G1 X79.935 Y100.619 E16.96331
G1 X79.951 Y99.653 E17.03079
G1 X79.971 Y99.454 E17.04476
G1 X80.079 Y98.779 E17.0925
G1 X80.254 Y98.156 E17.1377
G1 X80.27 Y98.109 E17.14117
G1 X80.527 Y97.476 E17.18889
G1 X80.745 Y97.064 E17.22144
G1 X81.38 Y95.968 E17.30991
G1 X81.562 Y95.638 E17.33624
G1 X81.83 Y95.195 E17.3724
G1 X82.217 Y94.632 E17.42012
G1 X82.668 Y94.118 E17.46788
G1 X83.175 Y93.661 E17.51555
M204 S3000
M205 X10 Y10
G0 F3000 X83.601 Y94.038
M204 S1800
M205 X8 Y8
G1 F2400 X84.138 Y93.674 E17.56087
G1 X84.717 Y93.378 E17.60629
G1 X85.238 Y93.183 E17.64514
G1 X85.425 Y93.124 E17.65884
G1 X86.056 Y92.967 E17.70425
G1 X86.701 Y92.888 E17.74964
G1 X87.585 Y92.91 E17.8114
G1 X87.927 Y92.948 E17.83544
G1 X90.101 Y93.209 E17.98838
G1 X92.761 Y93.451 E18.17493
G1 X95.467 Y93.622 E18.36431
G1 X98.137 Y93.714 E18.55091
G1 X100.807 Y93.731 E18.73741
G1 X103.513 Y93.672 E18.92646
G1 X106.144 Y93.54 E19.11045
G1 X108.88 Y93.324 E19.30215
G1 X109.74 Y93.239 E19.36251
G1 X109.97 Y93.222 E19.37862
G1 X110.619 Y93.214 E19.42395
G1 X111.265 Y93.286 E19.46935
G1 X111.801 Y93.409 E19.50776
G1 X112.044 Y93.478 E19.52541
G1 X112.657 Y93.693 E19.57078
G1 X113.423 Y94.094 E19.63117
G1 X113.923 Y94.427 E19.67313
G1 X116.208 Y96.124 E19.87193
G1 X118.391 Y97.648 E20.05788
G1 X120.661 Y99.142 E20.24769
G1 X122.136 Y100.065 E20.36922
G1 X122.812 Y100.567 E20.42803
G1 X123.398 Y101.08 E20.48243
G1 X124.435 Y102.012 E20.57982
G1 X126.468 Y103.738 E20.76609
G1 X127.318 Y104.424 E20.84238
G1 X127.706 Y104.746 E20.8776
G1 X128.315 Y105.34 E20.93701
G1 X128.711 Y105.854 E20.98233
G1 X129.042 Y106.413 E21.02771
G1 X129.302 Y107.009 E21.07313
G1 X129.452 Y107.491 E21.10839
G1 X129.644 Y108.322 E21.16796
G1 X129.749 Y109.081 E21.22148
G1 X129.785 Y109.926 E21.28055
G1 X129.78 Y110.182 E21.29843
G1 X129.718 Y110.895 E21.34842
G1 X129.589 Y111.651 E21.40199
G1 X129.42 Y112.315 E21.44984
G1 X129.194 Y112.966 E21.49798
G1 X128.936 Y113.562 E21.54334
G1 X128.607 Y114.122 E21.5887
G1 X128.211 Y114.638 E21.63413
G1 X127.73 Y115.124 E21.68189
G1 X127.625 Y115.217 E21.69169
G1 X127.113 Y115.617 E21.73707
G1 X126.556 Y115.951 E21.78243
G1 X125.962 Y116.214 E21.82781
G1 X125.306 Y116.41 E21.87563
G1 X125.019 Y116.476 E21.8962
G1 X123.511 Y116.842 E22.00458
G1 X122.826 Y116.999 E22.05367
G1 X122.525 Y117.058 E22.07509
G1 X121.613 Y117.212 E22.13969
G1 X120.925 Y117.301 E22.18815
G1 X120.511 Y117.333 E22.21715
G1 X119.996 Y117.341 E22.25313
G1 X119.489 Y117.324 E22.28856
G1 X117.703 Y117.238 E22.41345
G1 X116.996 Y117.212 E22.46286
G1 X116.84 Y117.203 E22.47378
G1 X116.022 Y117.143 E22.53106
G1 X115.727 Y117.117 E22.55175
G1 X115.182 Y117.04 E22.59019
G1 X113.748 Y116.76 E22.69224
G1 X112.876 Y116.581 E22.75442
G1 X111.687 Y116.325 E22.83937
G1 X109.882 Y115.954 E22.96808
G1 X109.331 Y115.811 E23.00784
G1 X108.251 Y115.471 E23.08692
G1 X107.751 Y115.304 E23.12374
G1 X105.191 Y114.534 E23.31046
G1 X102.567 Y113.824 E23.50033
G1 X101.274 Y113.505 E23.59335
G1 X99.859 Y113.128 E23.69563
G1 X99.78 Y113.114 E23.70123
G1 X97.616 Y112.558 E23.85729
G1 X95.513 Y112.074 E24.00802
G1 X94.653 Y111.885 E24.06952
G1 X94.028 Y111.707 E24.11491
G1 X93.301 Y111.4 E24.17003
G1 X92.957 Y111.23 E24.19683
G1 X92.327 Y110.862 E24.24779
G1 X91.444 Y110.261 E24.32239
G1 X89.195 Y108.777 E24.51059
G1 X86.908 Y107.359 E24.69854
G1 X84.475 Y105.944 E24.89513
G1 X83.828 Y105.58 E24.94698
G1 X83.192 Y105.159 E25.00025
G1 X82.864 Y104.906 E25.02919
G1 X82.325 Y104.428 E25.07951
G1 X81.884 Y103.944 E25.12524
G1 X81.489 Y103.428 E25.17063
G1 X81.042 Y102.618 E25.23525
G1 X80.934 Y102.374 E25.25388
G1 X80.708 Y101.765 E25.29926
G1 X80.559 Y101.133 E25.34461
G1 X80.488 Y100.487 E25.39
G1 X80.508 Y99.709 E25.44436
G1 X80.528 Y99.51 E25.45833
G1 X80.633 Y98.869 E25.5037
G1 X80.784 Y98.336 E25.54239
G1 X80.8 Y98.289 E25.54586
G1 X81.046 Y97.689 E25.59115
G1 X81.229 Y97.344 E25.61843
G1 X81.876 Y96.228 E25.70853
G1 X82.041 Y95.928 E25.73244
G1 X82.309 Y95.485 E25.76861
G1 X82.679 Y94.951 E25.81398
G1 X83.112 Y94.466 E25.85939
G1 X83.601 Y94.038 E25.90478
M204 S3000
M205 X10 Y10
G0 F3000 X87.041 Y98.524
M204 S1800
M205 X8 Y8
;TYPE:SUPPORT
G1 F1800 X87.392 Y98.842 E25.93786
G1 X88.314 Y99.562 E26.01957
G1 X88.599 Y100.187 E26.06755
G1 X90.148 Y101.64 E26.21589
G1 X90.682 Y102.007 E26.26115
G1 X91.076 Y102.199 E26.29176
G1 X92.505 Y102.762 E26.39904
G1 X92.666 Y103.117 E26.42627
G1 X95.767 Y105.064 E26.68201
G1 X96.382 Y104.916 E26.72619
G1 X96.597 Y105.202 E26.75118
G1 X96.577 Y105.537 E26.77463
G1 X96.233 Y105.857 E26.80744
G1 X95.817 Y106.315 E26.85066
G1 X95.762 Y106.419 E26.85887
G1 X95.441 Y106.267 E26.88368
G1 X95.118 Y106.007 E26.91264
G1 X94.423 Y105.046 E26.99548
G1 X93.959 Y104.797 E27.03226
G1 X93.801 Y104.79 E27.04331
G1 X92.415 Y103.332 E27.18381
G1 X91.836 Y103.298 E27.22432
G1 X90.916 Y102.645 E27.30312
G1 X90.138 Y102.042 E27.37187
G1 X89.728 Y102.028 E27.40053
G1 X89.11 Y101.804 E27.44644
G1 X88.757 Y101.838 E27.47121
G1 X88.573 Y101.705 E27.48707
G1 X87.18 Y100.263 E27.62711
G1 X86.53 Y100.291 E27.67255
G1 X86.311 Y100.561 E27.69683
G1 X86.075 Y100.301 E27.72136
G1 X86.029 Y100.18 E27.7304
G1 X86.705 Y99.792 E27.78484
G1 X86.991 Y99.333 E27.82261
G1 X87.041 Y98.524 E27.87922
M204 S3000
M205 X10 Y10
G0 F3000 X101.675 Y106.201
M204 S1800
M205 X8 Y8
G1 F1800 X102.235 Y105.883 E27.92421
G1 X104.249 Y106.138 E28.066
G1 X105.748 Y105.514 E28.17941
G1 X106.082 Y105.084 E28.21744
G1 X106.142 Y104.677 E28.24617
G1 X106.422 Y104.398 E28.27378
G1 X106.645 Y103.533 E28.33617
G1 X107.044 Y103.29 E28.3688
G1 X107.528 Y101.782 E28.47942
G1 X107.988 Y101.574 E28.51468
G1 X108.721 Y99.711 E28.65452
G1 X109.571 Y99.48 E28.71604
G1 X110.116 Y98.832 E28.77518
G1 X110.359 Y98.761 E28.79286
G1 X110.511 Y98.811 E28.80404
G1 X110.626 Y98.953 E28.8168
G1 X110.937 Y99.716 E28.87435
G1 X110.603 Y100.198 E28.91531
G1 X110.662 Y100.799 E28.95749
G1 X111.639 Y101.739 E29.05219
G1 X111.714 Y102.241 E29.08764
G1 X111.796 Y102.32 E29.09559
G1 X111.869 Y102.785 E29.12847
G1 X111.931 Y102.842 E29.13435
G1 X112.095 Y103.397 E29.17477
G1 X112.171 Y103.447 E29.18113
G1 X112.121 Y103.649 E29.19566
G1 X112.347 Y104.188 E29.23648
G1 X113.638 Y104.953 E29.3413
G1 X113.755 Y105.058 E29.35228
G1 X113.927 Y105.423 E29.38046
G1 X114.597 Y106.087 E29.44634
G1 X114.468 Y107.496 E29.54517
G1 X114.614 Y107.529 E29.55562
G1 X114.689 Y108.059 E29.59301
G1 X114.742 Y108.219 E29.60478
G1 X115.091 Y108.824 E29.65357
G1 X115.876 Y108.979 E29.70946
G1 X116.371 Y108.595 E29.75321
G1 X116.499 Y108.441 E29.7672
G1 X117.151 Y107.116 E29.87034
G1 X116.822 Y107.042 E29.8939
G1 X116.834 Y107.009 E29.89635
G1 X117.996 Y107.009 E29.97751
G1 X118.467 Y106.682 E30.01756
G1 X119.015 Y105.208 E30.1274
G1 X118.835 Y106.777 E30.23771
G1 X118.942 Y107.904 E30.31678
G1 X119.204 Y108.356 E30.35327
G1 X120.824 Y109.489 E30.49135
G1 X121.229 Y109.542 E30.51988
G1 X122.582 Y110.43 E30.63291
G1 X123.188 Y110.336 E30.67575
G1 X124.143 Y109.163 E30.7814
G1 X124.232 Y109.703 E30.81962
G1 X124.232 Y110.052 E30.844
G1 X124.134 Y110.624 E30.88453
G1 X124.001 Y111.005 E30.91272
G1 X123.683 Y111 E30.93493
G1 X123.314 Y111.082 E30.96133
G1 X121.864 Y111.372 E31.06462
G1 X121.551 Y111.589 E31.09122
G1 X121.048 Y111.583 E31.12635
G1 X120.504 Y111.764 E31.1664
G1 X120.204 Y111.792 E31.18744
G1 X119.005 Y111.301 E31.27794
G1 X117.999 Y111.608 E31.3514
G1 X117.811 Y111.646 E31.3648
G1 X117.426 Y111.606 E31.39184
G1 X117.212 Y111.655 E31.40717
G1 X116.863 Y111.536 E31.43292
G1 X116.333 Y111.577 E31.47005
G1 X116.302 Y111.532 E31.47387
G1 X115.774 Y111.319 E31.51364
G1 X115.655 Y111.345 E31.52214
G1 X115.613 Y111.118 E31.53827
G1 X115.098 Y110.759 E31.58212
G1 X113.628 Y111.011 E31.68629
G1 X113.569 Y110.905 E31.69476
G1 X113.105 Y110.62 E31.7328
G1 X112.074 Y110.582 E31.80486
G1 X111.14 Y110.521 E31.87023
G1 X110.992 Y109.958 E31.91089
G1 X108.905 Y108.107 E32.10573
G1 X108.336 Y108.037 E32.14577
G1 X107.279 Y108.599 E32.22939
G1 X106.894 Y108.676 E32.25681
G1 X106.493 Y108.657 E32.28485
G1 X106.404 Y106.985 E32.4018
G1 X105.804 Y106.628 E32.45057
G1 X103.571 Y107.691 E32.6233
G1 X103.561 Y107.684 E32.62416
G1 X102.981 Y107.67 E32.66468
G1 X102.515 Y107.99 E32.70416
G1 X102.441 Y107.899 E32.71235
G1 X101.732 Y107.823 E32.76216
G1 X101.589 Y107.678 E32.77638
G1 X101.478 Y107.389 E32.79801
G1 X101.439 Y106.946 E32.82907
G1 X101.539 Y106.485 E32.86202
G1 X101.675 Y106.201 E32.88401
M204 S3000
M205 X10 Y10
