;FLAVOR:Marlin
;TIME:2450
;Filament used: 4.34946m
;Layer height: 0.3
;MINX:82.854
;MINY:89.817
;MINZ:0.3
;MAXX:129.201
;MAXY:116.235
;MAXZ:58.8
;Generated with Cura_SteamEngine 4.11.0
M140 S60
M105
M190 S60
M104 S200
M105
M109 S200
M82 ;absolute extrusion mode
G21 ;metric values
G90 ;absolute positioning
M82 ;set extruder to absolute mode
M107 ;start with the fan off
G28 X0 Y0 ;move X/Y to min endstops
G28 Z0 ;move Z to min endstops
G1 Z15.0 F100 ;move the platform down 15mm
G92 E0 ;zero the extruded length
G1 F200 E3 ;extrude 3mm of feed stock
G92 E0 ;zero the extruded length again
G1 F100
G0 Y20 F100
M117 Printing...
G5
G92 E0
G92 E0
G1 F2400 E-6
;LAYER_COUNT:196
;LAYER:0
M107
M204 S3000
M205 X10 Y10
G1 F600 Z0.375
G0 F3000 X85.475 Y98.478 Z0.375
M204 S1800
M205 X8 Y8
;TYPE:SKIRT
G1 F600 Z0.3
G1 F2400 E0
G1 X85.529 Y98.432 E0.00495
G1 X86.098 Y97.999 E0.0549
G1 X86.726 Y97.626 E0.10591
G1 X87.551 Y97.197 E0.17086
G1 X89.936 Y95.916 E0.35995
G1 X92.231 Y94.599 E0.54477
G1 X94.468 Y93.229 E0.72799
G1 X97.029 Y91.554 E0.94173
G1 X97.956 Y90.927 E1.01989
G1 X98.57 Y90.561 E1.06982
G1 X99.221 Y90.264 E1.1198
G1 X99.901 Y90.043 E1.16974
G1 X100.601 Y89.898 E1.21967
G1 X101.322 Y89.833 E1.27023
G1 X101.829 Y89.818 E1.30566
G1 X102.025 Y89.817 E1.31935
G1 X103.351 Y89.835 E1.41198
G1 X106.191 Y89.834 E1.61034
G1 X107.171 Y89.82 E1.67879
G1 X107.349 Y89.82 E1.69123
G1 X107.94 Y89.828 E1.73251
G1 X108.653 Y89.877 E1.78243
G1 X109.357 Y90.006 E1.83242
G1 X110.041 Y90.213 E1.88233
G1 X110.93 Y90.615 E1.95048
G1 X111.237 Y90.793 E1.97527
G1 X112.26 Y91.422 E2.05915
G1 X114.596 Y92.814 E2.24908
G1 X116.898 Y94.099 E2.43322
G1 X119.257 Y95.328 E2.61901
G1 X121.627 Y96.481 E2.80309
G1 X124.343 Y97.703 E3.01111
G1 X125.072 Y98.017 E3.06655
G1 X125.712 Y98.336 E3.1165
G1 X126.312 Y98.725 E3.16644
G1 X126.865 Y99.179 E3.21642
G1 X127.364 Y99.691 E3.26635
G1 X127.853 Y100.329 E3.3225
G1 X127.973 Y100.508 E3.33755
G1 X128.287 Y101.029 E3.38004
G1 X128.307 Y101.066 E3.38298
G1 X128.612 Y101.713 E3.43294
G1 X128.799 Y102.243 E3.47219
G1 X128.989 Y102.907 E3.52043
G1 X129.135 Y103.607 E3.57038
G1 X129.201 Y104.319 E3.62032
G1 X129.187 Y105.035 E3.67034
G1 X129.077 Y105.827 E3.72619
G1 X129.049 Y105.965 E3.73602
G1 X128.866 Y106.664 E3.78649
G1 X128.786 Y106.911 E3.80463
G1 X128.528 Y107.578 E3.85458
G1 X128.197 Y108.212 E3.90453
G1 X127.852 Y108.732 E3.94812
G1 X127.682 Y108.963 E3.96815
G1 X127.226 Y109.515 E4.01816
G1 X126.712 Y110.012 E4.0681
G1 X126.11 Y110.473 E4.12106
G1 X126.073 Y110.498 E4.12418
G1 X125.5 Y110.843 E4.17089
G1 X125.233 Y110.984 E4.19198
G1 X123.231 Y112.013 E4.34921
G1 X120.939 Y113.273 E4.53189
G1 X118.118 Y114.954 E4.76125
G1 X117.774 Y115.154 E4.78905
G1 X117.136 Y115.478 E4.83903
G1 X116.428 Y115.754 E4.8921
G1 X115.745 Y115.966 E4.94205
G1 X115.043 Y116.101 E4.99198
G1 X114.451 Y116.153 E5.03349
G1 X114.083 Y116.167 E5.05921
G1 X112.758 Y116.232 E5.15187
G1 X111.884 Y116.226 E5.21292
G1 X109.895 Y116.14 E5.35197
G1 X106.515 Y116.099 E5.58807
G1 X104.296 Y116.102 E5.74306
G1 X102.463 Y116.099 E5.87109
G1 X99.83 Y116.133 E6.05501
G1 X98.504 Y116.186 E6.1477
G1 X98.344 Y116.184 E6.15887
G1 X97.075 Y116.235 E6.24758
G1 X96.538 Y116.234 E6.28509
G1 X95.852 Y116.204 E6.33305
G1 X94.683 Y116.137 E6.41483
G1 X93.972 Y116.056 E6.46482
G1 X93.275 Y115.896 E6.51476
G1 X92.649 Y115.686 E6.56088
G1 X91.99 Y115.409 E6.61081
G1 X91.569 Y115.185 E6.64412
G1 X90.886 Y114.73 E6.70144
G1 X90.452 Y114.399 E6.73957
G1 X89.88 Y113.907 E6.79226
G1 X89.407 Y113.448 E6.8383
G1 X88.337 Y112.384 E6.9437
G1 X86.389 Y110.555 E7.13033
G1 X85.475 Y109.74 E7.21586
G1 X85.067 Y109.364 E7.25462
G1 X84.569 Y108.851 E7.30455
G1 X84.131 Y108.285 E7.35454
G1 X83.722 Y107.603 E7.41008
G1 X83.623 Y107.412 E7.42511
G1 X83.33 Y106.76 E7.47504
G1 X83.111 Y106.079 E7.525
G1 X82.997 Y105.548 E7.56294
G1 X82.937 Y105.198 E7.58774
G1 X82.856 Y104.488 E7.63765
G1 X82.854 Y103.772 E7.68766
G1 X82.929 Y103.061 E7.7376
G1 X83.062 Y102.358 E7.78757
G1 X83.272 Y101.674 E7.83755
G1 X83.578 Y100.963 E7.89161
G1 X83.91 Y100.33 E7.94154
G1 X84.35 Y99.687 E7.99596
G1 X84.775 Y99.175 E8.04243
G1 X85.475 Y98.478 E8.11143
M204 S3000
M205 X10 Y10
G0 F3000 X85.838 Y98.904
M204 S1800
M205 X8 Y8
G1 F2400 X85.892 Y98.858 E8.11638
G1 X86.437 Y98.446 E8.1641
G1 X86.984 Y98.123 E8.20847
G1 X87.823 Y97.687 E8.27451
G1 X90.19 Y96.416 E8.46217
G1 X92.525 Y95.075 E8.65024
G1 X94.789 Y93.689 E8.83565
G1 X97.296 Y92.049 E9.04489
G1 X98.269 Y91.391 E9.12694
G1 X98.857 Y91.042 E9.17469
G1 X99.481 Y90.764 E9.22241
G1 X100.133 Y90.561 E9.2701
G1 X100.805 Y90.436 E9.31785
G1 X101.341 Y90.392 E9.35541
G1 X102.028 Y90.377 E9.40341
G1 X103.344 Y90.395 E9.49533
G1 X106.199 Y90.394 E9.69474
G1 X107.179 Y90.38 E9.7632
G1 X107.341 Y90.38 E9.77451
G1 X107.932 Y90.388 E9.8158
G1 X108.613 Y90.437 E9.86349
G1 X109.285 Y90.565 E9.91127
G1 X109.936 Y90.771 E9.95896
G1 X110.661 Y91.106 E10.01474
G1 X110.944 Y91.27 E10.03759
G1 X111.989 Y91.913 E10.12329
G1 X114.314 Y93.298 E10.31231
G1 X116.617 Y94.583 E10.49651
G1 X119.003 Y95.827 E10.68445
G1 X121.416 Y97.001 E10.87188
G1 X124.089 Y98.203 E11.07659
G1 X124.85 Y98.531 E11.13447
G1 X125.461 Y98.838 E11.18223
G1 X126.031 Y99.214 E11.22992
G1 X126.554 Y99.654 E11.27766
G1 X127.021 Y100.152 E11.32535
G1 X127.388 Y100.641 E11.36805
G1 X127.508 Y100.82 E11.3831
G1 X127.794 Y101.295 E11.42183
G1 X127.814 Y101.332 E11.42477
G1 X128.104 Y101.951 E11.47251
G1 X128.338 Y102.652 E11.52413
G1 X128.448 Y103.051 E11.55304
G1 X128.585 Y103.72 E11.60074
G1 X128.643 Y104.401 E11.64847
G1 X128.621 Y105.084 E11.6962
G1 X128.528 Y105.715 E11.74075
G1 X128.5 Y105.853 E11.75059
G1 X128.333 Y106.491 E11.79665
G1 X128.253 Y106.738 E11.81478
G1 X128.005 Y107.375 E11.86253
G1 X127.684 Y107.978 E11.91024
G1 X127.401 Y108.401 E11.94579
G1 X127.231 Y108.632 E11.96582
G1 X126.794 Y109.157 E12.01353
G1 X126.299 Y109.628 E12.06126
G1 X125.797 Y110.009 E12.10528
G1 X125.76 Y110.034 E12.10839
G1 X125.237 Y110.349 E12.15104
G1 X124.977 Y110.486 E12.17156
G1 X122.971 Y111.517 E12.3291
G1 X120.667 Y112.784 E12.51275
G1 X117.836 Y114.47 E12.7429
G1 X117.492 Y114.67 E12.77069
G1 X116.599 Y115.092 E12.83968
G1 X116.232 Y115.229 E12.86704
G1 X115.579 Y115.43 E12.91476
G1 X114.907 Y115.554 E12.96249
G1 X114.09 Y115.607 E13.01967
G1 X112.731 Y115.673 E13.11471
G1 X111.901 Y115.666 E13.17268
G1 X109.925 Y115.58 E13.31083
G1 X106.522 Y115.539 E13.54853
G1 X104.296 Y115.542 E13.70401
G1 X102.526 Y115.539 E13.82764
G1 X99.763 Y115.574 E14.02064
G1 X98.481 Y115.626 E14.11025
G1 X98.328 Y115.623 E14.12094
G1 X97.053 Y115.675 E14.21007
G1 X96.562 Y115.674 E14.24437
G1 X95.884 Y115.644 E14.29177
G1 X94.715 Y115.577 E14.37355
G1 X94.036 Y115.499 E14.42129
G1 X93.093 Y115.25 E14.48941
G1 X92.837 Y115.159 E14.50839
G1 X92.208 Y114.893 E14.55609
G1 X91.849 Y114.7 E14.58456
G1 X91.225 Y114.285 E14.6369
G1 X90.791 Y113.954 E14.67502
G1 X90.27 Y113.505 E14.72306
G1 X89.802 Y113.051 E14.7686
G1 X88.72 Y111.975 E14.87519
G1 X86.769 Y110.143 E15.06212
G1 X85.854 Y109.328 E15.1477
G1 X85.446 Y108.952 E15.18645
G1 X84.972 Y108.461 E15.23412
G1 X84.558 Y107.917 E15.28187
G1 X84.219 Y107.345 E15.32831
G1 X84.12 Y107.154 E15.34334
G1 X83.842 Y106.531 E15.39099
G1 X83.638 Y105.878 E15.43877
G1 X83.489 Y105.104 E15.49382
G1 X83.413 Y104.425 E15.54155
G1 X83.417 Y103.742 E15.58925
G1 X83.484 Y103.134 E15.63198
G1 X83.613 Y102.463 E15.6797
G1 X83.819 Y101.811 E15.72746
G1 X84.087 Y101.195 E15.77438
G1 X84.407 Y100.591 E15.82212
G1 X84.792 Y100.031 E15.86959
G1 X85.199 Y99.54 E15.91413
G1 X85.838 Y98.904 E15.9771
M204 S3000
M205 X10 Y10
G0 F3000 X86.201 Y99.331
M204 S1800
M205 X8 Y8
G1 F2400 X86.255 Y99.285 E15.98206
G1 X86.775 Y98.895 E16.02746
G1 X87.243 Y98.62 E16.06537
G1 X88.05 Y98.2 E16.12892
G1 X90.495 Y96.887 E16.32276
G1 X92.803 Y95.562 E16.50864
G1 X95.076 Y94.17 E16.6948
G1 X97.633 Y92.497 E16.90823
G1 X98.583 Y91.855 E16.98832
G1 X99.143 Y91.525 E17.03372
G1 X99.738 Y91.266 E17.07904
G1 X100.362 Y91.082 E17.12448
G1 X101.002 Y90.977 E17.16978
G1 X101.681 Y90.941 E17.21727
G1 X102.031 Y90.937 E17.24172
G1 X103.336 Y90.955 E17.33288
G1 X106.207 Y90.954 E17.53341
G1 X107.333 Y90.939 E17.61206
G1 X107.924 Y90.947 E17.65334
G1 X108.572 Y90.996 E17.69873
G1 X109.209 Y91.124 E17.74412
G1 X109.826 Y91.329 E17.78953
G1 X110.392 Y91.597 E17.83327
G1 X110.651 Y91.747 E17.85417
G1 X111.687 Y92.384 E17.93912
G1 X114.048 Y93.791 E18.13109
G1 X116.363 Y95.083 E18.31626
G1 X118.75 Y96.327 E18.50426
G1 X121.151 Y97.495 E18.69076
G1 X123.889 Y98.726 E18.90043
G1 X124.628 Y99.045 E18.95665
G1 X125.208 Y99.338 E19.00204
G1 X125.747 Y99.701 E19.04743
G1 X126.238 Y100.127 E19.09283
G1 X126.672 Y100.61 E19.13819
G1 X127.043 Y101.132 E19.18292
G1 X127.302 Y101.561 E19.21792
G1 X127.322 Y101.598 E19.22086
G1 X127.595 Y102.188 E19.26626
G1 X127.802 Y102.815 E19.31238
G1 X127.907 Y103.195 E19.33992
G1 X128.035 Y103.832 E19.3853
G1 X128.084 Y104.48 E19.43069
G1 X128.054 Y105.129 E19.47607
G1 X127.952 Y105.742 E19.51947
G1 X127.8 Y106.319 E19.56115
G1 X127.72 Y106.566 E19.57928
G1 X127.482 Y107.17 E19.62463
G1 X127.172 Y107.741 E19.67001
G1 X126.78 Y108.3 E19.71769
G1 X126.363 Y108.798 E19.76306
G1 X125.888 Y109.242 E19.80848
G1 X125.483 Y109.545 E19.8438
G1 X125.446 Y109.57 E19.84692
G1 X124.973 Y109.855 E19.88549
G1 X124.721 Y109.988 E19.9054
G1 X122.723 Y111.015 E20.06231
G1 X120.372 Y112.307 E20.24968
G1 X117.555 Y113.986 E20.47873
G1 X117.211 Y114.186 E20.50652
G1 X116.404 Y114.568 E20.56889
G1 X116.037 Y114.705 E20.59625
G1 X115.415 Y114.894 E20.64165
G1 X114.775 Y115.005 E20.68702
G1 X114.043 Y115.049 E20.73824
G1 X112.704 Y115.114 E20.83188
G1 X111.917 Y115.107 E20.88685
G1 X109.926 Y115.02 E21.02604
G1 X106.527 Y114.979 E21.26347
G1 X104.297 Y114.982 E21.41923
G1 X102.52 Y114.979 E21.54334
G1 X99.77 Y115.014 E21.73544
G1 X98.459 Y115.067 E21.82708
G1 X98.315 Y115.064 E21.83714
G1 X97.03 Y115.116 E21.92697
G1 X96.587 Y115.115 E21.95791
G1 X95.916 Y115.085 E22.00482
G1 X94.747 Y115.018 E22.08661
G1 X94.102 Y114.941 E22.13198
G1 X93.281 Y114.722 E22.19133
G1 X93.025 Y114.631 E22.2103
G1 X92.154 Y114.229 E22.27731
G1 X92.128 Y114.214 E22.2794
G1 X91.565 Y113.839 E22.32665
G1 X91.131 Y113.508 E22.36477
G1 X90.659 Y113.103 E22.40821
G1 X90.197 Y112.654 E22.45321
G1 X89.101 Y111.565 E22.56113
G1 X87.168 Y109.75 E22.74633
G1 X86.234 Y108.917 E22.83374
G1 X85.826 Y108.541 E22.87249
G1 X85.376 Y108.072 E22.91789
G1 X84.987 Y107.551 E22.9633
G1 X84.716 Y107.088 E23.00078
G1 X84.617 Y106.897 E23.0158
G1 X84.354 Y106.303 E23.06118
G1 X84.166 Y105.681 E23.10656
G1 X84.041 Y105.009 E23.1543
G1 X83.971 Y104.363 E23.19969
G1 X84.01 Y103.427 E23.26512
G1 X84.039 Y103.207 E23.28062
G1 X84.164 Y102.569 E23.32603
G1 X84.469 Y101.708 E23.38983
G1 X84.597 Y101.427 E23.4114
G1 X84.902 Y100.854 E23.45673
G1 X85.234 Y100.374 E23.4975
G1 X85.623 Y99.905 E23.54006
G1 X86.201 Y99.331 E23.59695
M204 S3000
M205 X10 Y10
G0 F3000 X89.748 Y103.622
M204 S1800
M205 X8 Y8
;TYPE:SUPPORT
G1 F1800 X90.225 Y103.8 E23.63251
G1 X90.778 Y103.669 E23.67221
G1 X90.864 Y103.695 E23.67848
G1 X92.162 Y103.485 E23.77032
G1 X93.247 Y103.483 E23.84611
G1 X93.72 Y103.171 E23.88568
G1 X94.224 Y101.988 E23.9755
G1 X94.357 Y101.795 E23.99187
G1 X94.554 Y101.639 E24.00942
G1 X94.77 Y101.546 E24.02585
G1 X95.19 Y101.656 E24.05617
G1 X96.237 Y101.428 E24.13101
G1 X96.377 Y101.412 E24.14086
G1 X96.827 Y101.695 E24.17799
G1 X98.457 Y101.57 E24.29217
G1 X99.053 Y101.552 E24.33382
G1 X100.543 Y101.539 E24.43789
G1 X101.906 Y101.533 E24.53309
G1 X104.306 Y101.528 E24.70072
G1 X108.764 Y101.53 E25.0121
G1 X110.36 Y101.542 E25.12358
G1 X110.792 Y101.554 E25.15376
G1 X112.428 Y101.654 E25.26824
G1 X112.877 Y101.351 E25.30608
G1 X113.178 Y101.382 E25.32721
G1 X114.132 Y101.585 E25.39534
G1 X114.618 Y101.448 E25.43061
G1 X114.876 Y101.559 E25.45022
G1 X115.083 Y101.729 E25.46893
G1 X115.683 Y102.844 E25.55737
G1 X118.524 Y103.873 E25.76842
G1 X119.072 Y103.747 E25.80769
G1 X119.107 Y103.712 E25.81115
G1 X119.661 Y103.931 E25.85276
G1 X120.216 Y103.813 E25.89239
G1 X120.259 Y103.769 E25.89669
G1 X120.686 Y103.938 E25.92876
G1 X121.234 Y103.845 E25.96759
G1 X121.24 Y103.839 E25.96818
G1 X121.799 Y104.106 E26.01145
G1 X122.386 Y104.154 E26.05258
G1 X122.53 Y104.565 E26.083
G1 X122.392 Y104.9 E26.10831
G1 X122.012 Y104.838 E26.1352
G1 X121.123 Y105.277 E26.20445
G1 X120.614 Y105.134 E26.24138
G1 X120.028 Y105.339 E26.28474
G1 X119.518 Y105.178 E26.3221
G1 X117.708 Y105.682 E26.45333
G1 X115.955 Y105.625 E26.57583
G1 X115.48 Y105.984 E26.61742
G1 X115.022 Y107.812 E26.74905
G1 X114.935 Y108.287 E26.78278
G1 X114.784 Y109.046 E26.83683
G1 X114.625 Y109.245 E26.85462
G1 X114.405 Y109.395 E26.87322
G1 X114.211 Y109.463 E26.88758
G1 X113.791 Y109.333 E26.91828
G1 X112.616 Y109.552 E27.00177
G1 X112.133 Y109.257 E27.0413
G1 X110.399 Y109.383 E27.16273
G1 X109.04 Y109.406 E27.25766
G1 X106.65 Y109.42 E27.4246
G1 X104.292 Y109.422 E27.5893
G1 X102.161 Y109.419 E27.73814
G1 X99.925 Y109.402 E27.89432
G1 X98.914 Y109.379 E27.96495
G1 X97.122 Y109.283 E28.0903
G1 X96.683 Y109.555 E28.12637
G1 X96.619 Y109.548 E28.13087
G1 X95.46 Y109.32 E28.21337
G1 X95.013 Y109.448 E28.24585
G1 X94.881 Y109.399 E28.25568
G1 X94.546 Y109.134 E28.28551
G1 X94.487 Y109.035 E28.29356
G1 X94.356 Y108.427 E28.337
G1 X94.312 Y108.105 E28.3597
G1 X94.127 Y107.319 E28.4161
G1 X93.583 Y104.788 E28.59692
G1 X93.009 Y104.473 E28.64265
G1 X91.934 Y104.874 E28.72279
G1 X91.92 Y104.861 E28.72413
G1 X91.365 Y104.765 E28.76347
G1 X90.873 Y104.592 E28.79989
G1 X90.188 Y104.675 E28.84809
G1 X90.04 Y104.487 E28.8648
G1 X89.581 Y104.412 E28.89728
G1 X89.517 Y104.129 E28.91755
G1 X89.539 Y103.957 E28.92966
G1 X89.748 Y103.622 E28.95724
M204 S3000
M205 X10 Y10
G0 F3000 X97.487 Y104.015
M204 S1800
M205 X8 Y8
G1 F1800 X97.439 Y104.134 E28.9662
G1 X97.283 Y104.779 E29.01255
G1 X97.283 Y104.978 E29.02645
G1 X97.391 Y105.476 E29.06204
G1 X97.436 Y105.598 E29.07113
G1 X97.697 Y106.068 E29.10868
G1 X97.765 Y106.163 E29.11684
G1 X98.21 Y106.618 E29.16129
G1 X98.394 Y106.732 E29.17641
G1 X98.926 Y106.901 E29.2154
G1 X99.046 Y106.918 E29.22386
G1 X99.683 Y106.938 E29.26838
G1 X99.847 Y106.911 E29.27998
G1 X100.399 Y106.712 E29.32097
G1 X100.536 Y106.632 E29.33205
G1 X100.998 Y106.237 E29.3745
G1 X101.095 Y106.113 E29.3855
G1 X101.374 Y105.611 E29.42561
G1 X101.422 Y105.476 E29.43562
G1 X101.55 Y104.781 E29.48498
G1 X101.528 Y104.541 E29.50182
G1 X101.29 Y103.906 E29.54918
G1 X100.978 Y103.448 E29.58789
G1 X100.895 Y103.365 E29.59609
G1 X100.382 Y102.95 E29.64217
G1 X100.16 Y102.858 E29.65896
G1 X99.411 Y102.755 E29.71177
G1 X98.893 Y102.821 E29.74824
G1 X98.396 Y103.015 E29.7855
G1 X98.265 Y103.092 E29.79612
G1 X97.838 Y103.464 E29.83567
G1 X97.745 Y103.574 E29.84573
G1 X97.487 Y104.015 E29.88142
M204 S3000
M205 X10 Y10
G1 F2400 E23.88142
G0 F3000 X99.339 Y103.567
G0 X107.118 Y104.628
M204 S1800
M205 X8 Y8
G1 F2400 E29.88142
G1 F1800 X107.118 Y104.835 E29.89588
G1 X107.276 Y105.433 E29.93908
G1 X107.601 Y105.995 E29.98442
G1 X107.676 Y106.092 E29.99299
G1 X108.07 Y106.474 E30.03132
G1 X108.246 Y106.581 E30.0457
G1 X108.675 Y106.709 E30.07697
G1 X109.235 Y106.797 E30.11657
G1 X109.724 Y106.748 E30.15089
G1 X110.259 Y106.553 E30.19067
G1 X110.398 Y106.474 E30.20183
G1 X110.861 Y106.075 E30.24452
G1 X110.958 Y105.952 E30.25546
G1 X111.204 Y105.508 E30.29092
G1 X111.254 Y105.508 E30.29441
G1 X111.414 Y104.6 E30.35881
G1 X111.392 Y104.368 E30.37508
G1 X111.169 Y103.757 E30.42051
G1 X110.845 Y103.275 E30.46108
G1 X110.765 Y103.187 E30.46939
G1 X110.251 Y102.769 E30.51566
G1 X110.028 Y102.673 E30.53262
G1 X109.263 Y102.57 E30.58653
G1 X108.748 Y102.634 E30.62278
G1 X108.253 Y102.826 E30.65986
G1 X108.121 Y102.901 E30.67047
G1 X107.675 Y103.288 E30.71171
G1 X107.587 Y103.396 E30.72144
G1 X107.326 Y103.829 E30.75675
G1 X107.278 Y103.957 E30.7663
G1 X107.118 Y104.628 E30.81448
M204 S3000
M205 X10 Y10
G1 F2400 E24.81448
G0 F3000 X108.626 Y105.854
G0 X120 Y105.099
M204 S1800
M205 X8 Y8
G1 F2400 E30.81448
G1 F1800 X120 Y104.083 E30.88545
