;FLAVOR:Marlin
;TIME:596
;Filament used: 0.784554m
;Layer height: 0.3
;MINX:94.609
;MINY:89.544
;MINZ:0.3
;MAXX:117.366
;MAXY:115.123
;MAXZ:23.4
;Generated with Cura_SteamEngine 4.11.0
M140 S60
M105
M190 S60
M104 S200
M105
M109 S200
M82 ;absolute extrusion mode
G21 ;metric values
G90 ;absolute positioning
M82 ;set extruder to absolute mode
M107 ;start with the fan off
G28 X0 Y0 ;move X/Y to min endstops
G28 Z0 ;move Z to min endstops
G1 Z15.0 F100 ;move the platform down 15mm
G92 E0 ;zero the extruded length
G1 F200 E3 ;extrude 3mm of feed stock
G92 E0 ;zero the extruded length again
G1 F100
G0 Y20 F100
M117 Printing...
G5
G92 E0
G92 E0
G1 F2400 E-6
;LAYER_COUNT:78
;LAYER:0
M107
M204 S3000
M205 X10 Y10
G1 F600 Z0.375
G0 F3000 X97.778 Y96.835 Z0.375
M204 S1800
M205 X8 Y8
;TYPE:SKIRT
G1 F600 Z0.3
G1 F2400 E0
G1 X98.186 Y96.452 E0.03909
G1 X98.462 Y96.215 E0.0645
G1 X98.905 Y95.866 E0.10389
G1 X99.205 Y95.65 E0.12971
G1 X99.679 Y95.34 E0.16927
G1 X99.989 Y95.156 E0.19444
G1 X100.491 Y94.886 E0.23426
G1 X100.833 Y94.721 E0.26078
G1 X101.361 Y94.496 E0.30087
G1 X101.696 Y94.37 E0.32587
G1 X102.225 Y94.196 E0.36476
G1 X102.865 Y94.022 E0.41109
G1 X103.406 Y93.91 E0.44967
G1 X103.951 Y93.83 E0.48815
G1 X103.95 Y93.562 E0.50687
G1 X104.027 Y92.988 E0.54732
G1 X104.183 Y92.43 E0.58779
G1 X104.414 Y91.899 E0.62823
G1 X104.715 Y91.404 E0.6687
G1 X105.082 Y90.956 E0.70915
G1 X105.507 Y90.562 E0.74963
G1 X105.983 Y90.231 E0.79012
G1 X106.499 Y89.968 E0.83057
G1 X107.046 Y89.779 E0.87099
G1 X107.896 Y89.617 E0.93143
G1 X108.451 Y89.563 E0.97038
G1 X109.059 Y89.544 E1.01287
G1 X109.611 Y89.563 E1.05145
G1 X110.114 Y89.628 E1.08687
G1 X110.616 Y89.721 E1.12253
G1 X111.246 Y89.89 E1.16809
G1 X111.845 Y90.101 E1.21245
G1 X112.452 Y90.37 E1.25882
G1 X112.987 Y90.66 E1.30132
G1 X113.544 Y91.022 E1.34772
G1 X114.019 Y91.387 E1.38956
G1 X114.534 Y91.856 E1.43822
G1 X114.964 Y92.318 E1.4823
G1 X115.441 Y92.936 E1.53683
G1 X115.785 Y93.49 E1.58237
G1 X116.096 Y94.09 E1.62958
G1 X116.218 Y94.374 E1.65117
G1 X116.409 Y94.921 E1.69163
G1 X116.524 Y95.489 E1.73211
G1 X116.559 Y96.067 E1.77256
G1 X116.514 Y96.645 E1.81305
G1 X116.39 Y97.211 E1.85352
G1 X116.19 Y97.754 E1.89394
G1 X115.916 Y98.265 E1.93444
G1 X115.575 Y98.733 E1.97488
G1 X115.173 Y99.15 E2.01534
G1 X114.769 Y99.467 E2.05121
G1 X115.031 Y100.004 E2.09294
G1 X115.167 Y100.315 E2.11665
G1 X115.361 Y100.814 E2.15404
G1 X115.479 Y101.163 E2.17977
G1 X115.63 Y101.682 E2.21753
G1 X115.711 Y102.008 E2.24099
G1 X115.822 Y102.547 E2.27943
G1 X115.877 Y102.888 E2.30355
G1 X115.943 Y103.432 E2.34183
G1 X115.972 Y103.808 E2.36817
G1 X115.989 Y104.357 E2.40653
G1 X115.986 Y104.691 E2.42986
G1 X115.96 Y105.225 E2.4672
G1 X115.899 Y105.831 E2.50974
G1 X115.812 Y106.379 E2.5485
G1 X115.744 Y106.717 E2.57258
G1 X115.614 Y107.249 E2.61083
G1 X115.497 Y107.642 E2.63947
G1 X115.275 Y108.275 E2.68632
G1 X115.136 Y108.622 E2.71243
G1 X114.917 Y109.104 E2.74941
G1 X114.755 Y109.424 E2.77446
G1 X114.496 Y109.885 E2.8114
G1 X114.332 Y110.152 E2.83328
G1 X114.045 Y110.584 E2.86951
G1 X113.83 Y110.879 E2.895
G1 X113.475 Y111.324 E2.93476
G1 X113.226 Y111.609 E2.9612
G1 X112.845 Y112.007 E2.99968
G1 X112.384 Y112.439 E3.04381
G1 X111.961 Y112.795 E3.08242
G1 X111.666 Y113.023 E3.10846
G1 X111.206 Y113.345 E3.14768
G1 X110.907 Y113.535 E3.17243
G1 X110.408 Y113.825 E3.21274
G1 X110.071 Y114.001 E3.23929
G1 X109.56 Y114.239 E3.27867
G1 X109.217 Y114.381 E3.3046
G1 X108.659 Y114.583 E3.34605
G1 X108.308 Y114.693 E3.37174
G1 X107.77 Y114.836 E3.41062
G1 X107.403 Y114.916 E3.43685
G1 X106.833 Y115.014 E3.47725
G1 X106.475 Y115.06 E3.50246
G1 X105.907 Y115.108 E3.54228
G1 X105.531 Y115.123 E3.56856
G1 X104.964 Y115.12 E3.60816
G1 X104.599 Y115.102 E3.63369
G1 X104.037 Y115.05 E3.67311
G1 X103.675 Y115.001 E3.69862
G1 X103.107 Y114.898 E3.73894
G1 X102.758 Y114.819 E3.76394
G1 X102.23 Y114.676 E3.80214
G1 X101.877 Y114.564 E3.82801
G1 X101.358 Y114.373 E3.86664
G1 X101.034 Y114.238 E3.89115
G1 X100.515 Y113.996 E3.93115
G1 X100.189 Y113.826 E3.95683
G1 X99.725 Y113.558 E3.99426
G1 X99.421 Y113.364 E4.01945
G1 X98.97 Y113.049 E4.05787
G1 X98.509 Y112.693 E4.09855
G1 X98.093 Y112.334 E4.13693
G1 X97.812 Y112.068 E4.16396
G1 X97.417 Y111.658 E4.20372
G1 X97.175 Y111.383 E4.22931
G1 X96.814 Y110.936 E4.26944
G1 X96.612 Y110.665 E4.29305
G1 X96.296 Y110.202 E4.3322
G1 X96.09 Y109.867 E4.35967
G1 X95.819 Y109.377 E4.39878
G1 X95.661 Y109.06 E4.42352
G1 X95.43 Y108.544 E4.46301
G1 X95.296 Y108.208 E4.48827
G1 X95.106 Y107.662 E4.52865
G1 X94.997 Y107.296 E4.55532
G1 X94.857 Y106.733 E4.59585
G1 X94.783 Y106.364 E4.62213
G1 X94.696 Y105.804 E4.66171
G1 X94.655 Y105.435 E4.68765
G1 X94.617 Y104.858 E4.72804
G1 X94.609 Y104.501 E4.75298
G1 X94.62 Y103.934 E4.79259
G1 X94.642 Y103.576 E4.81764
G1 X94.7 Y103.024 E4.85641
G1 X94.757 Y102.648 E4.88297
G1 X94.869 Y102.082 E4.92327
G1 X94.957 Y101.72 E4.94929
G1 X95.112 Y101.189 E4.98793
G1 X95.226 Y100.854 E5.01264
G1 X95.427 Y100.333 E5.05165
G1 X95.675 Y99.774 E5.09436
G1 X95.928 Y99.283 E5.13294
G1 X96.102 Y98.978 E5.15746
G1 X96.385 Y98.526 E5.19471
G1 X96.592 Y98.225 E5.22023
G1 X96.927 Y97.781 E5.25908
G1 X97.16 Y97.5 E5.28457
G1 X97.533 Y97.086 E5.32349
G1 X97.778 Y96.835 E5.34799
M204 S3000
M205 X10 Y10
G0 F3000 X98.162 Y97.243
M204 S1800
M205 X8 Y8
G1 F2400 X98.57 Y96.86 E5.38708
G1 X98.808 Y96.655 E5.40902
G1 X99.251 Y96.306 E5.44841
G1 X99.512 Y96.119 E5.47084
G1 X99.986 Y95.809 E5.51039
G1 X100.254 Y95.649 E5.5322
G1 X100.756 Y95.379 E5.57201
G1 X101.053 Y95.236 E5.59503
G1 X101.581 Y95.011 E5.63512
G1 X101.871 Y94.902 E5.65676
G1 X102.4 Y94.728 E5.69565
G1 X102.978 Y94.571 E5.73749
G1 X103.519 Y94.459 E5.77608
G1 X103.828 Y94.408 E5.79795
G1 X104.376 Y94.343 E5.8365
G1 X104.537 Y94.331 E5.84777
G1 X104.531 Y94.303 E5.84977
G1 X104.502 Y93.765 E5.8874
G1 X104.552 Y93.228 E5.92507
G1 X104.681 Y92.705 E5.9627
G1 X104.886 Y92.206 E6.00038
G1 X105.162 Y91.743 E6.03803
G1 X105.503 Y91.325 E6.0757
G1 X105.903 Y90.963 E6.11339
G1 X106.352 Y90.664 E6.15106
G1 X106.84 Y90.435 E6.18872
G1 X107.547 Y90.243 E6.23989
G1 X108.468 Y90.123 E6.30476
G1 X109.076 Y90.104 E6.34724
G1 X109.713 Y90.136 E6.39179
G1 X110.012 Y90.179 E6.41289
G1 X110.514 Y90.272 E6.44855
G1 X111.06 Y90.418 E6.48803
G1 X111.659 Y90.629 E6.53239
G1 X112.185 Y90.862 E6.57257
G1 X112.72 Y91.152 E6.61507
G1 X113.203 Y91.466 E6.65531
G1 X113.678 Y91.831 E6.69715
G1 X114.124 Y92.237 E6.73928
G1 X114.554 Y92.699 E6.78336
G1 X114.968 Y93.235 E6.83066
G1 X115.298 Y93.766 E6.87433
G1 X115.581 Y94.311 E6.91722
G1 X115.703 Y94.595 E6.93881
G1 X115.879 Y95.105 E6.9765
G1 X115.977 Y95.635 E7.01414
G1 X115.996 Y96.174 E7.05181
G1 X115.935 Y96.71 E7.08949
G1 X115.796 Y97.231 E7.12715
G1 X115.581 Y97.726 E7.16485
G1 X115.295 Y98.183 E7.2025
G1 X114.945 Y98.593 E7.24016
G1 X114.539 Y98.947 E7.27778
G1 X114.084 Y99.237 E7.31547
G1 X114.014 Y99.268 E7.32081
G1 X114.282 Y99.743 E7.35891
G1 X114.527 Y100.248 E7.39811
G1 X114.645 Y100.518 E7.41869
G1 X114.839 Y101.017 E7.45609
G1 X114.941 Y101.319 E7.47835
G1 X115.092 Y101.838 E7.5161
G1 X115.162 Y102.121 E7.53647
G1 X115.273 Y102.66 E7.5749
G1 X115.322 Y102.956 E7.59586
G1 X115.388 Y103.5 E7.63413
G1 X115.412 Y103.825 E7.6569
G1 X115.429 Y104.374 E7.69526
G1 X115.427 Y104.664 E7.71552
G1 X115.401 Y105.198 E7.75286
G1 X115.346 Y105.743 E7.79112
G1 X115.259 Y106.291 E7.82987
G1 X115.2 Y106.584 E7.85075
G1 X115.07 Y107.116 E7.889
G1 X114.969 Y107.457 E7.91384
G1 X114.747 Y108.09 E7.96069
G1 X114.626 Y108.391 E7.98335
G1 X114.407 Y108.873 E8.02033
G1 X114.266 Y109.15 E8.04204
G1 X114.007 Y109.611 E8.07897
G1 X113.866 Y109.842 E8.09787
G1 X113.579 Y110.274 E8.1341
G1 X113.392 Y110.53 E8.15624
G1 X113.037 Y110.975 E8.196
G1 X112.821 Y111.222 E8.21892
G1 X112.44 Y111.62 E8.2574
G1 X112.024 Y112.011 E8.29728
G1 X111.601 Y112.367 E8.3359
G1 X111.344 Y112.564 E8.35851
G1 X110.884 Y112.886 E8.39773
G1 X110.626 Y113.051 E8.41912
G1 X110.127 Y113.341 E8.45944
G1 X109.835 Y113.494 E8.48246
G1 X109.324 Y113.732 E8.52183
G1 X109.026 Y113.855 E8.54435
G1 X108.468 Y114.057 E8.5858
G1 X108.164 Y114.152 E8.60805
G1 X107.626 Y114.295 E8.64693
G1 X107.308 Y114.364 E8.66966
G1 X106.738 Y114.462 E8.71005
G1 X106.428 Y114.502 E8.73188
G1 X105.86 Y114.55 E8.7717
G1 X105.534 Y114.563 E8.79449
G1 X104.967 Y114.56 E8.83409
G1 X104.651 Y114.545 E8.85619
G1 X104.089 Y114.493 E8.89561
G1 X103.775 Y114.45 E8.91774
G1 X103.207 Y114.347 E8.95806
G1 X102.904 Y114.278 E8.97977
G1 X102.376 Y114.135 E9.01798
G1 X102.071 Y114.038 E9.04033
G1 X101.552 Y113.847 E9.07896
G1 X101.271 Y113.73 E9.10022
G1 X100.752 Y113.488 E9.14022
G1 X100.469 Y113.341 E9.16249
G1 X100.005 Y113.073 E9.19992
G1 X99.742 Y112.905 E9.22171
G1 X99.291 Y112.59 E9.26014
G1 X98.875 Y112.269 E9.29684
G1 X98.459 Y111.91 E9.33522
G1 X98.216 Y111.679 E9.35863
G1 X97.821 Y111.269 E9.3984
G1 X97.61 Y111.031 E9.42062
G1 X97.249 Y110.584 E9.46075
G1 X97.074 Y110.349 E9.48121
G1 X96.758 Y109.886 E9.52036
G1 X96.58 Y109.596 E9.54413
G1 X96.309 Y109.106 E9.58324
G1 X96.172 Y108.831 E9.6047
G1 X95.941 Y108.315 E9.64419
G1 X95.825 Y108.024 E9.66607
G1 X95.635 Y107.478 E9.70645
G1 X95.541 Y107.16 E9.72961
G1 X95.401 Y106.597 E9.77013
G1 X95.336 Y106.278 E9.79287
G1 X95.249 Y105.718 E9.83245
G1 X95.214 Y105.398 E9.85494
G1 X95.176 Y104.821 E9.89532
G1 X95.169 Y104.511 E9.91698
G1 X95.18 Y103.944 E9.95659
G1 X95.199 Y103.635 E9.97822
G1 X95.257 Y103.083 E10.01698
G1 X95.306 Y102.756 E10.04008
G1 X95.418 Y102.19 E10.08038
G1 X95.495 Y101.877 E10.10289
G1 X95.65 Y101.346 E10.14153
G1 X95.748 Y101.056 E10.16291
G1 X95.949 Y100.535 E10.20191
G1 X96.173 Y100.031 E10.24044
G1 X96.426 Y99.54 E10.27901
G1 X96.577 Y99.275 E10.30032
G1 X96.86 Y98.823 E10.33757
G1 X97.039 Y98.563 E10.35961
G1 X97.374 Y98.119 E10.39846
G1 X97.576 Y97.875 E10.42059
G1 X97.949 Y97.461 E10.45951
G1 X98.162 Y97.243 E10.4808
M204 S3000
M205 X10 Y10
G0 F3000 X98.545 Y97.651
M204 S1800
M205 X8 Y8
G1 F2400 X98.953 Y97.268 E10.51988
G1 X99.155 Y97.095 E10.53846
G1 X99.598 Y96.746 E10.57785
G1 X99.818 Y96.587 E10.59681
G1 X100.292 Y96.277 E10.63637
G1 X100.519 Y96.142 E10.65481
G1 X101.021 Y95.872 E10.69463
G1 X101.273 Y95.752 E10.71412
G1 X101.801 Y95.527 E10.75421
G1 X102.046 Y95.434 E10.77251
G1 X102.575 Y95.26 E10.81141
G1 X103.092 Y95.119 E10.84884
G1 X103.633 Y95.007 E10.88743
G1 X103.894 Y94.964 E10.9059
G1 X104.442 Y94.899 E10.94445
G1 X104.7 Y94.88 E10.96252
G1 X105.24 Y94.862 E11.00025
G1 X105.115 Y94.407 E11.03321
G1 X105.062 Y93.914 E11.06784
G1 X105.089 Y93.419 E11.10247
G1 X105.195 Y92.934 E11.13714
G1 X105.378 Y92.473 E11.17179
G1 X105.632 Y92.047 E11.20643
G1 X105.952 Y91.668 E11.24108
G1 X106.328 Y91.344 E11.27574
G1 X106.751 Y91.086 E11.31035
G1 X107.21 Y90.898 E11.34499
G1 X108.079 Y90.722 E11.40692
G1 X108.486 Y90.683 E11.43548
G1 X109.094 Y90.664 E11.47797
G1 X109.657 Y90.693 E11.51734
G1 X109.91 Y90.73 E11.5352
G1 X110.412 Y90.823 E11.57086
G1 X110.874 Y90.946 E11.60426
G1 X111.473 Y91.157 E11.64861
G1 X111.918 Y91.354 E11.6826
G1 X112.453 Y91.644 E11.72511
G1 X112.862 Y91.91 E11.75919
G1 X113.337 Y92.275 E11.80103
G1 X113.715 Y92.619 E11.83672
G1 X114.145 Y93.081 E11.88081
G1 X114.494 Y93.534 E11.92075
G1 X114.81 Y94.042 E11.96254
G1 X115.067 Y94.532 E12.00118
G1 X115.347 Y95.286 E12.05736
G1 X115.428 Y95.776 E12.09205
G1 X115.43 Y96.272 E12.12669
G1 X115.351 Y96.761 E12.16129
G1 X115.196 Y97.232 E12.19592
G1 X114.966 Y97.672 E12.2306
G1 X114.669 Y98.069 E12.26523
G1 X114.312 Y98.414 E12.29991
G1 X113.905 Y98.696 E12.33449
G1 X113.457 Y98.91 E12.36917
G1 X113.174 Y98.993 E12.38977
G1 X113.381 Y99.301 E12.41569
G1 X113.651 Y99.753 E12.45246
G1 X113.778 Y99.988 E12.47112
G1 X114.023 Y100.493 E12.51033
G1 X114.123 Y100.721 E12.52771
G1 X114.317 Y101.22 E12.56511
G1 X114.403 Y101.476 E12.58397
G1 X114.554 Y101.995 E12.62172
G1 X114.614 Y102.234 E12.63894
G1 X114.725 Y102.773 E12.67737
G1 X114.766 Y103.023 E12.69507
G1 X114.832 Y103.567 E12.73334
G1 X114.853 Y103.843 E12.75268
G1 X114.87 Y104.392 E12.79104
G1 X114.867 Y104.637 E12.80815
G1 X114.841 Y105.171 E12.8455
G1 X114.793 Y105.655 E12.87947
G1 X114.706 Y106.203 E12.91822
G1 X114.656 Y106.451 E12.93589
G1 X114.526 Y106.983 E12.97414
G1 X114.44 Y107.271 E12.99514
G1 X114.218 Y107.904 E13.04199
G1 X114.116 Y108.159 E13.06117
G1 X113.897 Y108.641 E13.09815
G1 X113.778 Y108.876 E13.11655
G1 X113.519 Y109.337 E13.15348
G1 X113.399 Y109.532 E13.16948
G1 X113.112 Y109.964 E13.2057
G1 X112.955 Y110.181 E13.22441
G1 X112.6 Y110.626 E13.26417
G1 X112.417 Y110.835 E13.28357
G1 X112.036 Y111.233 E13.32205
G1 X111.663 Y111.583 E13.35778
G1 X111.24 Y111.939 E13.3964
G1 X111.023 Y112.105 E13.41548
G1 X110.563 Y112.427 E13.4547
G1 X110.345 Y112.567 E13.47279
G1 X109.846 Y112.857 E13.51311
G1 X109.598 Y112.986 E13.53263
G1 X109.087 Y113.224 E13.572
G1 X108.835 Y113.328 E13.59105
G1 X108.277 Y113.53 E13.63249
G1 X108.02 Y113.611 E13.65132
G1 X107.482 Y113.754 E13.6902
G1 X107.213 Y113.812 E13.70942
G1 X106.643 Y113.91 E13.74981
G1 X106.38 Y113.944 E13.76834
G1 X105.812 Y113.992 E13.80815
G1 X105.537 Y114.003 E13.82737
G1 X104.97 Y114 E13.86698
G1 X104.702 Y113.987 E13.88572
G1 X104.14 Y113.935 E13.92514
G1 X103.874 Y113.899 E13.94389
G1 X103.306 Y113.796 E13.98421
G1 X103.051 Y113.738 E14.00247
G1 X102.523 Y113.595 E14.04068
G1 X102.264 Y113.512 E14.05968
G1 X101.745 Y113.321 E14.0983
G1 X101.507 Y113.222 E14.11631
G1 X100.988 Y112.98 E14.15631
G1 X100.75 Y112.856 E14.17505
G1 X100.286 Y112.588 E14.21248
G1 X100.062 Y112.446 E14.231
G1 X99.611 Y112.131 E14.26942
G1 X99.241 Y111.845 E14.30209
G1 X98.825 Y111.486 E14.34047
G1 X98.619 Y111.291 E14.36028
G1 X98.224 Y110.881 E14.40005
G1 X98.046 Y110.679 E14.41885
G1 X97.685 Y110.232 E14.45898
G1 X97.537 Y110.033 E14.4763
G1 X97.221 Y109.57 E14.51546
G1 X97.07 Y109.325 E14.53556
G1 X96.799 Y108.835 E14.57467
G1 X96.683 Y108.602 E14.59285
G1 X96.452 Y108.086 E14.63234
G1 X96.354 Y107.84 E14.65083
G1 X96.164 Y107.294 E14.69121
G1 X96.084 Y107.025 E14.71081
G1 X95.944 Y106.462 E14.75133
G1 X95.89 Y106.192 E14.77056
G1 X95.803 Y105.632 E14.81015
G1 X95.773 Y105.361 E14.82919
G1 X95.735 Y104.784 E14.86958
G1 X95.729 Y104.522 E14.88788
G1 X95.74 Y103.955 E14.9275
G1 X95.756 Y103.693 E14.94583
G1 X95.814 Y103.141 E14.9846
G1 X95.856 Y102.865 E15.0041
G1 X95.968 Y102.299 E15.0444
G1 X96.032 Y102.034 E15.06344
G1 X96.187 Y101.503 E15.10207
G1 X96.27 Y101.257 E15.12021
G1 X96.471 Y100.736 E15.15921
G1 X96.671 Y100.287 E15.19354
G1 X96.924 Y99.796 E15.23212
G1 X97.051 Y99.573 E15.25005
G1 X97.334 Y99.121 E15.28729
G1 X97.486 Y98.9 E15.30603
G1 X97.821 Y98.456 E15.34488
G1 X97.992 Y98.249 E15.36363
G1 X98.365 Y97.835 E15.40255
G1 X98.545 Y97.651 E15.42053
M204 S3000
M205 X10 Y10
G0 F3000 X98.928 Y98.06
M204 S1800
M205 X8 Y8
G1 F2400 X99.336 Y97.677 E15.45962
G1 X99.502 Y97.534 E15.47492
G1 X99.945 Y97.185 E15.51431
G1 X100.125 Y97.056 E15.52978
G1 X100.599 Y96.746 E15.56934
G1 X100.784 Y96.636 E15.58437
G1 X101.286 Y96.366 E15.62418
G1 X101.492 Y96.267 E15.64015
G1 X102.02 Y96.042 E15.68023
G1 X102.221 Y95.966 E15.69524
G1 X102.846 Y95.762 E15.74116
G1 X103.205 Y95.667 E15.7671
G1 X103.746 Y95.555 E15.80569
G1 X103.96 Y95.521 E15.82083
G1 X104.508 Y95.456 E15.85937
G1 X104.719 Y95.439 E15.87415
G1 X105.275 Y95.42 E15.91301
G1 X105.492 Y95.422 E15.92817
G1 X106.05 Y95.451 E15.9672
G1 X106.236 Y95.469 E15.98025
G1 X106.065 Y95.262 E15.999
G1 X105.845 Y94.872 E16.03028
G1 X105.697 Y94.448 E16.06164
G1 X105.627 Y94.005 E16.09297
G1 X105.636 Y93.557 E16.12427
G1 X105.725 Y93.117 E16.15562
G1 X105.891 Y92.7 E16.18697
G1 X106.127 Y92.319 E16.21827
G1 X106.428 Y91.986 E16.24963
G1 X106.782 Y91.712 E16.28089
G1 X107.18 Y91.504 E16.31226
G1 X107.729 Y91.348 E16.35212
G1 X108.503 Y91.242 E16.40669
G1 X109.111 Y91.223 E16.44918
G1 X109.808 Y91.28 E16.49802
G1 X110.31 Y91.373 E16.53368
G1 X110.688 Y91.474 E16.56101
G1 X111.287 Y91.685 E16.60537
G1 X111.651 Y91.847 E16.63319
G1 X112.186 Y92.137 E16.6757
G1 X112.52 Y92.354 E16.70352
G1 X112.995 Y92.719 E16.74536
G1 X113.305 Y93 E16.77458
