;FLAVOR:Marlin
;TIME:1344
;Filament used: 1.24986m
;Layer height: 0.3
;MINX:82.941
;MINY:88.637
;MINZ:0.3
;MAXX:127.362
;MAXY:121.068
;MAXZ:36
;Generated with Cura_SteamEngine 4.11.0
M140 S60
M105
M190 S60
M104 S200
M105
M109 S200
M82 ;absolute extrusion mode
G21 ;metric values
G90 ;absolute positioning
M82 ;set extruder to absolute mode
M107 ;start with the fan off
G28 X0 Y0 ;move X/Y to min endstops
G28 Z0 ;move Z to min endstops
G1 Z15.0 F100 ;move the platform down 15mm
G92 E0 ;zero the extruded length
G1 F200 E3 ;extrude 3mm of feed stock
G92 E0 ;zero the extruded length again
G1 F100
G0 Y20 F100
M117 Printing...
G5
G92 E0
G92 E0
G1 F2400 E-6
;LAYER_COUNT:120
;LAYER:0
M107
M204 S3000
M205 X10 Y10
G1 F600 Z0.375
G0 F3000 X87.455 Y90.896 Z0.375
M204 S1800
M205 X8 Y8
;TYPE:SKIRT
G1 F600 Z0.3
G1 F2400 E0
G1 X87.912 Y90.476 E0.04335
G1 X88.467 Y90.025 E0.0933
G1 X89.069 Y89.639 E0.14325
G1 X89.71 Y89.322 E0.1932
G1 X90.383 Y89.079 E0.24318
G1 X90.903 Y88.946 E0.28066
G1 X91.612 Y88.816 E0.33101
G1 X92.362 Y88.703 E0.38399
G1 X93.074 Y88.637 E0.43393
G1 X93.789 Y88.651 E0.48388
G1 X94.172 Y88.692 E0.51078
G1 X95.282 Y88.844 E0.58904
G1 X97.972 Y89.172 E0.77832
G1 X100.609 Y89.42 E0.96331
G1 X103.213 Y89.589 E1.14557
G1 X105.889 Y89.688 E1.33261
G1 X108.079 Y89.713 E1.48558
G1 X117.821 Y89.714 E2.16603
G1 X118.521 Y89.724 E2.21492
G1 X119.235 Y89.774 E2.26492
G1 X119.938 Y89.903 E2.31484
G1 X120.623 Y90.11 E2.36482
G1 X121.28 Y90.393 E2.41479
G1 X121.902 Y90.747 E2.46477
G1 X122.48 Y91.167 E2.51468
G1 X123.008 Y91.65 E2.56466
G1 X123.478 Y92.189 E2.61461
G1 X123.886 Y92.777 E2.6646
G1 X124.225 Y93.407 E2.71457
G1 X124.574 Y94.329 E2.78342
G1 X124.82 Y95.171 E2.84469
G1 X125.607 Y97.734 E3.03196
G1 X126.85 Y101.332 E3.29784
G1 X126.916 Y101.512 E3.31123
G1 X127.124 Y102.196 E3.36116
G1 X127.262 Y102.954 E3.41498
G1 X127.313 Y103.378 E3.44481
G1 X127.357 Y103.991 E3.48773
G1 X127.362 Y104.203 E3.50254
G1 X127.349 Y104.792 E3.54369
G1 X127.327 Y105.113 E3.56617
G1 X127.2 Y106.017 E3.62993
G1 X127.078 Y106.586 E3.67057
G1 X126.855 Y107.689 E3.74917
G1 X126.727 Y108.268 E3.79059
G1 X126.592 Y108.779 E3.82751
G1 X126.084 Y110.418 E3.94736
G1 X125.325 Y113.023 E4.13687
G1 X124.621 Y115.72 E4.33156
G1 X124.402 Y116.401 E4.38152
G1 X124.108 Y117.053 E4.43148
G1 X123.743 Y117.668 E4.48143
G1 X123.313 Y118.239 E4.53136
G1 X122.821 Y118.759 E4.58136
G1 X122.274 Y119.22 E4.63132
G1 X121.679 Y119.617 E4.68128
G1 X121.043 Y119.945 E4.73126
G1 X120.375 Y120.201 E4.78123
G1 X119.683 Y120.38 E4.83115
G1 X118.975 Y120.481 E4.88111
G1 X118.288 Y120.51 E4.92913
G1 X118.108 Y120.513 E4.94171
G1 X102.853 Y120.513 E6.00721
G1 X100.191 Y120.551 E6.19316
G1 X97.551 Y120.663 E6.37772
G1 X94.876 Y120.852 E6.56503
G1 X92.906 Y121.04 E6.70325
G1 X92.171 Y121.068 E6.75462
G1 X91.825 Y121.056 E6.7788
G1 X89.443 Y120.916 E6.94547
G1 X88.733 Y120.834 E6.99539
G1 X88.036 Y120.674 E7.04534
G1 X87.361 Y120.436 E7.09533
G1 X86.717 Y120.125 E7.14528
G1 X86.251 Y119.84 E7.18343
G1 X85.91 Y119.611 E7.21212
G1 X85.339 Y119.18 E7.26209
G1 X84.82 Y118.687 E7.31209
G1 X84.19 Y117.903 E7.38234
G1 X84.13 Y117.815 E7.38977
G1 X83.761 Y117.203 E7.43969
G1 X83.54 Y116.742 E7.4754
G1 X83.456 Y116.547 E7.49023
G1 X83.21 Y115.875 E7.54021
G1 X83.041 Y115.18 E7.59017
G1 X82.95 Y114.471 E7.6401
G1 X82.941 Y113.717 E7.69276
G1 X82.984 Y112.789 E7.75765
G1 X83.074 Y110.049 E7.94913
G1 X83.084 Y107.207 E8.14764
G1 X83.072 Y106.069 E8.22713
G1 X83.074 Y104.863 E8.31136
G1 X83.065 Y104.045 E8.3685
G1 X83.089 Y103.335 E8.41812
G1 X83.143 Y102.776 E8.45734
G1 X83.163 Y102.635 E8.46729
G1 X83.506 Y99.956 E8.65594
G1 X83.652 Y98.478 E8.75967
G1 X83.73 Y97.801 E8.80727
G1 X83.852 Y97.097 E8.85717
G1 X84.051 Y96.41 E8.90713
G1 X84.326 Y95.749 E8.95714
G1 X84.502 Y95.411 E8.98375
G1 X85.034 Y94.459 E9.05992
G1 X85.401 Y93.822 E9.11127
G1 X85.955 Y92.812 E9.19173
G1 X86.103 Y92.554 E9.21251
G1 X86.493 Y91.955 E9.26243
G1 X86.947 Y91.403 E9.31235
G1 X87.455 Y90.896 E9.36248
M204 S3000
M205 X10 Y10
G0 F3000 X87.978 Y91.174
M204 S1800
M205 X8 Y8
G1 F2400 X88.289 Y90.891 E9.39185
G1 X88.82 Y90.461 E9.43958
G1 X89.398 Y90.097 E9.48729
G1 X90.014 Y89.802 E9.53499
G1 X90.952 Y89.509 E9.60363
G1 X91.708 Y89.368 E9.65734
G1 X92.444 Y89.257 E9.70933
G1 X93.125 Y89.196 E9.75709
G1 X94.096 Y89.247 E9.825
G1 X95.208 Y89.399 E9.90339
G1 X97.886 Y89.726 E10.09183
G1 X100.557 Y89.977 E10.27921
G1 X103.224 Y90.151 E10.46589
G1 X105.863 Y90.248 E10.65034
G1 X108.073 Y90.273 E10.80471
G1 X117.813 Y90.274 E11.48501
G1 X118.513 Y90.284 E11.53391
G1 X119.195 Y90.333 E11.58166
G1 X119.866 Y90.462 E11.62939
G1 X120.517 Y90.669 E11.6771
G1 X121.14 Y90.95 E11.72484
G1 X121.725 Y91.302 E11.77252
G1 X122.266 Y91.72 E11.82028
G1 X122.754 Y92.198 E11.86799
G1 X123.183 Y92.73 E11.91572
G1 X123.547 Y93.308 E11.96343
G1 X123.84 Y93.925 E12.01114
G1 X124.036 Y94.486 E12.05265
G1 X124.285 Y95.338 E12.11464
G1 X125.068 Y97.886 E12.30083
G1 X126.332 Y101.546 E12.57128
G1 X126.39 Y101.705 E12.5831
G1 X126.588 Y102.359 E12.63083
G1 X126.706 Y103.021 E12.67779
G1 X126.757 Y103.445 E12.70762
G1 X126.797 Y104.004 E12.74677
G1 X126.802 Y104.216 E12.76158
G1 X126.79 Y104.753 E12.7991
G1 X126.768 Y105.074 E12.82157
G1 X126.652 Y105.899 E12.87976
G1 X126.545 Y106.396 E12.91527
G1 X126.308 Y107.569 E12.99885
G1 X126.18 Y108.148 E13.04027
G1 X126.057 Y108.613 E13.07387
G1 X125.538 Y110.289 E13.19641
G1 X124.786 Y112.869 E13.38411
G1 X124.079 Y115.579 E13.57973
G1 X123.868 Y116.228 E13.6274
G1 X123.583 Y116.849 E13.67512
G1 X123.227 Y117.432 E13.72284
G1 X122.805 Y117.97 E13.77059
G1 X122.324 Y118.455 E13.8183
G1 X121.789 Y118.88 E13.86603
G1 X121.208 Y119.24 E13.91377
G1 X120.589 Y119.529 E13.96148
G1 X119.941 Y119.745 E14.00919
G1 X119.272 Y119.883 E14.0569
G1 X118.592 Y119.942 E14.10457
G1 X118.108 Y119.953 E14.13839
G1 X102.845 Y119.953 E15.20445
G1 X100.194 Y119.99 E15.38963
G1 X97.487 Y120.105 E15.57888
G1 X94.868 Y120.291 E15.76227
G1 X92.853 Y120.483 E15.90364
G1 X92.182 Y120.508 E15.95054
G1 X91.858 Y120.497 E15.97319
G1 X89.476 Y120.357 E16.13985
G1 X88.798 Y120.277 E16.18753
G1 X88.133 Y120.118 E16.23529
G1 X87.492 Y119.883 E16.28297
G1 X86.882 Y119.575 E16.3307
G1 X86.222 Y119.146 E16.38568
G1 X85.678 Y118.733 E16.43339
G1 X85.186 Y118.259 E16.48111
G1 X84.653 Y117.588 E16.54096
G1 X84.593 Y117.5 E16.5484
G1 X84.242 Y116.914 E16.59611
G1 X83.97 Y116.325 E16.64143
G1 X83.737 Y115.683 E16.68913
G1 X83.581 Y115.018 E16.73684
G1 X83.503 Y114.339 E16.78457
G1 X83.5 Y113.743 E16.8262
G1 X83.547 Y112.734 E16.89676
G1 X83.634 Y110.069 E17.08299
G1 X83.644 Y107.2 E17.28338
G1 X83.632 Y106.07 E17.36232
G1 X83.634 Y104.857 E17.44704
G1 X83.625 Y104.039 E17.50418
G1 X83.649 Y103.364 E17.55135
G1 X83.697 Y102.854 E17.58713
G1 X83.723 Y102.668 E17.60025
G1 X84.062 Y100.013 E17.7872
G1 X84.208 Y98.543 E17.89038
G1 X84.286 Y97.866 E17.93798
G1 X84.404 Y97.193 E17.9857
G1 X84.6 Y96.538 E18.03345
G1 X84.991 Y95.684 E18.09906
G1 X85.52 Y94.739 E18.1747
G1 X85.867 Y94.137 E18.22323
G1 X86.44 Y93.091 E18.30653
G1 X86.588 Y92.833 E18.32731
G1 X86.962 Y92.261 E18.37504
G1 X87.591 Y91.544 E18.44166
G1 X87.978 Y91.174 E18.47906
M204 S3000
M205 X10 Y10
G0 F3000 X88.354 Y91.588
M204 S1800
M205 X8 Y8
G1 F2400 X88.665 Y91.305 E18.50843
G1 X89.172 Y90.898 E18.55384
G1 X89.724 Y90.556 E18.59919
G1 X90.315 Y90.285 E18.64461
G1 X91.074 Y90.056 E18.69998
G1 X91.803 Y89.92 E18.75178
G1 X92.527 Y89.811 E18.80292
G1 X93.174 Y89.755 E18.84827
G1 X94.02 Y89.802 E18.90746
G1 X95.133 Y89.954 E18.98592
G1 X97.836 Y90.284 E19.17611
G1 X100.504 Y90.534 E19.36328
G1 X103.204 Y90.711 E19.55227
G1 X105.835 Y90.807 E19.73616
G1 X108.067 Y90.833 E19.89206
G1 X117.805 Y90.834 E20.57223
G1 X118.505 Y90.844 E20.62112
G1 X119.153 Y90.893 E20.66651
G1 X119.79 Y91.021 E20.7119
G1 X120.406 Y91.227 E20.75726
G1 X120.992 Y91.507 E20.80263
G1 X121.54 Y91.856 E20.848
G1 X122.04 Y92.27 E20.89334
G1 X122.486 Y92.743 E20.93875
G1 X122.871 Y93.267 E20.98417
G1 X123.188 Y93.833 E21.02948
G1 X123.498 Y94.643 E21.09006
G1 X123.731 Y95.442 E21.14819
G1 X124.535 Y98.057 E21.33928
G1 X125.813 Y101.76 E21.61289
G1 X125.864 Y101.898 E21.62316
G1 X126.05 Y102.521 E21.66857
G1 X126.15 Y103.087 E21.70872
G1 X126.201 Y103.511 E21.73855
G1 X126.238 Y104.018 E21.77405
G1 X126.232 Y104.715 E21.82274
G1 X126.21 Y105.036 E21.84521
G1 X126.105 Y105.782 E21.89783
G1 X125.983 Y106.351 E21.93848
G1 X125.762 Y107.448 E22.01664
G1 X125.634 Y108.027 E22.05805
G1 X125.522 Y108.448 E22.08848
G1 X125.001 Y110.126 E22.2112
G1 X124.247 Y112.715 E22.39955
G1 X123.537 Y115.437 E22.59603
G1 X123.335 Y116.054 E22.64138
G1 X123.058 Y116.642 E22.68678
G1 X122.711 Y117.192 E22.7322
G1 X122.3 Y117.694 E22.77751
G1 X121.829 Y118.142 E22.82292
G1 X121.308 Y118.53 E22.86829
G1 X120.742 Y118.85 E22.9137
G1 X120.142 Y119.098 E22.95905
G1 X119.516 Y119.271 E23.00441
G1 X118.576 Y119.382 E23.07052
G1 X118.108 Y119.393 E23.10322
G1 X102.837 Y119.393 E24.16984
G1 X100.162 Y119.431 E24.3567
G1 X97.496 Y119.544 E24.54308
G1 X94.774 Y119.737 E24.73368
G1 X92.8 Y119.925 E24.87218
G1 X92.193 Y119.948 E24.9146
G1 X91.891 Y119.938 E24.93571
G1 X89.509 Y119.798 E25.10237
G1 X88.864 Y119.72 E25.14775
G1 X88.234 Y119.563 E25.1931
G1 X87.627 Y119.331 E25.23849
G1 X86.875 Y118.91 E25.29868
G1 X86.534 Y118.681 E25.32737
G1 X86.018 Y118.287 E25.37272
G1 X85.555 Y117.832 E25.41806
G1 X85.116 Y117.272 E25.46776
G1 X85.056 Y117.184 E25.4752
G1 X84.723 Y116.626 E25.52058
G1 X84.485 Y116.104 E25.56066
G1 X84.265 Y115.493 E25.60601
G1 X84.122 Y114.859 E25.65141
G1 X84.058 Y114.213 E25.69675
G1 X84.06 Y113.769 E25.72776
G1 X84.105 Y112.795 E25.79586
G1 X84.194 Y110.089 E25.98497
G1 X84.204 Y107.194 E26.18718
G1 X84.192 Y106.071 E26.26562
G1 X84.194 Y104.851 E26.35083
G1 X84.185 Y104.033 E26.40797
G1 X84.208 Y103.392 E26.45277
G1 X84.278 Y102.745 E26.49822
G1 X84.616 Y100.103 E26.68426
G1 X84.755 Y98.693 E26.78322
G1 X84.843 Y97.93 E26.83687
G1 X84.957 Y97.29 E26.88227
G1 X85.148 Y96.669 E26.92765
G1 X85.479 Y95.957 E26.9825
G1 X86.005 Y95.018 E27.05767
G1 X86.371 Y94.383 E27.10886
G1 X86.926 Y93.37 E27.18954
G1 X87.074 Y93.112 E27.21031
G1 X87.431 Y92.569 E27.2557
G1 X87.981 Y91.946 E27.31375
G1 X88.354 Y91.588 E27.34986
M204 S3000
M205 X10 Y10
G0 F3000 X91.477 Y97.281
M204 S1800
M205 X8 Y8
;TYPE:SUPPORT
G1 F1800 X91.486 Y98.043 E27.40309
G1 X91.152 Y99.213 E27.48807
G1 X90.501 Y98.713 E27.5454
G1 X90.806 Y98.635 E27.56739
G1 X91.198 Y98.253 E27.60562
G1 X91.477 Y97.281 E27.67626
M204 S3000
M205 X10 Y10
G0 F3000 X91.858 Y101.547
M204 S1800
M205 X8 Y8
G1 F1800 X91.858 Y109.614 E28.23971
G1 X91.357 Y109.676 E28.27497
G1 X91.525 Y109.248 E28.30708
G1 X91.366 Y108.684 E28.34801
G1 X90.095 Y107.716 E28.4596
G1 X89.88 Y107.47 E28.48242
G1 X89.763 Y107.146 E28.50648
G1 X89.751 Y106.571 E28.54665
G1 X89.822 Y105.853 E28.59704
G1 X89.855 Y105.331 E28.63358
G1 X89.789 Y104.543 E28.68881
G1 X89.733 Y103.845 E28.73772
G1 X89.818 Y103.407 E28.76888
G1 X89.992 Y103.118 E28.79244
G1 X91.858 Y101.547 E28.96282
M204 S3000
M205 X10 Y10
G0 F3000 X90.558 Y111.705
M204 S1800
M205 X8 Y8
G1 F1800 X91.751 Y114.308 E29.16281
G1 X91.799 Y114.332 E29.16656
G1 X90.116 Y114.086 E29.28536
G1 X89.826 Y114.216 E29.30756
G1 X89.67 Y114.107 E29.32085
G1 X89.628 Y114.011 E29.32817
G1 X90.199 Y112.614 E29.43358
G1 X90.558 Y111.705 E29.50184
M204 S3000
M205 X10 Y10
G1 F2400 E23.50184
G0 F3000 X92.177 Y114.223
G0 X118.548 Y114.774
G0 X119.418 Y107.489
M204 S1800
M205 X8 Y8
G1 F2400 E29.50184
G1 F1800 X119.418 Y103.699 E29.76656
G1 X120.463 Y103.411 E29.84227
G1 X120.651 Y103.805 E29.87276
G1 X120.684 Y104.44 E29.91717
G1 X120.389 Y104.493 E29.93811
G1 X120.018 Y104.991 E29.98148
G1 X120.211 Y106.61 E30.09536
G1 X120.211 Y106.694 E30.10123
G1 X119.696 Y106.891 E30.13974
G1 X119.418 Y107.489 E30.18581
M204 S3000
M205 X10 Y10
G0 F3000 X120 Y104.648
M204 S1800
M205 X8 Y8
G1 F1800 X120 Y103.766 E30.24741
M204 S3000
M205 X10 Y10
G1 F2400 E24.24741
;MESH:man.woman2.stl
G0 F3000 X117.578 Y103.766
G0 X117.038 Y112.713
M204 S1800
M205 X8 Y8
;TYPE:WALL-INNER
G1 F2400 E30.24741
G1 F1800 X94.238 Y112.713 E31.83991
G1 X94.238 Y97.513 E32.90157
G1 X117.038 Y97.513 E34.49406
G1 X117.038 Y112.713 E35.55573
M204 S3000
M205 X10 Y10
G0 F3000 X117.598 Y113.273
M204 S1800
M205 X8 Y8
G1 F1800 X93.678 Y113.273 E37.22645
G1 X93.678 Y96.953 E38.36634
G1 X117.598 Y96.953 E40.03706
G1 X117.598 Y113.273 E41.17696
M204 S3000
M205 X10 Y10
G0 F3000 X118.158 Y113.833
M204 S1800
M205 X8 Y8
;TYPE:WALL-OUTER
G1 F1800 X93.118 Y113.833 E42.92591
G1 X93.118 Y96.393 E44.14403
G1 X118.158 Y96.393 E45.89298
G1 X118.158 Y113.833 E47.1111
M204 S3000
M205 X10 Y10
G0 F3000 X117.958 Y113.833
G0 X117.528 Y113.203
G0 X116.488 Y112.163
M204 S1800
M205 X8 Y8
;TYPE:SKIN
G1 F1800 X94.788 Y112.163 E48.62676
G1 X94.788 Y98.063 E49.61159
G1 X116.488 Y98.063 E51.12726
G1 X116.488 Y112.163 E52.11209
M204 S3000
M205 X10 Y10
G0 F3000 X116.227 Y98.804
M204 S1800
M205 X8 Y8
G1 F1800 X115.746 Y98.323 E52.1596
M204 S3000
M205 X10 Y10
G0 F3000 X114.954 Y98.323
M204 S1800
M205 X8 Y8
G1 F1800 X116.227 Y99.595 E52.2853
M204 S3000
M205 X10 Y10
G0 F3000 X116.227 Y100.387
M204 S1800
M205 X8 Y8
G1 F1800 X114.162 Y98.323 E52.48922
M204 S3000
M205 X10 Y10
G0 F3000 X113.37 Y98.323
M204 S1800
M205 X8 Y8
G1 F1800 X116.227 Y101.179 E52.77138
M204 S3000
M205 X10 Y10
G0 F3000 X116.227 Y101.971
M204 S1800
M205 X8 Y8
G1 F1800 X112.578 Y98.323 E53.13177
M204 S3000
M205 X10 Y10
G0 F3000 X111.786 Y98.323
M204 S1800
M205 X8 Y8
G1 F1800 X116.227 Y102.763 E53.57039
M204 S3000
M205 X10 Y10
G0 F3000 X116.227 Y103.555
M204 S1800
M205 X8 Y8
G1 F1800 X110.994 Y98.323 E54.08725
M204 S3000
M205 X10 Y10
G0 F3000 X110.202 Y98.323
M204 S1800
M205 X8 Y8
G1 F1800 X116.227 Y104.347 E54.68233
M204 S3000
M205 X10 Y10
G0 F3000 X116.227 Y105.139
M204 S1800
M205 X8 Y8
G1 F1800 X109.41 Y98.323 E55.35565
M204 S3000
M205 X10 Y10
G0 F3000 X108.618 Y98.323
M204 S1800
M205 X8 Y8
G1 F1800 X116.227 Y105.931 E56.1072
M204 S3000
M205 X10 Y10
G0 F3000 X116.227 Y106.723
M204 S1800
M205 X8 Y8
G1 F1800 X107.826 Y98.323 E56.93698
M204 S3000
M205 X10 Y10
G0 F3000 X107.034 Y98.323
M204 S1800
M205 X8 Y8
G1 F1800 X116.227 Y107.515 E57.84499
M204 S3000
M205 X10 Y10
G0 F3000 X116.227 Y108.307
M204 S1800
M205 X8 Y8
G1 F1800 X106.242 Y98.323 E58.83124
M204 S3000
M205 X10 Y10
G0 F3000 X105.45 Y98.322
M204 S1800
M205 X8 Y8
G1 F1800 X116.227 Y109.099 E59.89576
M204 S3000
M205 X10 Y10
G0 F3000 X116.227 Y109.891
M204 S1800
M205 X8 Y8
G1 F1800 X104.658 Y98.322 E61.03852
M204 S3000
M205 X10 Y10
G0 F3000 X103.866 Y98.322
M204 S1800
M205 X8 Y8
G1 F1800 X116.227 Y110.683 E62.25951
M204 S3000
M205 X10 Y10
G0 F3000 X116.227 Y111.475
M204 S1800
M205 X8 Y8
G1 F1800 X103.074 Y98.322 E63.55873
M204 S3000
M205 X10 Y10
G0 F3000 X102.282 Y98.322
M204 S1800
M205 X8 Y8
G1 F1800 X115.862 Y111.902 E64.90013
M204 S3000
M205 X10 Y10
G0 F3000 X115.07 Y111.902
M204 S1800
M205 X8 Y8
G1 F1800 X101.49 Y98.322 E66.24153
M204 S3000
M205 X10 Y10
G0 F3000 X100.698 Y98.322
M204 S1800
M205 X8 Y8
G1 F1800 X114.278 Y111.902 E67.58293
M204 S3000
M205 X10 Y10
G0 F3000 X113.486 Y111.902
M204 S1800
M205 X8 Y8
G1 F1800 X99.906 Y98.322 E68.92433
M204 S3000
M205 X10 Y10
G0 F3000 X99.114 Y98.322
M204 S1800
M205 X8 Y8
G1 F1800 X112.694 Y111.902 E70.26573
M204 S3000
M205 X10 Y10
G0 F3000 X111.902 Y111.902
M204 S1800
M205 X8 Y8
G1 F1800 X98.322 Y98.322 E71.60713
M204 S3000
M205 X10 Y10
G0 F3000 X97.53 Y98.322
M204 S1800
M205 X8 Y8
G1 F1800 X111.11 Y111.902 E72.94853
M204 S3000
M205 X10 Y10
G0 F3000 X110.318 Y111.902
M204 S1800
M205 X8 Y8
G1 F1800 X96.738 Y98.322 E74.28992
M204 S3000
M205 X10 Y10
G0 F3000 X95.946 Y98.322
M204 S1800
M205 X8 Y8
G1 F1800 X109.526 Y111.902 E75.63132
M204 S3000
M205 X10 Y10
G0 F3000 X108.734 Y111.902
M204 S1800
M205 X8 Y8
G1 F1800 X95.154 Y98.322 E76.97272
M204 S3000
M205 X10 Y10
G0 F3000 X95.047 Y99.007
M204 S1800
M205 X8 Y8
G1 F1800 X107.942 Y111.902 E78.24646
M204 S3000
M205 X10 Y10
G0 F3000 X107.15 Y111.902
M204 S1800
M205 X8 Y8
G1 F1800 X95.047 Y99.799 E79.44196
M204 S3000
M205 X10 Y10
