;FLAVOR:Marlin
;TIME:197
;Filament used: 0.122258m
;Layer height: 0.3
;MINX:94.882
;MINY:96.293
;MINZ:0.3
;MAXX:118.301
;MAXY:113.695
;MAXZ:21.6
;Generated with Cura_SteamEngine 4.11.0
M140 S60
M105
M190 S60
M104 S200
M105
M109 S200
M82 ;absolute extrusion mode
G21 ;metric values
G90 ;absolute positioning
M82 ;set extruder to absolute mode
M107 ;start with the fan off
G28 X0 Y0 ;move X/Y to min endstops
G28 Z0 ;move Z to min endstops
G1 Z15.0 F100 ;move the platform down 15mm
G92 E0 ;zero the extruded length
G1 F200 E3 ;extrude 3mm of feed stock
G92 E0 ;zero the extruded length again
G1 F100
G0 Y20 F100
M117 Printing...
G5
G92 E0
G92 E0
G1 F2400 E-6
;LAYER_COUNT:72
;LAYER:0
M107
M204 S3000
M205 X10 Y10
G1 F600 Z0.375
G0 F3000 X97.33 Y99.043 Z0.375
M204 S1800
M205 X8 Y8
;TYPE:SKIRT
G1 F600 Z0.3
G1 F2400 E0
G1 X97.912 Y98.532 E0.0541
G1 X98.544 Y98.083 E0.10824
G1 X99.219 Y97.701 E0.16242
G1 X99.653 Y97.502 E0.19577
G1 X100.242 Y97.254 E0.2404
G1 X100.866 Y97 E0.28746
G1 X101.598 Y96.745 E0.3416
G1 X102.353 Y96.567 E0.39578
G1 X102.924 Y96.485 E0.43607
G1 X103.33 Y96.445 E0.46457
G1 X104.001 Y96.389 E0.5116
G1 X104.583 Y96.351 E0.55233
G1 X105.643 Y96.301 E0.62645
G1 X106.011 Y96.293 E0.65216
G1 X107.612 Y96.296 E0.76399
G1 X108.346 Y96.333 E0.81532
G1 X108.81 Y96.392 E0.84799
G1 X111.017 Y96.74 E1.00404
G1 X111.863 Y96.864 E1.06376
G1 X112.623 Y97.016 E1.1179
G1 X113.364 Y97.246 E1.17209
G1 X114.077 Y97.55 E1.22623
G1 X114.755 Y97.926 E1.28038
G1 X115.39 Y98.37 E1.3345
G1 X115.977 Y98.877 E1.38867
G1 X116.508 Y99.442 E1.44283
G1 X116.978 Y100.059 E1.497
G1 X117.383 Y100.72 E1.55115
G1 X117.717 Y101.42 E1.60532
G1 X117.977 Y102.151 E1.65951
G1 X118.16 Y102.904 E1.71364
G1 X118.265 Y103.672 E1.76778
G1 X118.291 Y104.192 E1.80414
G1 X118.301 Y104.856 E1.85053
G1 X118.301 Y105.073 E1.86568
G1 X118.291 Y105.799 E1.9164
G1 X118.241 Y106.572 E1.9705
G1 X118.111 Y107.337 E2.0247
G1 X117.903 Y108.084 E2.07886
G1 X117.619 Y108.805 E2.13299
G1 X117.262 Y109.494 E2.18719
G1 X116.836 Y110.142 E2.24135
G1 X116.346 Y110.743 E2.29551
G1 X115.797 Y111.29 E2.34964
G1 X115.194 Y111.777 E2.40378
G1 X114.544 Y112.2 E2.45795
G1 X113.854 Y112.554 E2.51211
G1 X113.132 Y112.835 E2.56623
G1 X112.384 Y113.04 E2.6204
G1 X111.849 Y113.137 E2.65838
G1 X110.985 Y113.262 E2.71935
G1 X109.287 Y113.521 E2.83932
G1 X108.762 Y113.605 E2.87646
G1 X107.991 Y113.687 E2.93061
G1 X107.098 Y113.695 E2.99299
G1 X106.024 Y113.693 E3.068
G1 X105.859 Y113.691 E3.07953
G1 X104.759 Y113.665 E3.15638
G1 X104.223 Y113.639 E3.19386
G1 X103.802 Y113.607 E3.22335
G1 X103.136 Y113.545 E3.27007
G1 X102.06 Y113.365 E3.34627
G1 X101.397 Y113.189 E3.39418
G1 X100.763 Y112.99 E3.4406
G1 X100.306 Y112.838 E3.47423
G1 X99.584 Y112.555 E3.5284
G1 X98.894 Y112.2 E3.5826
G1 X98.245 Y111.776 E3.63674
G1 X97.643 Y111.287 E3.69092
G1 X97.095 Y110.739 E3.74505
G1 X96.663 Y110.214 E3.79253
G1 X96.615 Y110.15 E3.79812
G1 X96.278 Y109.662 E3.83954
G1 X96.119 Y109.411 E3.8603
G1 X95.739 Y108.736 E3.9144
G1 X95.331 Y107.743 E3.98938
G1 X95.267 Y107.549 E4.00365
G1 X95.062 Y106.801 E4.05782
G1 X94.935 Y106.036 E4.11199
G1 X94.888 Y105.423 E4.15493
G1 X94.882 Y104.647 E4.20913
G1 X94.933 Y104.046 E4.25126
G1 X94.966 Y103.781 E4.26991
G1 X95.101 Y103.017 E4.3241
G1 X95.314 Y102.272 E4.37822
G1 X95.603 Y101.552 E4.43241
G1 X95.938 Y100.897 E4.4838
G1 X96.337 Y100.233 E4.5379
G1 X96.803 Y99.612 E4.59213
G1 X97.33 Y99.043 E4.6463
M204 S3000
M205 X10 Y10
G0 F3000 X97.782 Y99.386
M204 S1800
M205 X8 Y8
G1 F2400 X98.349 Y98.901 E4.69842
G1 X98.965 Y98.481 E4.75049
G1 X99.871 Y98.018 E4.82156
G1 X100.453 Y97.773 E4.86566
G1 X101.077 Y97.519 E4.91272
G1 X101.782 Y97.275 E4.96483
G1 X102.509 Y97.108 E5.01693
G1 X103.242 Y97.015 E5.06853
G1 X104.039 Y96.948 E5.1244
G1 X104.609 Y96.911 E5.16429
G1 X105.669 Y96.861 E5.23841
G1 X106.01 Y96.853 E5.26224
G1 X107.611 Y96.856 E5.37406
G1 X108.291 Y96.891 E5.42162
G1 X108.723 Y96.945 E5.45203
G1 X111.011 Y97.306 E5.61381
G1 X111.781 Y97.419 E5.66817
G1 X112.513 Y97.566 E5.72032
G1 X113.224 Y97.791 E5.77241
G1 X113.907 Y98.091 E5.82451
G1 X114.554 Y98.462 E5.87661
G1 X115.157 Y98.9 E5.92866
G1 X115.711 Y99.401 E5.98083
G1 X116.207 Y99.957 E6.03287
G1 X116.641 Y100.564 E6.08499
G1 X117.008 Y101.214 E6.13713
G1 X117.303 Y101.899 E6.18922
G1 X117.523 Y102.611 E6.24127
G1 X117.665 Y103.344 E6.29342
G1 X117.731 Y104.2 E6.35339
G1 X117.741 Y104.864 E6.39977
G1 X117.741 Y105.065 E6.41381
G1 X117.731 Y105.791 E6.46452
G1 X117.681 Y106.535 E6.51661
G1 X117.552 Y107.27 E6.56873
G1 X117.344 Y107.986 E6.6208
G1 X117.061 Y108.676 E6.67289
G1 X116.706 Y109.332 E6.72499
G1 X116.283 Y109.946 E6.77707
G1 X115.796 Y110.512 E6.82922
G1 X115.252 Y111.022 E6.88131
G1 X114.656 Y111.471 E6.93343
G1 X114.015 Y111.853 E6.98554
G1 X113.338 Y112.165 E7.03761
G1 X112.631 Y112.402 E7.08969
G1 X111.769 Y112.583 E7.15121
G1 X110.9 Y112.709 E7.21254
G1 X109.199 Y112.968 E7.33272
G1 X108.674 Y113.052 E7.36986
G1 X107.932 Y113.13 E7.42197
G1 X107.104 Y113.135 E7.4798
G1 X106.025 Y113.133 E7.55517
G1 X104.773 Y113.105 E7.64264
G1 X104.264 Y113.081 E7.67823
G1 X103.854 Y113.049 E7.70695
G1 X103.188 Y112.987 E7.75367
G1 X102.192 Y112.821 E7.8242
G1 X101.563 Y112.654 E7.86965
G1 X100.939 Y112.458 E7.91534
G1 X100.482 Y112.306 E7.94897
G1 X99.788 Y112.033 E8.00106
G1 X99.127 Y111.688 E8.05314
G1 X98.507 Y111.273 E8.10525
G1 X97.935 Y110.795 E8.15732
G1 X97.417 Y110.258 E8.20943
G1 X97.063 Y109.814 E8.24909
G1 X96.751 Y109.363 E8.2874
G1 X96.592 Y109.112 E8.30815
G1 X96.228 Y108.461 E8.36025
G1 X95.862 Y107.567 E8.42772
G1 X95.798 Y107.373 E8.44199
G1 X95.603 Y106.654 E8.49402
G1 X95.46 Y105.607 E8.56783
G1 X95.447 Y105.389 E8.58308
G1 X95.443 Y104.643 E8.63519
G1 X95.488 Y104.115 E8.6722
G1 X95.521 Y103.85 E8.69085
G1 X95.653 Y103.116 E8.74294
G1 X95.863 Y102.4 E8.79506
G1 X96.284 Y101.44 E8.86828
G1 X96.433 Y101.16 E8.89043
G1 X96.818 Y100.522 E8.94248
G1 X97.269 Y99.928 E8.99457
G1 X97.782 Y99.386 E9.04669
M204 S3000
M205 X10 Y10
G0 F3000 X98.232 Y99.731
M204 S1800
M205 X8 Y8
G1 F2400 X98.783 Y99.276 E9.0966
G1 X99.382 Y98.884 E9.1466
G1 X100.089 Y98.534 E9.20171
G1 X100.664 Y98.291 E9.24531
G1 X101.288 Y98.037 E9.29236
G1 X101.965 Y97.805 E9.34235
G1 X102.663 Y97.65 E9.39229
G1 X103.3 Y97.572 E9.43711
G1 X104.076 Y97.507 E9.4915
G1 X104.635 Y97.47 E9.53063
G1 X105.695 Y97.42 E9.60475
G1 X106.009 Y97.413 E9.62669
G1 X107.61 Y97.416 E9.73851
G1 X108.235 Y97.448 E9.78223
G1 X108.635 Y97.498 E9.81038
G1 X110.923 Y97.859 E9.97217
G1 X111.7 Y97.973 E10.02702
G1 X112.401 Y98.116 E10.07699
G1 X113.081 Y98.336 E10.12691
G1 X113.733 Y98.631 E10.17689
G1 X114.348 Y98.997 E10.22688
G1 X114.918 Y99.429 E10.27683
G1 X115.436 Y99.922 E10.32678
G1 X115.896 Y100.47 E10.37675
G1 X116.292 Y101.066 E10.42673
G1 X116.619 Y101.702 E10.47668
G1 X116.873 Y102.37 E10.5266
G1 X117.05 Y103.063 E10.57656
G1 X117.15 Y103.772 E10.62657
G1 X117.171 Y104.209 E10.65713
G1 X117.181 Y104.873 E10.70351
G1 X117.181 Y105.057 E10.71636
G1 X117.171 Y105.783 E10.76707
G1 X117.122 Y106.497 E10.81706
G1 X116.992 Y107.2 E10.867
G1 X116.786 Y107.885 E10.91696
G1 X116.504 Y108.542 E10.9669
G1 X116.15 Y109.164 E11.01688
G1 X115.73 Y109.743 E11.06684
G1 X115.247 Y110.27 E11.11677
G1 X114.708 Y110.741 E11.16677
G1 X114.121 Y111.149 E11.2167
G1 X113.491 Y111.489 E11.2667
G1 X112.828 Y111.756 E11.31662
G1 X112.139 Y111.947 E11.36656
G1 X111.689 Y112.029 E11.39851
G1 X110.77 Y112.162 E11.46337
G1 X109.11 Y112.415 E11.58065
G1 X108.585 Y112.499 E11.61779
G1 X107.874 Y112.572 E11.66771
G1 X107.109 Y112.575 E11.72114
G1 X106.026 Y112.573 E11.79679
G1 X104.786 Y112.545 E11.88342
G1 X104.024 Y112.501 E11.93673
G1 X103.24 Y112.429 E11.99172
G1 X102.324 Y112.277 E12.05657
G1 X101.73 Y112.119 E12.09951
G1 X101.116 Y111.927 E12.14444
G1 X100.659 Y111.775 E12.17808
G1 X99.994 Y111.512 E12.22803
G1 X99.363 Y111.176 E12.27796
G1 X98.773 Y110.771 E12.32794
G1 X98.231 Y110.304 E12.37791
G1 X97.559 Y109.542 E12.44888
G1 X97.511 Y109.478 E12.45446
G1 X97.224 Y109.063 E12.48971
G1 X97.065 Y108.812 E12.51046
G1 X96.717 Y108.187 E12.56042
G1 X96.394 Y107.392 E12.62036
G1 X96.33 Y107.198 E12.63463
G1 X96.144 Y106.507 E12.68461
G1 X96.019 Y105.574 E12.75036
G1 X96.006 Y105.356 E12.76561
G1 X96.004 Y104.641 E12.81555
G1 X96.077 Y103.919 E12.86624
G1 X96.205 Y103.215 E12.91622
G1 X96.411 Y102.53 E12.96618
G1 X96.778 Y101.703 E13.02937
G1 X96.927 Y101.423 E13.05153
G1 X97.298 Y100.812 E13.10145
G1 X97.735 Y100.245 E13.15145
G1 X98.232 Y99.731 E13.20139
M204 S3000
M205 X10 Y10
G0 F3000 X98.68 Y100.08
M204 S1800
M205 X8 Y8
G1 F2400 X99.215 Y99.655 E13.24912
G1 X99.795 Y99.295 E13.2968
G1 X100.306 Y99.049 E13.33641
G1 X100.875 Y98.81 E13.37951
G1 X101.499 Y98.556 E13.42657
G1 X102.146 Y98.336 E13.4743
G1 X103.098 Y98.156 E13.54197
G1 X103.471 Y98.119 E13.56815
G1 X104.114 Y98.065 E13.61322
G1 X104.662 Y98.029 E13.65158
G1 X105.722 Y97.979 E13.7257
G1 X106.008 Y97.973 E13.74568
G1 X107.609 Y97.976 E13.85751
G1 X108.179 Y98.005 E13.89737
G1 X108.548 Y98.051 E13.92334
G1 X110.836 Y98.412 E14.08513
G1 X111.619 Y98.527 E14.1404
G1 X112.288 Y98.665 E14.18812
G1 X112.936 Y98.881 E14.23582
G1 X113.555 Y99.171 E14.28357
G1 X114.136 Y99.531 E14.33131
G1 X114.67 Y99.956 E14.37898
G1 X115.151 Y100.441 E14.42669
G1 X115.573 Y100.979 E14.47444
G1 X115.928 Y101.563 E14.52218
G1 X116.213 Y102.184 E14.5699
G1 X116.424 Y102.834 E14.61764
G1 X116.557 Y103.504 E14.66535
G1 X116.611 Y104.217 E14.71529
G1 X116.621 Y104.881 E14.76167
G1 X116.621 Y105.049 E14.77341
G1 X116.611 Y105.775 E14.82412
G1 X116.562 Y106.457 E14.87188
G1 X116.433 Y107.128 E14.9196
G1 X116.227 Y107.779 E14.9673
G1 X115.947 Y108.402 E15.015
G1 X115.595 Y108.988 E15.06275
G1 X115.177 Y109.529 E15.1105
G1 X114.7 Y110.017 E15.15816
G1 X114.168 Y110.446 E15.2059
G1 X113.59 Y110.81 E15.25361
G1 X112.973 Y111.104 E15.30135
G1 X112.326 Y111.324 E15.34908
G1 X111.608 Y111.475 E15.40032
G1 X110.689 Y111.608 E15.46518
G1 X109.022 Y111.861 E15.58295
G1 X108.497 Y111.946 E15.6201
G1 X107.516 Y112.019 E15.6888
G1 X107.115 Y112.015 E15.71681
G1 X106.027 Y112.013 E15.79281
G1 X104.799 Y111.985 E15.8786
G1 X104.065 Y111.943 E15.92995
G1 X103.292 Y111.872 E15.98417
G1 X102.456 Y111.732 E16.04337
G1 X101.896 Y111.584 E16.08383
G1 X101.293 Y111.396 E16.12795
G1 X100.836 Y111.244 E16.16159
G1 X100.201 Y110.99 E16.20936
G1 X99.601 Y110.665 E16.25702
G1 X99.042 Y110.271 E16.30478
G1 X98.533 Y109.815 E16.35252
G1 X98.007 Y109.206 E16.40872
G1 X97.698 Y108.763 E16.44645
G1 X97.539 Y108.512 E16.4672
G1 X97.207 Y107.915 E16.51491
G1 X96.926 Y107.217 E16.56747
G1 X96.862 Y107.023 E16.58174
G1 X96.686 Y106.362 E16.62951
G1 X96.578 Y105.541 E16.68735
G1 X96.565 Y105.323 E16.70261
G1 X96.565 Y104.639 E16.75038
G1 X96.633 Y103.988 E16.7961
G1 X96.757 Y103.316 E16.84383
G1 X96.958 Y102.664 E16.89148
G1 X97.273 Y101.967 E16.9449
G1 X97.422 Y101.687 E16.96706
G1 X97.777 Y101.103 E17.01479
G1 X98.199 Y100.565 E17.06255
G1 X98.68 Y100.08 E17.11026
M204 S3000
M205 X10 Y10
G0 F3000 X99.126 Y100.434
M204 S1800
M205 X8 Y8
G1 F2400 X99.642 Y100.041 E17.15557
G1 X100.204 Y99.713 E17.20102
G1 X100.524 Y99.565 E17.22564
G1 X101.086 Y99.329 E17.26821
G1 X101.71 Y99.075 E17.31527
G1 X102.326 Y98.867 E17.36068
G1 X103.156 Y98.713 E17.41964
G1 X103.518 Y98.677 E17.44505
G1 X104.152 Y98.624 E17.48949
G1 X104.688 Y98.589 E17.52701
G1 X105.748 Y98.539 E17.60113
G1 X106.007 Y98.533 E17.61922
G1 X107.608 Y98.536 E17.73105
G1 X108.123 Y98.562 E17.76706
G1 X108.461 Y98.605 E17.79086
G1 X110.692 Y98.957 E17.94862
G1 X111.538 Y99.081 E18.00834
G1 X112.173 Y99.214 E18.05365
G1 X112.788 Y99.425 E18.09907
G1 X113.372 Y99.71 E18.14445
G1 X113.917 Y100.064 E18.18985
G1 X114.414 Y100.482 E18.2352
G1 X114.856 Y100.958 E18.28057
G1 X115.236 Y101.485 E18.32595
G1 X115.548 Y102.054 E18.37128
G1 X115.788 Y102.658 E18.41668
G1 X115.953 Y103.286 E18.46203
G1 X116.051 Y104.225 E18.52797
G1 X116.061 Y104.889 E18.57435
G1 X116.061 Y105.042 E18.58504
G1 X116.051 Y105.768 E18.63575
G1 X116.003 Y106.415 E18.68107
G1 X115.875 Y107.052 E18.72645
G1 X115.669 Y107.669 E18.77188
G1 X115.39 Y108.255 E18.81721
G1 X115.04 Y108.803 E18.86263
G1 X114.627 Y109.303 E18.90793
G1 X114.154 Y109.749 E18.95333
G1 X113.631 Y110.134 E18.99869
G1 X113.064 Y110.452 E19.0441
G1 X112.463 Y110.697 E19.08943
G1 X111.528 Y110.921 E19.15659
G1 X110.609 Y111.054 E19.22144
G1 X108.933 Y111.309 E19.33985
G1 X108.408 Y111.393 E19.37699
G1 X107.521 Y111.459 E19.43911
G1 X107.12 Y111.455 E19.46712
G1 X105.912 Y111.452 E19.5515
G1 X104.7 Y111.422 E19.63618
G1 X104.107 Y111.384 E19.67768
G1 X103.344 Y111.314 E19.7312
G1 X102.588 Y111.188 E19.78473
G1 X102.062 Y111.05 E19.82271
G1 X101.567 Y110.896 E19.85892
G1 X101.013 Y110.712 E19.8997
G1 X100.41 Y110.47 E19.94508
G1 X99.842 Y110.155 E19.99044
G1 X99.316 Y109.773 E20.03585
G1 X98.842 Y109.329 E20.08121
G1 X98.455 Y108.87 E20.12315
G1 X98.012 Y108.212 E20.17855
G1 X97.698 Y107.643 E20.22394
G1 X97.458 Y107.041 E20.26921
G1 X97.394 Y106.847 E20.28348
G1 X97.229 Y106.219 E20.32883
G1 X97.137 Y105.507 E20.37897
G1 X97.124 Y105.289 E20.39423
G1 X97.155 Y104.323 E20.46173
G1 X97.188 Y104.058 E20.48038
G1 X97.308 Y103.419 E20.5258
G1 X97.506 Y102.8 E20.57119
G1 X97.767 Y102.23 E20.61498
G1 X97.916 Y101.95 E20.63713
G1 X98.256 Y101.396 E20.68253
G1 X98.661 Y100.888 E20.72791
G1 X99.126 Y100.434 E20.7733
M204 S3000
M205 X10 Y10
G0 F3000 X102.729 Y104.713
M204 S1800
M205 X8 Y8
;TYPE:SUPPORT
G1 F1800 X102.858 Y104.721 E20.78233
G1 X102.831 Y105.146 E20.81207
G1 X102.885 Y105.382 E20.82898
G1 X102.789 Y105.402 E20.83583
G1 X102.658 Y105.085 E20.85979
G1 X102.729 Y104.713 E20.88624
M204 S3000
M205 X10 Y10
G0 F3000 X103.326 Y104.829
M204 S1800
M205 X8 Y8
;TYPE:SUPPORT-INTERFACE
G1 F1800 X103.346 Y104.749 E20.892
G1 X103.491 Y104.447 E20.9154
G1 X103.533 Y104.391 E20.92029
G1 X103.723 Y104.201 E20.93906
G1 X104.19 Y104.264 E20.97197
G1 X104.721 Y104.079 E21.01125
G1 X105.087 Y104.195 E21.03806
G1 X105.951 Y104.017 E21.09968
G1 X106.334 Y104.209 E21.1296
G1 X107.465 Y104.03 E21.20958
G1 X107.48 Y104.075 E21.21289
G1 X107.361 Y104.107 E21.2215
G1 X107.33 Y104.117 E21.22378
G1 X106.802 Y104.353 E21.26417
G1 X106.748 Y104.387 E21.26863
G1 X106.432 Y104.675 E21.29849
G1 X106.366 Y104.807 E21.3088
G1 X106.335 Y105.104 E21.32966
G1 X106.399 Y105.276 E21.34247
G1 X106.74 Y105.605 E21.37557
G1 X106.795 Y105.645 E21.38032
G1 X107.298 Y105.876 E21.41898
G1 X107.331 Y105.887 E21.42141
G1 X107.459 Y105.92 E21.43064
G1 X107.443 Y105.967 E21.43411
G1 X106.289 Y105.802 E21.51553
G1 X105.938 Y105.969 E21.54268
G1 X105.116 Y105.756 E21.60199
G1 X104.736 Y105.923 E21.63098
G1 X104.293 Y105.733 E21.66465
G1 X103.795 Y105.784 E21.69962
G1 X103.739 Y105.824 E21.70442
G1 X103.714 Y105.811 E21.70639
G1 X103.518 Y105.591 E21.72697
G1 X103.487 Y105.546 E21.73079
G1 X103.33 Y105.201 E21.75726
G1 X103.313 Y105.113 E21.76352
G1 X103.326 Y104.829 E21.78338
M204 S3000
M205 X10 Y10
G0 F3000 X105.955 Y104.556
M204 S1800
M205 X8 Y8
G1 F1800 X105.898 Y104.67 E21.79228
G1 X105.846 Y105.166 E21.82712
G1 X105.946 Y105.434 E21.8471
G1 X105.889 Y105.461 E21.8515
G1 X105.075 Y105.25 E21.91023
G1 X104.734 Y105.4 E21.93625
G1 X104.368 Y105.243 E21.96407
G1 X103.898 Y105.29 E21.99706
G1 X103.796 Y105.066 E22.01425
G1 X103.804 Y104.904 E22.02558
G1 X103.898 Y104.709 E22.0407
G1 X104.24 Y104.756 E22.06481
G1 X104.728 Y104.585 E22.10093
G1 X105.061 Y104.69 E22.12532
G1 X105.884 Y104.52 E22.18402
G1 X105.955 Y104.556 E22.18958
M204 S3000
M205 X10 Y10
G1 F2400 E16.18958
;MESH:hasira2.stl
G0 F3000 X108.944 Y105.004
G0 X110.407 Y105.279
G1 F2400 E22.18958
G0 F3000 X110.502 Y105.31
M204 S1800
M205 X8 Y8
;TYPE:WALL-OUTER
G1 F1800 X110.502 Y105.393 E22.19537
G1 X109.942 Y105.31 E22.22471
G1 X109.374 Y105.193 E22.26522
G1 X109.251 Y105.142 E22.27452
G1 X108.924 Y105.004 E22.29931
G1 X109.234 Y104.871 E22.30599
G1 X109.393 Y104.802 E22.31175
G1 X109.952 Y104.681 E22.35169
G1 X110.502 Y104.608 E22.39045
G1 X110.502 Y104.681
G1 X110.502 Y105.31 E22.42596
M204 S3000
M205 X10 Y10
G0 F3000 X110.502 Y105.393
G0 X110.387 Y105.376
