;FLAVOR:Marlin
;TIME:1123
;Filament used: 0.873485m
;Layer height: 0.3
;MINX:74.175
;MINY:91.766
;MINZ:0.3
;MAXX:111.483
;MAXY:116.308
;MAXZ:46.2
;Generated with Cura_SteamEngine 4.11.0
M140 S60
M105
M190 S60
M104 S200
M105
M109 S200
M82 ;absolute extrusion mode
G21 ;metric values
G90 ;absolute positioning
M82 ;set extruder to absolute mode
M107 ;start with the fan off
G28 X0 Y0 ;move X/Y to min endstops
G28 Z0 ;move Z to min endstops
G1 Z15.0 F100 ;move the platform down 15mm
G92 E0 ;zero the extruded length
G1 F200 E3 ;extrude 3mm of feed stock
G92 E0 ;zero the extruded length again
G1 F100
G0 Y20 F100
M117 Printing...
G5
G92 E0
G92 E0
G1 F2400 E-6
;LAYER_COUNT:154
;LAYER:0
M107
M204 S3000
M205 X10 Y10
G1 F600 Z0.375
G0 F3000 X77.832 Y94.674 Z0.375
M204 S1800
M205 X8 Y8
;TYPE:SKIRT
G1 F600 Z0.3
G1 F2400 E0
G1 X78.089 Y94.472 E0.02283
G1 X78.512 Y94.167 E0.05926
G1 X78.911 Y93.903 E0.09267
G1 X79.415 Y93.601 E0.13371
G1 X79.983 Y93.296 E0.17874
G1 X80.493 Y93.048 E0.21835
G1 X81.371 Y92.689 E0.2846
G1 X81.959 Y92.486 E0.32805
G1 X82.277 Y92.391 E0.35123
G1 X82.988 Y92.198 E0.40269
G1 X83.623 Y92.052 E0.4482
G1 X84.138 Y91.958 E0.48477
G1 X84.786 Y91.866 E0.53048
G1 X85.457 Y91.806 E0.57753
G1 X86.148 Y91.773 E0.62585
G1 X86.526 Y91.766 E0.65226
G1 X87.205 Y91.783 E0.6997
G1 X87.916 Y91.828 E0.74946
G1 X90.563 Y91.956 E0.93456
G1 X93.24 Y92.01 E1.12158
G1 X95.882 Y91.989 E1.30612
G1 X98.529 Y91.892 E1.49112
G1 X99.576 Y91.826 E1.5644
G1 X100.443 Y91.781 E1.62504
G1 X101.407 Y91.774 E1.69237
G1 X102.104 Y91.834 E1.74123
G1 X102.675 Y91.919 E1.78155
G1 X103.013 Y91.985 E1.80561
G1 X103.611 Y92.132 E1.84862
G1 X104.277 Y92.349 E1.89754
G1 X104.494 Y92.432 E1.91377
G1 X105.008 Y92.655 E1.95291
G1 X105.415 Y92.853 E1.98452
G1 X106.063 Y93.216 E2.0364
G1 X106.576 Y93.557 E2.07942
G1 X107.022 Y93.892 E2.11838
G1 X107.182 Y94.022 E2.13278
G1 X107.584 Y94.378 E2.17029
G1 X107.904 Y94.686 E2.20131
G1 X108.296 Y95.099 E2.24108
G1 X108.726 Y95.611 E2.28778
G1 X109.167 Y96.205 E2.33945
G1 X109.583 Y96.838 E2.39236
G1 X109.839 Y97.292 E2.42876
G1 X110.128 Y97.856 E2.47303
G1 X110.371 Y98.383 E2.51356
G1 X110.668 Y99.145 E2.57068
G1 X110.882 Y99.792 E2.61828
G1 X111.021 Y100.276 E2.65345
G1 X111.166 Y100.91 E2.69888
G1 X111.304 Y101.653 E2.75166
G1 X111.389 Y102.238 E2.79295
G1 X111.453 Y102.933 E2.8417
G1 X111.483 Y103.668 E2.89308
G1 X111.47 Y104.479 E2.94973
G1 X111.44 Y104.951 E2.98277
G1 X111.388 Y105.454 E3.01809
G1 X111.255 Y106.303 E3.07811
G1 X111.154 Y106.796 E3.11326
G1 X110.977 Y107.489 E3.16322
G1 X110.698 Y108.317 E3.22424
G1 X110.536 Y108.732 E3.25536
G1 X110.313 Y109.21 E3.2922
G1 X110.013 Y109.79 E3.33781
G1 X109.643 Y110.414 E3.38848
G1 X109.347 Y110.844 E3.42494
G1 X108.816 Y111.509 E3.48438
G1 X108.376 Y111.983 E3.52955
G1 X107.872 Y112.457 E3.57788
G1 X107.713 Y112.593 E3.59249
G1 X107.254 Y112.95 E3.63311
G1 X106.993 Y113.135 E3.65545
G1 X106.507 Y113.448 E3.69583
G1 X105.66 Y113.897 E3.76279
G1 X105.032 Y114.173 E3.8107
G1 X104.942 Y114.207 E3.81742
G1 X104.425 Y114.378 E3.85545
G1 X103.818 Y114.55 E3.89952
G1 X103.328 Y114.668 E3.93472
G1 X102.681 Y114.783 E3.98062
G1 X100.305 Y115.163 E4.14868
G1 X97.675 Y115.66 E4.33563
G1 X96.231 Y115.974 E4.43885
G1 X95.482 Y116.125 E4.49221
G1 X94.771 Y116.24 E4.54252
G1 X94.058 Y116.308 E4.59255
G1 X93.307 Y116.293 E4.64501
G1 X92.672 Y116.236 E4.68954
G1 X92.502 Y116.217 E4.70149
G1 X91.819 Y116.132 E4.74956
G1 X91.107 Y116.002 E4.80012
G1 X90.817 Y115.932 E4.82095
G1 X88.215 Y115.342 E5.00731
G1 X85.588 Y114.823 E5.19434
G1 X83.358 Y114.443 E5.35234
G1 X82.644 Y114.325 E5.40289
G1 X82.604 Y114.317 E5.40574
G1 X81.97 Y114.156 E5.45143
G1 X81.614 Y114.046 E5.47745
G1 X80.943 Y113.797 E5.52744
G1 X80.492 Y113.579 E5.56243
G1 X80.205 Y113.426 E5.58514
G1 X79.712 Y113.133 E5.6252
G1 X79.388 Y112.921 E5.65225
G1 X78.691 Y112.394 E5.71328
G1 X78.437 Y112.173 E5.73679
G1 X77.973 Y111.726 E5.78179
G1 X77.571 Y111.28 E5.82373
G1 X77.055 Y110.632 E5.88159
G1 X76.631 Y110.027 E5.93319
G1 X76.334 Y109.555 E5.97214
G1 X76.07 Y109.098 E6.00901
G1 X75.697 Y108.382 E6.06539
G1 X75.423 Y107.797 E6.11051
G1 X75.229 Y107.336 E6.14545
G1 X75.034 Y106.832 E6.18319
G1 X74.773 Y106.063 E6.23991
G1 X74.609 Y105.489 E6.28161
G1 X74.482 Y104.984 E6.31798
G1 X74.377 Y104.48 E6.35394
G1 X74.304 Y104.044 E6.38482
G1 X74.233 Y103.455 E6.42625
G1 X74.188 Y102.841 E6.46925
G1 X74.175 Y102.136 E6.5185
G1 X74.216 Y101.4 E6.56999
G1 X74.243 Y101.135 E6.5886
G1 X74.316 Y100.626 E6.62451
G1 X74.443 Y100.008 E6.66858
G1 X74.627 Y99.337 E6.71718
G1 X74.683 Y99.165 E6.72981
G1 X74.909 Y98.573 E6.77407
G1 X75.243 Y97.856 E6.82932
G1 X75.387 Y97.585 E6.85075
G1 X75.642 Y97.149 E6.88603
G1 X76.039 Y96.557 E6.93582
G1 X76.183 Y96.364 E6.95264
G1 X76.519 Y95.951 E6.98982
G1 X76.997 Y95.432 E7.0391
G1 X77.382 Y95.06 E7.0765
G1 X77.832 Y94.674 E7.11791
M204 S3000
M205 X10 Y10
G0 F3000 X78.178 Y95.115
M204 S1800
M205 X8 Y8
G1 F2400 X78.821 Y94.634 E7.17399
G1 X79.22 Y94.37 E7.20741
G1 X79.68 Y94.095 E7.24484
G1 X80.248 Y93.79 E7.28987
G1 X80.719 Y93.56 E7.32648
G1 X81.575 Y93.211 E7.39105
G1 X82.134 Y93.018 E7.43236
G1 X82.424 Y92.931 E7.4535
G1 X83.135 Y92.738 E7.50496
G1 X83.726 Y92.602 E7.54732
G1 X84.226 Y92.511 E7.58282
G1 X84.86 Y92.421 E7.62754
G1 X85.483 Y92.366 E7.67123
G1 X86.174 Y92.333 E7.71955
G1 X86.52 Y92.326 E7.74372
G1 X87.17 Y92.342 E7.78913
G1 X87.854 Y92.385 E7.837
G1 X90.56 Y92.516 E8.02623
G1 X93.233 Y92.57 E8.21296
G1 X95.907 Y92.549 E8.39974
G1 X98.551 Y92.452 E8.58454
G1 X99.605 Y92.385 E8.6583
G1 X100.472 Y92.34 E8.71894
G1 X101.378 Y92.333 E8.78222
G1 X102.046 Y92.391 E8.82906
G1 X102.567 Y92.468 E8.86584
G1 X102.905 Y92.534 E8.88989
G1 X103.452 Y92.669 E8.92925
G1 X104.077 Y92.872 E8.97515
G1 X104.294 Y92.955 E8.99137
G1 X104.763 Y93.158 E9.02707
G1 X105.17 Y93.356 E9.05868
G1 X105.761 Y93.688 E9.10603
G1 X106.248 Y94.01 E9.14681
G1 X106.669 Y94.326 E9.18357
G1 X107.196 Y94.781 E9.2322
G1 X107.516 Y95.089 E9.26322
G1 X107.874 Y95.466 E9.29954
G1 X108.282 Y95.952 E9.34386
G1 X108.702 Y96.517 E9.39303
G1 X109.103 Y97.126 E9.44396
G1 X109.34 Y97.548 E9.47777
G1 X109.629 Y98.112 E9.52203
G1 X109.859 Y98.608 E9.56022
G1 X110.137 Y99.321 E9.61367
G1 X110.351 Y99.968 E9.66127
G1 X110.546 Y100.687 E9.7133
G1 X110.616 Y101.013 E9.73659
G1 X110.754 Y101.756 E9.78937
G1 X110.832 Y102.295 E9.82741
G1 X110.894 Y102.963 E9.87427
G1 X110.923 Y103.668 E9.92355
G1 X110.911 Y104.443 E9.97769
G1 X110.834 Y105.374 E10.04294
G1 X110.706 Y106.191 E10.1007
G1 X110.605 Y106.684 E10.13585
G1 X110.437 Y107.338 E10.18301
G1 X110.171 Y108.13 E10.24137
G1 X109.815 Y108.953 E10.304
G1 X109.515 Y109.533 E10.34961
G1 X109.178 Y110.103 E10.39586
G1 X108.893 Y110.516 E10.43091
G1 X108.398 Y111.137 E10.48637
G1 X107.983 Y111.584 E10.52898
G1 X107.508 Y112.031 E10.57453
G1 X107.349 Y112.167 E10.58915
G1 X106.93 Y112.494 E10.62627
G1 X106.669 Y112.679 E10.64862
G1 X106.226 Y112.964 E10.68541
G1 X105.407 Y113.397 E10.75011
G1 X104.834 Y113.649 E10.79384
G1 X104.272 Y113.839 E10.83527
G1 X103.665 Y114.011 E10.87934
G1 X103.083 Y114.146 E10.92107
G1 X102.59 Y114.231 E10.95601
G1 X100.182 Y114.615 E11.12633
G1 X97.596 Y115.104 E11.31015
G1 X96.12 Y115.425 E11.41565
G1 X95.371 Y115.576 E11.46902
G1 X94.686 Y115.687 E11.51749
G1 X94.006 Y115.75 E11.56519
G1 X93.351 Y115.735 E11.61095
G1 X92.726 Y115.679 E11.65478
G1 X91.888 Y115.576 E11.71375
G1 X91.238 Y115.458 E11.75989
G1 X90.915 Y115.38 E11.7831
G1 X88.31 Y114.789 E11.96967
G1 X85.71 Y114.276 E12.15477
G1 X83.452 Y113.891 E12.31476
G1 X82.754 Y113.776 E12.36417
G1 X82.714 Y113.768 E12.36702
G1 X82.135 Y113.621 E12.40875
G1 X81.779 Y113.511 E12.43477
G1 X81.139 Y113.271 E12.48251
G1 X80.469 Y112.931 E12.53499
G1 X80.018 Y112.665 E12.57156
G1 X79.694 Y112.453 E12.59861
G1 X79.059 Y111.972 E12.65425
G1 X78.805 Y111.751 E12.67776
G1 X78.381 Y111.343 E12.71886
G1 X78.002 Y110.923 E12.75838
G1 X77.512 Y110.307 E12.81335
G1 X77.1 Y109.721 E12.86339
G1 X76.819 Y109.275 E12.9002
G1 X76.555 Y108.818 E12.93707
G1 X76.197 Y108.13 E12.99124
G1 X75.937 Y107.575 E13.03405
G1 X75.751 Y107.134 E13.06748
G1 X75.556 Y106.63 E13.10522
G1 X75.306 Y105.889 E13.15984
G1 X75.152 Y105.352 E13.19886
G1 X75.025 Y104.847 E13.23523
G1 X74.856 Y103.951 E13.29892
G1 X74.792 Y103.414 E13.33669
G1 X74.747 Y102.8 E13.37969
G1 X74.735 Y102.157 E13.42461
G1 X74.773 Y101.457 E13.47358
G1 X74.866 Y100.727 E13.52498
G1 X74.986 Y100.145 E13.56648
G1 X75.16 Y99.51 E13.61247
G1 X75.216 Y99.338 E13.6251
G1 X75.422 Y98.798 E13.66547
G1 X75.738 Y98.119 E13.71778
G1 X76.114 Y97.45 E13.77138
G1 X76.488 Y96.892 E13.8183
G1 X76.939 Y96.322 E13.86907
G1 X77.391 Y95.83 E13.91573
G1 X77.758 Y95.476 E13.95135
G1 X78.178 Y95.115 E13.99003
M204 S3000
M205 X10 Y10
G0 F3000 X78.781 Y95.353
M204 S1800
M205 X8 Y8
G1 F2400 X79.529 Y94.837 E14.0535
G1 X79.945 Y94.588 E14.08737
G1 X80.513 Y94.283 E14.1324
G1 X81.138 Y93.988 E14.18067
G1 X81.779 Y93.732 E14.22888
G1 X82.308 Y93.55 E14.26795
G1 X82.571 Y93.471 E14.28713
G1 X83.282 Y93.278 E14.33859
G1 X83.829 Y93.153 E14.37778
G1 X84.477 Y93.038 E14.42375
G1 X85.196 Y92.948 E14.47436
G1 X85.51 Y92.925 E14.49635
G1 X86.201 Y92.892 E14.54467
G1 X86.863 Y92.89 E14.59091
G1 X87.135 Y92.901 E14.60992
G1 X87.802 Y92.943 E14.6566
G1 X90.557 Y93.077 E14.84926
G1 X93.226 Y93.13 E15.03571
G1 X95.933 Y93.108 E15.22479
G1 X98.57 Y93.012 E15.4091
G1 X99.634 Y92.944 E15.48357
G1 X100.501 Y92.899 E15.54421
G1 X100.946 Y92.886 E15.5753
G1 X101.688 Y92.917 E15.62717
G1 X102.46 Y93.018 E15.68155
G1 X102.798 Y93.084 E15.70561
G1 X103.292 Y93.205 E15.74113
G1 X103.877 Y93.395 E15.78409
G1 X104.518 Y93.662 E15.83259
G1 X104.925 Y93.86 E15.8642
G1 X105.459 Y94.16 E15.90699
G1 X105.919 Y94.464 E15.9455
G1 X106.476 Y94.891 E15.99452
G1 X107.128 Y95.493 E16.0565
G1 X107.637 Y96.047 E16.10905
G1 X108.044 Y96.561 E16.15484
G1 X108.475 Y97.182 E16.20764
G1 X108.842 Y97.803 E16.25802
G1 X109.131 Y98.367 E16.30229
G1 X109.346 Y98.833 E16.33813
G1 X109.605 Y99.497 E16.38791
G1 X109.819 Y100.144 E16.43551
G1 X110.002 Y100.82 E16.48443
G1 X110.065 Y101.115 E16.5055
G1 X110.203 Y101.858 E16.55828
G1 X110.275 Y102.353 E16.59322
G1 X110.335 Y102.992 E16.63804
G1 X110.363 Y103.668 E16.6853
G1 X110.352 Y104.408 E16.73699
G1 X110.279 Y105.295 E16.79916
G1 X110.158 Y106.079 E16.85456
G1 X110.057 Y106.572 E16.88971
G1 X109.898 Y107.187 E16.93408
G1 X109.643 Y107.942 E16.98974
G1 X109.318 Y108.696 E17.04709
G1 X109.018 Y109.276 E17.0927
G1 X108.713 Y109.791 E17.1345
G1 X108.311 Y110.359 E17.18311
G1 X107.979 Y110.765 E17.21974
G1 X107.59 Y111.184 E17.25967
G1 X107.144 Y111.605 E17.30251
G1 X106.606 Y112.037 E17.3507
G1 X105.944 Y112.479 E17.4063
G1 X105.154 Y112.897 E17.46873
G1 X104.636 Y113.125 E17.50826
G1 X104.119 Y113.3 E17.54638
G1 X103.512 Y113.472 E17.59045
G1 X102.973 Y113.596 E17.62908
G1 X102.469 Y113.683 E17.6648
G1 X100.094 Y114.062 E17.83278
G1 X97.483 Y114.556 E18.01839
G1 X96.009 Y114.876 E18.12374
G1 X95.26 Y115.027 E18.17711
G1 X94.602 Y115.133 E18.22366
G1 X93.955 Y115.191 E18.26903
G1 X93.395 Y115.177 E18.30816
G1 X92.78 Y115.121 E18.35129
G1 X92.64 Y115.106 E18.36112
G1 X91.957 Y115.021 E18.4092
G1 X91.37 Y114.913 E18.45088
G1 X91.108 Y114.85 E18.46971
G1 X88.44 Y114.244 E18.6608
G1 X85.796 Y113.722 E18.84904
G1 X83.546 Y113.339 E19.00846
G1 X82.864 Y113.226 E19.05674
G1 X82.824 Y113.218 E19.05959
G1 X82.3 Y113.086 E19.09733
G1 X81.944 Y112.976 E19.12336
G1 X81.337 Y112.746 E19.1687
G1 X80.732 Y112.437 E19.21615
G1 X80.001 Y111.984 E19.27621
G1 X79.426 Y111.549 E19.32657
G1 X79.172 Y111.328 E19.35009
G1 X78.789 Y110.96 E19.38719
G1 X78.433 Y110.566 E19.42428
G1 X77.968 Y109.982 E19.47642
G1 X77.568 Y109.414 E19.52494
G1 X77.304 Y108.995 E19.55953
G1 X77.04 Y108.538 E19.59639
G1 X76.697 Y107.877 E19.64841
G1 X76.451 Y107.353 E19.68884
G1 X76.274 Y106.932 E19.72074
G1 X76.079 Y106.428 E19.75848
G1 X75.838 Y105.715 E19.81105
G1 X75.695 Y105.216 E19.84731
G1 X75.568 Y104.711 E19.88368
G1 X75.408 Y103.859 E19.94423
G1 X75.35 Y103.373 E19.97841
G1 X75.305 Y102.759 E20.02141
G1 X75.295 Y102.178 E20.062
G1 X75.33 Y101.514 E20.10844
G1 X75.417 Y100.829 E20.15667
G1 X75.529 Y100.282 E20.19567
G1 X75.692 Y99.683 E20.23903
G1 X75.748 Y99.511 E20.25166
G1 X75.934 Y99.023 E20.28814
G1 X76.232 Y98.381 E20.33758
G1 X76.586 Y97.75 E20.38811
G1 X76.937 Y97.227 E20.43211
G1 X77.358 Y96.693 E20.4796
G1 X77.785 Y96.228 E20.5237
G1 X78.247 Y95.788 E20.56826
G1 X78.781 Y95.353 E20.61637
M204 S3000
M205 X10 Y10
G1 F2400 E14.61637
G0 F3000 X80.1 Y103.87
G0 X80.661 Y105.477
G0 X81.3 Y106.709
G0 X82.203 Y107.862
G0 X83.396 Y108.61
G0 X84.764 Y108.764
G0 X90.877 Y106.973
M204 S1800
M205 X8 Y8
;TYPE:SUPPORT
G1 F2400 E20.61637
G1 F1800 X91.221 Y106.871 E20.64143
G1 X91.782 Y106.746 E20.68157
G1 X92.318 Y106.668 E20.7194
G1 X92.825 Y106.642 E20.75486
G1 X93.735 Y106.736 E20.81876
G1 X94.479 Y106.965 E20.87313
G1 X95.063 Y107.238 E20.91816
G1 X95.558 Y107.522 E20.95802
G1 X96.142 Y107.886 E21.00608
G1 X95.12 Y109.178 E21.12114
G1 X94.32 Y109.554 E21.18289
G1 X93.804 Y109.641 E21.21943
G1 X92.746 Y109.525 E21.29377
G1 X92.151 Y108.869 E21.35563
G1 X90.877 Y106.973 E21.51518
M204 S3000
M205 X10 Y10
G1 F2400 E15.51518
;MESH:greenarmy2.stl
G0 F3000 X92.826 Y104.798
G0 X97.643 Y102.465
M204 S1800
M205 X8 Y8
;TYPE:WALL-INNER
G1 F2400 E21.51518
G1 F1800 X98.133 Y101.793 E21.57327
G1 X98.499 Y101.21 E21.62135
G1 X98.845 Y100.741 E21.66206
G1 X99.465 Y100.141 E21.72232
G1 X99.827 Y99.903 E21.75258
G1 X100.177 Y99.73 E21.77985
G1 X100.55 Y99.614 E21.80713
G1 X101.051 Y99.56 E21.84233
G1 X101.632 Y99.679 E21.88375
G1 X101.853 Y99.78 E21.90072
G1 X102.219 Y100.033 E21.9318
G1 X102.658 Y100.493 E21.97621
G1 X102.873 Y100.801 E22.00245
G1 X103.168 Y101.351 E22.04604
G1 X103.472 Y102.209 E22.10962
G1 X103.57 Y102.629 E22.13974
G1 X103.665 Y103.304 E22.18735
G1 X103.691 Y103.923 E22.23063
G1 X103.611 Y104.808 E22.29269
G1 X103.447 Y105.46 E22.33965
G1 X103.268 Y105.89 E22.37218
G1 X103.072 Y106.221 E22.39905
G1 X102.85 Y106.489 E22.42336
G1 X102.618 Y106.686 E22.44462
G1 X102.283 Y106.875 E22.47148
G1 X101.835 Y107.02 E22.50437
G1 X101.355 Y107.073 E22.5381
G1 X100.756 Y107.062 E22.57995
G1 X99.863 Y106.915 E22.64316
G1 X99.265 Y106.755 E22.6864
G1 X98.772 Y106.582 E22.72289
G1 X98.227 Y106.338 E22.7646
G1 X97.817 Y106.12 E22.79703
G1 X97.308 Y105.808 E22.83873
G1 X96.792 Y105.485 E22.88125
G1 X96.146 Y105.116 E22.93321
G1 X95.408 Y104.77 E22.99014
G1 X94.824 Y104.559 E23.03351
G1 X94.198 Y104.398 E23.07866
G1 X93.535 Y104.294 E23.12553
G1 X92.826 Y104.257 E23.17512
G1 X92.093 Y104.295 E23.22639
G1 X91.356 Y104.402 E23.2784
G1 X90.618 Y104.568 E23.33124
G1 X89.881 Y104.787 E23.38494
G1 X89.16 Y105.041 E23.43833
G1 X88.784 Y105.19 E23.46658
G1 X88.135 Y105.452 E23.51547
G1 X87.86 Y105.566 E23.53626
G1 X86.824 Y106.005 E23.61485
G1 X86.56 Y106.114 E23.6348
G1 X86.02 Y106.327 E23.67534
G1 X85.149 Y106.607 E23.73924
G1 X84.565 Y106.705 E23.78061
G1 X84.302 Y106.702 E23.79898
G1 X84.064 Y106.646 E23.81605
G1 X83.835 Y106.529 E23.83402
G1 X83.611 Y106.347 E23.85417
G1 X83.358 Y106.059 E23.88095
G1 X83.046 Y105.604 E23.91948
G1 X82.757 Y105.081 E23.96122
G1 X82.558 Y104.659 E23.99381
G1 X82.228 Y103.798 E24.05821
G1 X82.02 Y102.962 E24.11838
G1 X81.964 Y102.4 E24.15783
G1 X81.987 Y102.009 E24.18519
G1 X82.077 Y101.633 E24.21219
G1 X82.219 Y101.324 E24.23594
G1 X82.387 Y101.081 E24.25658
G1 X82.705 Y100.762 E24.28804
G1 X83.238 Y100.385 E24.33364
G1 X83.648 Y100.171 E24.36594
G1 X84.143 Y99.971 E24.40323
G1 X85.016 Y99.722 E24.46664
G1 X85.473 Y99.637 E24.4991
G1 X86.081 Y99.57 E24.54183
G1 X86.657 Y99.561 E24.58206
G1 X87.239 Y99.614 E24.62288
G1 X87.678 Y99.708 E24.65424
G1 X88.465 Y100.041 E24.71393
G1 X88.976 Y100.366 E24.75623
G1 X89.121 Y100.469 E24.76865
G1 X90.083 Y101.18 E24.8522
G1 X90.525 Y101.488 E24.88983
G1 X91.133 Y101.878 E24.94028
G1 X91.795 Y102.252 E24.99339
G1 X92.49 Y102.589 E25.04734
G1 X93.257 Y102.898 E25.10509
G1 X93.972 Y103.128 E25.15755
G1 X94.682 Y103.285 E25.20834
G1 X95.432 Y103.356 E25.26096
