;FLAVOR:Marlin
;TIME:854
;Filament used: 1.55238m
;Layer height: 0.3
;MINX:86.834
;MINY:91.564
;MINZ:0.3
;MAXX:123.233
;MAXY:118.414
;MAXZ:15
;Generated with Cura_SteamEngine 5.3.1
M140 S60
M105
M190 S60
M104 S200
M105
M109 S200
M82 ;absolute extrusion mode
G21 ;metric values
G90 ;absolute positioning
M82 ;set extruder to absolute mode
M107 ;start with the fan off
G28 X0 Y0 ;move X/Y to min endstops
G28 Z0 ;move Z to min endstops
G1 Z15.0 F100 ;move the platform down 15mm
G92 E0 ;zero the extruded length
G1 F200 E3 ;extrude 3mm of feed stock
G92 E0 ;zero the extruded length again
G1 F100
G0 Y20 F100
M117 Printing...
G5
G92 E0
G92 E0
G1 F2400 E-6
;LAYER_COUNT:50
;LAYER:0
M107
M204 S3000
M205 X10 Y10
G1 F600 Z0.375
G0 F3000 X89.532 Y94.558 Z0.375
M204 S1800
M205 X8 Y8
;TYPE:SKIRT
G1 F600 Z0.3
G1 F2400 E0
G1 X91.465 Y93.012 E0.17288
G1 X92.33 Y92.52 E0.24239
G1 X93.441 Y92.246 E0.32231
G1 X94.224 Y92.236 E0.37701
G1 X94.457 Y92.262 E0.39338
G1 X95.021 Y92.082 E0.43473
G1 X97.366 Y91.604 E0.60189
G1 X98.353 Y91.564 E0.67089
G1 X99.293 Y91.792 E0.73845
G1 X99.562 Y91.898 E0.75864
G1 X100.627 Y91.816 E0.83325
G1 X101.657 Y91.947 E0.90577
G1 X102.719 Y92.384 E0.98598
G1 X103.641 Y93.047 E1.0653
G1 X104.312 Y93.975 E1.14529
G1 X104.752 Y94.993 E1.22275
G1 X104.848 Y96.073 E1.29848
G1 X105.171 Y96.072 E1.32104
G1 X105.188 Y95.398 E1.36813
G1 X105.547 Y94.195 E1.45582
G1 X106.185 Y93.283 E1.53356
G1 X106.871 Y92.641 E1.59918
G1 X107.129 Y92.46 E1.62119
G1 X108.253 Y91.95 E1.7074
G1 X109.31 Y91.811 E1.78187
G1 X110.485 Y91.893 E1.86414
G1 X110.776 Y91.77 E1.8862
G1 X111.491 Y91.577 E1.93793
G1 X112.25 Y91.579 E1.99094
G1 X113.784 Y91.83 E2.09951
G1 X115.198 Y92.146 E2.20071
G1 X116.356 Y92.53 E2.28592
G1 X116.719 Y92.52 E2.31129
G1 X117.376 Y92.592 E2.35745
G1 X118.383 Y92.93 E2.43164
G1 X119.031 Y93.364 E2.48612
G1 X120.559 Y94.705 E2.62811
G1 X121.362 Y95.738 E2.7195
G1 X122.024 Y96.85 E2.80989
G1 X122.557 Y98.027 E2.90014
G1 X122.817 Y98.992 E2.96994
G1 X122.805 Y100.079 E3.04587
G1 X122.662 Y100.649 E3.08692
G1 X122.725 Y101.032 E3.11403
G1 X122.841 Y102.361 E3.2072
G1 X122.876 Y103.344 E3.27591
G1 X122.888 Y104.314 E3.34366
G1 X122.886 Y105.979 E3.45996
G1 X122.872 Y106.903 E3.5245
G1 X122.85 Y107.446 E3.56246
G1 X123.134 Y108.152 E3.61561
G1 X123.233 Y109.403 E3.70326
G1 X123.051 Y110.327 E3.76904
G1 X122.404 Y112.309 E3.91467
G1 X122.058 Y113.086 E3.97407
G1 X121.279 Y114.413 E4.08155
G1 X120.591 Y115.227 E4.15599
G1 X119.618 Y116.13 E4.24871
G1 X118.769 Y116.76 E4.32255
G1 X118.001 Y117.161 E4.38307
G1 X117.012 Y117.451 E4.45505
G1 X116.36 Y117.456 E4.50059
G1 X115.983 Y117.606 E4.52893
G1 X115.048 Y117.887 E4.59713
G1 X113.985 Y118.131 E4.6733
G1 X112.685 Y118.373 E4.76566
G1 X111.699 Y118.398 E4.83455
G1 X110.752 Y118.155 E4.90284
G1 X110.598 Y118.099 E4.91429
G1 X109.43 Y118.18 E4.99606
G1 X108.341 Y118.065 E5.07255
G1 X107.362 Y117.661 E5.14652
G1 X106.715 Y117.269 E5.19936
G1 X105.852 Y116.366 E5.2866
G1 X105.343 Y115.332 E5.3671
G1 X105.152 Y114.402 E5.43341
G1 X105.148 Y113.927 E5.46659
G1 X104.879 Y113.929 E5.48538
G1 X104.731 Y115.111 E5.56858
G1 X104.244 Y116.171 E5.65006
G1 X103.769 Y116.783 E5.70417
G1 X102.992 Y117.503 E5.77816
G1 X101.734 Y118.066 E5.87442
G1 X100.701 Y118.191 E5.9471
G1 X99.511 Y118.104 E6.03044
G1 X98.548 Y118.4 E6.10081
G1 X97.355 Y118.414 E6.18414
G1 X95.135 Y117.937 E6.34274
G1 X93.826 Y117.539 E6.4383
G1 X92.96 Y117.176 E6.50388
G1 X92.411 Y117.127 E6.54238
G1 X91.447 Y116.871 E6.61205
G1 X90.486 Y116.274 E6.69107
G1 X89.342 Y115.187 E6.80129
G1 X88.373 Y113.905 E6.91353
G1 X87.78 Y112.733 E7.00528
G1 X87.037 Y110.806 E7.14953
G1 X86.834 Y109.82 E7.21984
G1 X86.837 Y109.367 E7.25148
G1 X86.962 Y108.471 E7.31467
G1 X87.172 Y107.882 E7.35835
G1 X87.13 Y106.747 E7.43768
G1 X87.119 Y106.009 E7.48923
G1 X87.118 Y103.916 E7.63542
G1 X87.138 Y103.049 E7.69599
G1 X87.18 Y102.134 E7.75997
G1 X87.253 Y101.255 E7.82157
G1 X87.205 Y101.099 E7.83297
G1 X87.017 Y100.186 E7.89808
G1 X87.149 Y98.896 E7.98865
G1 X87.881 Y97.044 E8.12775
G1 X88.407 Y96.044 E8.20666
G1 X89.532 Y94.558 E8.33685
M204 S3000
M205 X10 Y10
G0 F3000 X89.935 Y94.952
M204 S1800
M205 X8 Y8
G1 F2400 X91.778 Y93.478 E8.50168
G1 X92.54 Y93.045 E8.56289
G1 X93.513 Y92.805 E8.63289
G1 X94.231 Y92.796 E8.68304
G1 X94.506 Y92.834 E8.70244
G1 X95.191 Y92.616 E8.75264
G1 X97.431 Y92.162 E8.91228
G1 X98.3 Y92.127 E8.97303
G1 X99.161 Y92.336 E9.03491
G1 X99.469 Y92.467 E9.05829
G1 X100.609 Y92.379 E9.13815
G1 X101.514 Y92.494 E9.20187
G1 X102.444 Y92.877 E9.27212
G1 X103.241 Y93.449 E9.34064
G1 X103.823 Y94.254 E9.41002
G1 X104.202 Y95.131 E9.47675
G1 X104.295 Y96.176 E9.55003
G1 X104.218 Y96.643 E9.58309
G1 X105.063 Y96.63 E9.64212
G1 X105.78 Y96.643 E9.6922
G1 X105.727 Y96.254 E9.71962
G1 X105.746 Y95.487 E9.77321
G1 X106.058 Y94.441 E9.84945
G1 X106.61 Y93.653 E9.91665
G1 X107.254 Y93.05 E9.97827
G1 X107.406 Y92.949 E9.99102
G1 X108.409 Y92.494 E10.06795
G1 X109.324 Y92.374 E10.1324
G1 X110.584 Y92.462 E10.22062
G1 X110.922 Y92.311 E10.24648
G1 X111.566 Y92.137 E10.29308
G1 X112.202 Y92.139 E10.3375
G1 X113.663 Y92.377 E10.44089
G1 X115.022 Y92.678 E10.53811
G1 X116.276 Y93.094 E10.63039
G1 X116.658 Y93.077 E10.6571
G1 X117.256 Y93.143 E10.69912
G1 X118.134 Y93.437 E10.76379
G1 X118.719 Y93.829 E10.81298
G1 X120.148 Y95.089 E10.94605
G1 X120.92 Y96.082 E11.0339
G1 X121.514 Y97.081 E11.11508
G1 X122.028 Y98.215 E11.20204
G1 X122.256 Y99.063 E11.26337
G1 X122.246 Y100.008 E11.32938
G1 X122.091 Y100.625 E11.37382
G1 X122.167 Y101.081 E11.4061
G1 X122.281 Y102.381 E11.49725
G1 X122.316 Y103.351 E11.56505
G1 X122.328 Y104.313 E11.63225
G1 X122.326 Y105.97 E11.74798
G1 X122.312 Y106.88 E11.81155
G1 X122.285 Y107.543 E11.85789
G1 X122.583 Y108.284 E11.91368
G1 X122.669 Y109.369 E11.9897
G1 X122.518 Y110.154 E12.04553
G1 X121.892 Y112.081 E12.18705
G1 X121.546 Y112.858 E12.24646
G1 X120.822 Y114.086 E12.34603
G1 X120.163 Y114.866 E12.41735
G1 X119.284 Y115.68 E12.50103
G1 X118.466 Y116.287 E12.57217
G1 X117.792 Y116.639 E12.62528
G1 X116.854 Y116.914 E12.69356
G1 X116.264 Y116.892 E12.73479
G1 X115.822 Y117.07 E12.76808
G1 X114.922 Y117.341 E12.83373
G1 X113.883 Y117.58 E12.90819
G1 X112.625 Y117.814 E12.99757
G1 X111.76 Y117.836 E13.058
G1 X110.891 Y117.613 E13.12066
G1 X110.686 Y117.531 E13.13609
G1 X109.439 Y117.618 E13.2234
G1 X108.48 Y117.516 E13.29076
G1 X107.614 Y117.159 E13.35618
G1 X107.069 Y116.829 E13.40068
G1 X106.317 Y116.042 E13.47671
G1 X105.878 Y115.149 E13.54621
G1 X105.701 Y114.289 E13.60754
G1 X105.72 Y113.358 E13.67258
G1 X104.937 Y113.37 E13.72728
G1 X104.237 Y113.358 E13.77618
G1 X104.314 Y113.931 E13.81656
G1 X104.186 Y114.956 E13.88871
G1 X103.762 Y115.878 E13.95959
G1 X103.353 Y116.406 E14.00624
G1 X102.68 Y117.029 E14.07029
G1 X101.583 Y117.52 E14.15424
G1 X100.69 Y117.628 E14.21707
G1 X99.419 Y117.535 E14.30608
G1 X99.292 Y117.588 E14.31569
G1 X98.46 Y117.841 E14.37643
G1 X97.414 Y117.853 E14.44949
G1 X95.253 Y117.389 E14.60387
G1 X93.99 Y117.003 E14.69611
G1 X93.091 Y116.623 E14.76429
G1 X92.555 Y116.586 E14.80181
G1 X91.674 Y116.352 E14.86548
G1 X90.829 Y115.827 E14.93496
G1 X89.759 Y114.811 E15.03802
G1 X88.852 Y113.61 E15.14314
G1 X88.28 Y112.48 E15.23161
G1 X87.575 Y110.643 E15.36904
G1 X87.394 Y109.767 E15.43152
G1 X87.392 Y109.444 E15.45408
G1 X87.509 Y108.603 E15.51338
G1 X87.748 Y107.935 E15.56294
G1 X87.725 Y107.662 E15.58207
G1 X87.69 Y106.739 E15.64659
G1 X87.679 Y106.009 E15.69758
G1 X87.678 Y103.928 E15.84293
G1 X87.697 Y103.075 E15.90252
G1 X87.738 Y102.181 E15.96503
G1 X87.821 Y101.185 E16.03484
G1 X87.754 Y100.986 E16.04951
G1 X87.583 Y100.155 E16.10876
G1 X87.698 Y99.03 E16.18775
G1 X88.377 Y97.304 E16.3173
G1 X88.882 Y96.343 E16.39312
G1 X89.935 Y94.952 E16.51498
M204 S3000
M205 X10 Y10
G0 F3000 X90.341 Y95.344
M204 S1800
M205 X8 Y8
G1 F2400 X92.091 Y93.944 E16.67151
G1 X92.749 Y93.57 E16.72438
G1 X93.585 Y93.364 E16.78451
G1 X94.238 Y93.356 E16.83013
G1 X94.545 Y93.41 E16.8519
G1 X95.302 Y93.165 E16.90747
G1 X97.496 Y92.72 E17.06384
G1 X98.246 Y92.69 E17.11626
G1 X99.029 Y92.88 E17.17254
G1 X99.367 Y93.036 E17.19854
G1 X100.591 Y92.942 E17.28428
G1 X101.371 Y93.041 E17.3392
G1 X102.172 Y93.371 E17.39971
G1 X102.84 Y93.85 E17.45712
G1 X103.334 Y94.533 E17.516
G1 X103.652 Y95.269 E17.572
G1 X103.737 Y96.226 E17.6391
G1 X103.517 Y97.214 E17.7098
G1 X105.053 Y97.19 E17.8171
G1 X106.535 Y97.216 E17.92063
G1 X106.351 Y96.667 E17.96107
G1 X106.287 Y96.268 E17.98929
G1 X106.304 Y95.576 E18.03764
G1 X106.569 Y94.687 E18.10244
G1 X107.034 Y94.024 E18.159
G1 X107.637 Y93.459 E18.21671
G1 X108.565 Y93.038 E18.28789
G1 X109.338 Y92.937 E18.34234
G1 X110.691 Y93.031 E18.43707
G1 X111.068 Y92.852 E18.46622
G1 X111.641 Y92.697 E18.50768
G1 X112.154 Y92.699 E18.54351
G1 X113.542 Y92.924 E18.64172
G1 X114.901 Y93.225 E18.73894
G1 X116.204 Y93.661 E18.83491
G1 X116.596 Y93.634 E18.86236
G1 X117.137 Y93.694 E18.90038
G1 X117.885 Y93.944 E18.95546
G1 X118.407 Y94.294 E18.99936
G1 X119.737 Y95.473 E19.1235
G1 X120.44 Y96.37 E19.2031
G1 X121.004 Y97.312 E19.27979
G1 X121.499 Y98.403 E19.36347
G1 X121.695 Y99.134 E19.41633
G1 X121.686 Y100.002 E19.47696
G1 X121.518 Y100.593 E19.51987
G1 X121.609 Y101.13 E19.55791
G1 X121.721 Y102.401 E19.64703
G1 X121.756 Y103.358 E19.71392
G1 X121.768 Y104.312 E19.78056
G1 X121.766 Y105.961 E19.89574
G1 X121.752 Y106.857 E19.95833
G1 X121.72 Y107.64 E20.01306
G1 X122.032 Y108.416 E20.07148
G1 X122.105 Y109.336 E20.13594
G1 X121.968 Y110.048 E20.18658
G1 X121.38 Y111.853 E20.31918
G1 X121.034 Y112.63 E20.37858
G1 X120.366 Y113.758 E20.47015
G1 X119.735 Y114.504 E20.53839
G1 X118.95 Y115.23 E20.61308
G1 X118.165 Y115.812 E20.68133
G1 X117.58 Y116.118 E20.72744
G1 X116.786 Y116.351 E20.78524
G1 X116.165 Y116.328 E20.82865
G1 X115.613 Y116.55 E20.8702
G1 X114.762 Y116.804 E20.93223
G1 X113.781 Y117.029 E21.00253
G1 X112.565 Y117.255 E21.08892
G1 X111.821 Y117.274 E21.1409
G1 X111.03 Y117.071 E21.19794
G1 X110.783 Y116.963 E21.21677
G1 X109.448 Y117.056 E21.31024
G1 X108.62 Y116.968 E21.3684
G1 X107.864 Y116.656 E21.42552
G1 X107.423 Y116.389 E21.46153
G1 X106.782 Y115.718 E21.52634
G1 X106.411 Y114.963 E21.5851
G1 X106.262 Y114.24 E21.63666
G1 X106.278 Y113.469 E21.69052
G1 X106.491 Y112.786 E21.7405
G1 X104.947 Y112.81 E21.84835
G1 X103.489 Y112.784 E21.9502
G1 X103.639 Y113.191 E21.9805
G1 X103.758 Y113.862 E22.0281
G1 X103.641 Y114.801 E22.09419
G1 X103.28 Y115.585 E22.15448
G1 X102.936 Y116.029 E22.19371
G1 X102.368 Y116.555 E22.24778
G1 X101.432 Y116.974 E22.31941
G1 X100.674 Y117.066 E22.37274
G1 X99.315 Y116.966 E22.46792
G1 X99.129 Y117.052 E22.48223
G1 X98.373 Y117.282 E22.53742
G1 X97.472 Y117.292 E22.60036
G1 X95.417 Y116.853 E22.74713
G1 X94.154 Y116.467 E22.83937
G1 X93.217 Y116.069 E22.91048
G1 X92.699 Y116.045 E22.9467
G1 X91.901 Y115.833 E23.00437
G1 X91.172 Y115.38 E23.06432
G1 X90.179 Y114.437 E23.15996
G1 X89.329 Y113.312 E23.25845
G1 X88.78 Y112.227 E23.34338
G1 X88.113 Y110.483 E23.4738
G1 X87.954 Y109.711 E23.52885
G1 X87.947 Y109.521 E23.54213
G1 X88.056 Y108.735 E23.59756
G1 X88.257 Y108.165 E23.63977
G1 X88.319 Y108.045 E23.6492
G1 X88.285 Y107.64 E23.67759
G1 X88.25 Y106.73 E23.7412
G1 X88.239 Y106.009 E23.79156
G1 X88.238 Y103.94 E23.93608
G1 X88.256 Y103.101 E23.99469
G1 X88.296 Y102.227 E24.0558
G1 X88.389 Y101.109 E24.13416
G1 X88.303 Y100.873 E24.1517
G1 X88.149 Y100.124 E24.20511
G1 X88.247 Y99.162 E24.27265
G1 X88.873 Y97.565 E24.39246
G1 X89.357 Y96.644 E24.46513
G1 X90.341 Y95.344 E24.57901
M204 S3000
M205 X10 Y10
G0 F3000 X90.747 Y95.736
M204 S1800
M205 X8 Y8
G1 F2400 X92.404 Y94.41 E24.72724
G1 X92.958 Y94.095 E24.77175
G1 X93.657 Y93.923 E24.82203
G1 X94.245 Y93.916 E24.8631
G1 X94.574 Y93.99 E24.88666
G1 X95.413 Y93.714 E24.94835
G1 X97.561 Y93.278 E25.10144
G1 X98.192 Y93.253 E25.14554
G1 X98.897 Y93.424 E25.19621
G1 X99.251 Y93.606 E25.22401
G1 X100.573 Y93.505 E25.31662
G1 X101.228 Y93.588 E25.36274
G1 X101.9 Y93.865 E25.4135
G1 X102.439 Y94.251 E25.45981
G1 X102.845 Y94.812 E25.50818
G1 X103.102 Y95.408 E25.55351
G1 X103.171 Y96.188 E25.6082
G1 X103 Y96.957 E25.66323
G1 X102.912 Y97.157 E25.67849
G1 X102.56 Y97.661 E25.72143
G1 X102.401 Y97.82 E25.73713
G1 X103.09 Y97.781 E25.78533
G1 X105.043 Y97.75 E25.92176
G1 X107.015 Y97.785 E26.05952
G1 X107.593 Y97.819 E26.09996
G1 X107.238 Y97.414 E26.13758
G1 X107.132 Y97.23 E26.15241
G1 X106.901 Y96.56 E26.20191
G1 X106.847 Y96.282 E26.22169
G1 X106.862 Y95.665 E26.2648
G1 X107.08 Y94.933 E26.31814
G1 X107.458 Y94.395 E26.36407
G1 X107.954 Y93.93 E26.41156
G1 X108.721 Y93.582 E26.47039
G1 X109.351 Y93.5 E26.51476
G1 X110.807 Y93.601 E26.6167
G1 X111.214 Y93.393 E26.64862
G1 X111.716 Y93.257 E26.68495
G1 X112.064 Y93.252 E26.70926
G1 X113.452 Y93.477 E26.80747
G1 X114.723 Y93.756 E26.89836
G1 X116.139 Y94.23 E27.00266
G1 X116.534 Y94.191 E27.03038
G1 X117.019 Y94.245 E27.06447
G1 X117.636 Y94.451 E27.1099
G1 X118.035 Y94.713 E27.14324
G1 X119.326 Y95.858 E27.26377
G1 X119.999 Y96.716 E27.33993
G1 X120.522 Y97.598 E27.41155
G1 X120.97 Y98.594 E27.48783
G1 X121.134 Y99.205 E27.53202
G1 X121.127 Y99.923 E27.58217
G1 X120.944 Y100.564 E27.62873
G1 X121.051 Y101.179 E27.67233
G1 X121.161 Y102.422 E27.75949
G1 X121.196 Y103.365 E27.8254
G1 X121.208 Y104.311 E27.89148
G1 X121.206 Y105.952 E28.0061
G1 X121.192 Y106.834 E28.06771
G1 X121.154 Y107.771 E28.13321
G1 X121.222 Y107.894 E28.14303
G1 X121.481 Y108.547 E28.19209
G1 X121.541 Y109.302 E28.24499
G1 X121.435 Y109.875 E28.28569
G1 X120.868 Y111.625 E28.41418
G1 X120.522 Y112.402 E28.47359
G1 X119.908 Y113.433 E28.5574
G1 X119.353 Y114.094 E28.61769
G1 X118.616 Y114.78 E28.68801
G1 X117.862 Y115.339 E28.75357
G1 X117.37 Y115.596 E28.79234
G1 X116.718 Y115.788 E28.83981
G1 X116.066 Y115.764 E28.88538
G1 X115.453 Y116.013 E28.9316
G1 X114.602 Y116.267 E28.99363
G1 X113.679 Y116.478 E29.05976
G1 X112.505 Y116.696 E29.14316
G1 X111.882 Y116.712 E29.18669
G1 X111.169 Y116.529 E29.2381
G1 X110.893 Y116.394 E29.25956
G1 X109.458 Y116.494 E29.36004
G1 X108.759 Y116.419 E29.40914
G1 X108.077 Y116.138 E29.46066
G1 X107.776 Y115.948 E29.48552
G1 X107.247 Y115.394 E29.53902
G1 X106.944 Y114.777 E29.58703
G1 X106.823 Y114.191 E29.62883
G1 X106.836 Y113.561 E29.67284
G1 X107.029 Y112.943 E29.71806
G1 X107.226 Y112.586 E29.74654
G1 X107.556 Y112.182 E29.78298
G1 X106.91 Y112.219 E29.82817
G1 X104.957 Y112.25 E29.9646
G1 X102.985 Y112.215 E30.10236
G1 X102.401 Y112.18 E30.14322
G1 X102.64 Y112.414 E30.16658
G1 X102.89 Y112.794 E30.19835
G1 X103.088 Y113.289 E30.23559
G1 X103.192 Y113.875 E30.27716
G1 X103.096 Y114.646 E30.33143
G1 X102.771 Y115.351 E30.38565
G1 X102.556 Y115.618 E30.40959
G1 X102.056 Y116.081 E30.45719
G1 X101.281 Y116.428 E30.5165
G1 X100.657 Y116.504 E30.5604
G1 X99.197 Y116.396 E30.66266
G1 X98.966 Y116.516 E30.68084
G1 X98.286 Y116.723 E30.73049
G1 X97.53 Y116.731 E30.78329
G1 X95.534 Y116.305 E30.92585
G1 X94.373 Y115.951 E31.01062
G1 X93.336 Y115.511 E31.08931
G1 X92.843 Y115.504 E31.12374
G1 X92.128 Y115.314 E31.17542
G1 X91.515 Y114.933 E31.22583
G1 X90.599 Y114.063 E31.31407
G1 X89.806 Y113.014 E31.40591
G1 X89.28 Y111.974 E31.48732
G1 X88.652 Y110.325 E31.61056
G1 X88.502 Y109.598 E31.66241
G1 X88.611 Y108.812 E31.71784
G1 X88.781 Y108.364 E31.7513
G1 X88.892 Y108.178 E31.76643
G1 X88.845 Y107.618 E31.80568
G1 X88.81 Y106.721 E31.86838
G1 X88.799 Y106.009 E31.91812
G1 X88.798 Y103.952 E32.06179
G1 X88.815 Y103.127 E32.11943
G1 X88.854 Y102.273 E32.17914
G1 X88.958 Y101.021 E32.26689
G1 X88.852 Y100.76 E32.28656
G1 X88.715 Y100.093 E32.33413
G1 X88.796 Y99.296 E32.39008
G1 X89.369 Y97.826 E32.50028
G1 X89.832 Y96.945 E32.56979
G1 X90.747 Y95.736 E32.67569
M204 S3000
M205 X10 Y10
G0 F3000 X91.153 Y96.128
M204 S1800
M205 X8 Y8
G1 F2400 X92.722 Y94.873 E32.81603
G1 X93.164 Y94.621 E32.85157
G1 X93.791 Y94.467 E32.89666
G1 X94.234 Y94.476 E32.92761
G1 X94.589 Y94.575 E32.95335
G1 X95.524 Y94.263 E33.0222
G1 X97.626 Y93.836 E33.17201
G1 X98.138 Y93.816 E33.2078
G1 X98.765 Y93.968 E33.25286
G1 X99.114 Y94.178 E33.28131
