;FLAVOR:Marlin
;TIME:95
;Filament used: 0.098767m
;Layer height: 0.2
;MINX:92.115
;MINY:78.72
;MINZ:0.2
;MAXX:127.728
;MAXY:113.225
;MAXZ:1.4
;Generated with Cura_SteamEngine 4.11.0
M140 S60
M105
M190 S60
M104 S200
M105
M109 S200
M82 ;absolute extrusion mode
G21 ;metric values
G90 ;absolute positioning
M82 ;set extruder to absolute mode
M107 ;start with the fan off
G28 X0 Y0 ;move X/Y to min endstops
G28 Z0 ;move Z to min endstops
G1 Z15.0 F100 ;move the platform down 15mm
G92 E0 ;zero the extruded length
G1 F200 E3 ;extrude 3mm of feed stock
G92 E0 ;zero the extruded length again
G1 F100
G0 Y20 F100
M117 Printing...
G5
G92 E0
G92 E0
G1 F2400 E-6
;LAYER_COUNT:8
;LAYER:0
M107
M204 S3000
M205 X10 Y10
G1 F600 Z0.275
G0 F3000 X100.352 Y81.603 Z0.275
M204 S1800
M205 X8 Y8
;TYPE:SKIRT
G1 F600 Z0.2
G1 F2400 E0
G1 X100.755 Y81.187 E0.02697
G1 X101.453 Y80.657 E0.06778
G1 X101.948 Y80.356 E0.09476
G1 X102.48 Y80.125 E0.12176
G1 X103.038 Y79.97 E0.14873
G1 X103.612 Y79.894 E0.17569
G1 X104.191 Y79.897 E0.20265
G1 X104.757 Y79.974 E0.22925
G1 X105.32 Y80.112 E0.25624
G1 X105.402 Y80.145 E0.26036
G1 X105.634 Y79.891 E0.27637
G1 X106.044 Y79.548 E0.30127
G1 X106.074 Y79.526 E0.303
G1 X106.564 Y79.217 E0.32997
G1 X107.092 Y78.977 E0.35698
G1 X107.647 Y78.813 E0.38393
G1 X108.22 Y78.727 E0.41091
G1 X108.799 Y78.72 E0.43787
G1 X109.374 Y78.793 E0.46486
G1 X110.056 Y78.989 E0.4979
G1 X110.753 Y79.255 E0.53264
G1 X111.174 Y79.443 E0.55411
G1 X111.651 Y79.688 E0.57908
G1 X112.322 Y80.08 E0.61526
G1 X112.462 Y80.168 E0.62296
G1 X112.952 Y80.489 E0.65024
G1 X113.061 Y80.563 E0.65638
G1 X113.553 Y80.908 E0.68436
G1 X114.132 Y81.32 E0.71745
G1 X114.26 Y81.428 E0.72524
G1 X114.945 Y81.898 E0.76393
G1 X115.394 Y82.19 E0.78887
G1 X115.84 Y82.463 E0.81322
G1 X116.373 Y82.767 E0.84179
G1 X116.911 Y83.059 E0.87029
G1 X119.422 Y84.35 E1.00176
G1 X120.004 Y84.696 E1.03329
G1 X120.598 Y85.071 E1.066
G1 X120.635 Y85.066 E1.06774
G1 X121.214 Y85.075 E1.0947
G1 X121.529 Y85.113 E1.10948
G1 X122.926 Y85.338 E1.17536
G1 X123.49 Y85.47 E1.20234
G1 X124.031 Y85.678 E1.22933
G1 X124.538 Y85.958 E1.25629
G1 X125.002 Y86.305 E1.28327
G1 X125.413 Y86.713 E1.31024
G1 X125.766 Y87.169 E1.33709
G1 X126.071 Y87.662 E1.36409
G1 X126.305 Y88.192 E1.39106
G1 X126.464 Y88.749 E1.41804
G1 X126.544 Y89.323 E1.44502
G1 X126.546 Y89.902 E1.47198
G1 X126.5 Y90.298 E1.49055
G1 X126.271 Y91.697 E1.55656
G1 X126.138 Y92.261 E1.58354
G1 X126.018 Y92.572 E1.59906
G1 X126.176 Y93.106 E1.62499
G1 X126.289 Y93.591 E1.64818
G1 X126.515 Y94.911 E1.71054
G1 X126.553 Y95.121 E1.72048
G1 X126.662 Y95.829 E1.75383
G1 X126.792 Y96.72 E1.79576
G1 X126.836 Y97.277 E1.82178
G1 X127.074 Y98.579 E1.88341
G1 X127.241 Y99.622 E1.93259
G1 X127.343 Y99.961 E1.94908
G1 X127.453 Y100.546 E1.9768
G1 X127.571 Y101.255 E2.01026
G1 X127.688 Y102.228 E2.0559
G1 X127.718 Y102.682 E2.07708
G1 X127.728 Y103.574 E2.11862
G1 X127.698 Y104.144 E2.1452
G1 X127.606 Y104.716 E2.17218
G1 X127.436 Y105.27 E2.19916
G1 X127.191 Y105.795 E2.22614
G1 X126.877 Y106.282 E2.25312
G1 X126.498 Y106.72 E2.28009
G1 X126.063 Y107.103 E2.30708
G1 X125.613 Y107.4 E2.33218
G1 X125.658 Y107.561 E2.33997
G1 X125.745 Y108.411 E2.37975
G1 X125.745 Y108.539 E2.38571
G1 X125.705 Y109.117 E2.41269
G1 X125.586 Y109.684 E2.43967
G1 X125.39 Y110.229 E2.46664
G1 X124.962 Y110.982 E2.50697
G1 X124.631 Y111.445 E2.53347
G1 X124.262 Y111.892 E2.56046
G1 X123.835 Y112.283 E2.58742
G1 X123.359 Y112.613 E2.61439
G1 X122.842 Y112.874 E2.64136
G1 X122.293 Y113.061 E2.66836
G1 X121.725 Y113.171 E2.6953
G1 X121.214 Y113.202 E2.71914
G1 X121.009 Y113.202 E2.72869
G1 X120.431 Y113.162 E2.75567
G1 X119.864 Y113.043 E2.78264
G1 X119.319 Y112.847 E2.80961
G1 X118.806 Y112.578 E2.83658
G1 X118.335 Y112.241 E2.86355
G1 X117.915 Y111.842 E2.89053
G1 X117.602 Y111.458 E2.9136
G1 X116.791 Y110.333 E2.97817
G1 X116.485 Y109.841 E3.00515
G1 X116.251 Y109.311 E3.03213
G1 X116.091 Y108.755 E3.05907
G1 X116.003 Y108.09 E3.0903
G1 X115.997 Y107.972 E3.09581
G1 X116.008 Y107.393 E3.12277
G1 X116.098 Y106.821 E3.14973
G1 X116.266 Y106.266 E3.17674
G1 X116.546 Y105.674 E3.20723
G1 X116.837 Y105.165 E3.23453
G1 X117.158 Y104.684 E3.26146
G1 X117.543 Y104.25 E3.28847
G1 X117.885 Y103.958 E3.30941
G1 X117.826 Y103.734 E3.3202
G1 X117.756 Y103.159 E3.34717
G1 X117.752 Y102.845 E3.36179
G1 X117.784 Y101.499 E3.42449
G1 X117.094 Y99.097 E3.54086
G1 X113.354 Y101.79 E3.75545
G1 X111.082 Y103.429 E3.8859
G1 X111.453 Y103.482 E3.90335
G1 X112.02 Y103.603 E3.93035
G1 X112.565 Y103.801 E3.95735
G1 X113.077 Y104.071 E3.9843
G1 X113.547 Y104.41 E4.01129
G1 X113.966 Y104.81 E4.03826
G1 X114.325 Y105.264 E4.06521
G1 X114.619 Y105.763 E4.09218
G1 X114.842 Y106.298 E4.11917
G1 X114.989 Y106.859 E4.14617
G1 X115.057 Y107.434 E4.17314
G1 X115.034 Y108.247 E4.21101
G1 X114.961 Y108.821 E4.23795
G1 X114.81 Y109.38 E4.26491
G1 X114.583 Y109.913 E4.29189
G1 X114.285 Y110.41 E4.31887
G1 X113.921 Y110.861 E4.34586
G1 X113.499 Y111.258 E4.37284
G1 X113.026 Y111.593 E4.39983
G1 X112.512 Y111.859 E4.42678
G1 X111.966 Y112.053 E4.45376
G1 X111.398 Y112.169 E4.48075
G1 X110.978 Y112.204 E4.50038
G1 X99.001 Y112.595 E5.05837
G1 X98.757 Y112.747 E5.07176
G1 X98.228 Y112.982 E5.09871
G1 X97.671 Y113.141 E5.12569
G1 X97.097 Y113.223 E5.15268
G1 X96.518 Y113.225 E5.17965
G1 X95.944 Y113.147 E5.20662
G1 X95.244 Y112.938 E5.24064
G1 X95.04 Y112.857 E5.25086
G1 X94.518 Y112.606 E5.27783
G1 X94.035 Y112.286 E5.3048
G1 X93.6 Y111.903 E5.33179
G1 X93.223 Y111.463 E5.35877
G1 X92.909 Y110.976 E5.38575
G1 X92.666 Y110.451 E5.41269
G1 X92.464 Y109.738 E5.4472
G1 X92.184 Y108.267 E5.51693
G1 X92.115 Y107.692 E5.54389
G1 X92.126 Y107.113 E5.57086
G1 X92.217 Y106.541 E5.59783
G1 X92.42 Y105.897 E5.62927
G1 X92.464 Y105.789 E5.6347
G1 X92.719 Y105.269 E5.66167
G1 X93.044 Y104.789 E5.68866
G1 X93.431 Y104.358 E5.71563
G1 X93.727 Y104.11 E5.73361
G1 X94.085 Y103.665 E5.76021
G1 X94.507 Y103.267 E5.78722
G1 X94.979 Y102.932 E5.81417
G1 X95.493 Y102.664 E5.84116
G1 X96.116 Y102.444 E5.87193
G1 X96.467 Y102.361 E5.88872
G1 X97.228 Y102.059 E5.92684
G1 X97.41 Y101.928 E5.93729
G1 X97.901 Y101.621 E5.96425
G1 X98.431 Y101.386 E5.99125
G1 X98.987 Y101.225 E6.0182
G1 X99.561 Y101.142 E6.04521
G1 X100.14 Y101.14 E6.07217
G1 X100.714 Y101.216 E6.09913
G1 X101.078 Y101.318 E6.11673
G1 X101.206 Y100.849 E6.13937
G1 X101.373 Y100.454 E6.15934
G1 X101.528 Y99.895 E6.18635
G1 X101.758 Y99.364 E6.21329
G1 X102.059 Y98.869 E6.24027
G1 X102.425 Y98.42 E6.26724
G1 X103.035 Y97.885 E6.30502
G1 X108.647 Y93.846 E6.62698
G1 X111.622 Y91.699 E6.79782
G1 X111.144 Y91.387 E6.8244
G1 X110.875 Y91.199 E6.83968
G1 X108.165 Y89.45 E6.98987
G1 X106.791 Y88.712 E7.06249
G1 X106.3 Y88.403 E7.08951
G1 X106.271 Y88.378 E7.09129
G1 X106.207 Y88.42 E7.09485
G1 X105.683 Y88.667 E7.12183
G1 X105.13 Y88.84 E7.14881
G1 X104.558 Y88.935 E7.17581
G1 X103.979 Y88.95 E7.20278
G1 X103.403 Y88.886 E7.22976
G1 X102.709 Y88.697 E7.26326
G1 X102.148 Y88.491 E7.29108
G1 X101.62 Y88.254 E7.31803
G1 X101.128 Y87.947 E7.34504
G1 X100.684 Y87.575 E7.37201
G1 X100.295 Y87.145 E7.39901
G1 X99.969 Y86.666 E7.42599
G1 X99.712 Y86.147 E7.45296
G1 X99.529 Y85.598 E7.4799
G1 X99.431 Y85.086 E7.50418
G1 X99.4 Y84.846 E7.51544
G1 X99.365 Y84.268 E7.54241
G1 X99.411 Y83.69 E7.56941
G1 X99.535 Y83.124 E7.59639
G1 X99.736 Y82.581 E7.62335
G1 X100.01 Y82.071 E7.65031
G1 X100.352 Y81.603 E7.6773
M204 S3000
M205 X10 Y10
G0 F3000 X100.93 Y81.797
M204 S1800
M205 X8 Y8
G1 F2400 X101.462 Y81.337 E7.71005
G1 X101.777 Y81.114 E7.72802
G1 X102.239 Y80.836 E7.75312
G1 X102.737 Y80.629 E7.77824
G1 X103.26 Y80.498 E7.80334
G1 X103.797 Y80.446 E7.82846
G1 X104.5 Y80.498 E7.86129
G1 X104.662 Y80.526 E7.86894
G1 X105.185 Y80.657 E7.89405
G1 X105.574 Y80.819 E7.91367
G1 X105.851 Y80.469 E7.93445
G1 X106.375 Y80 E7.9672
G1 X106.405 Y79.978 E7.96893
G1 X106.863 Y79.692 E7.99407
G1 X107.357 Y79.477 E8.01916
G1 X107.878 Y79.337 E8.04428
G1 X108.414 Y79.276 E8.0694
G1 X108.953 Y79.294 E8.09451
G1 X109.483 Y79.393 E8.11962
G1 X109.856 Y79.512 E8.13785
G1 X110.553 Y79.778 E8.17259
G1 X110.918 Y79.941 E8.1912
G1 X111.395 Y80.186 E8.21617
G1 X112.034 Y80.56 E8.25065
G1 X112.155 Y80.636 E8.2573
G1 X112.645 Y80.957 E8.28458
G1 X113.207 Y81.349 E8.31648
G1 X113.807 Y81.776 E8.35078
G1 X113.938 Y81.886 E8.35874
G1 X114.607 Y82.346 E8.39655
G1 X115.117 Y82.677 E8.42486
G1 X115.559 Y82.947 E8.44897
G1 X116.1 Y83.256 E8.47799
G1 X116.637 Y83.548 E8.50645
G1 X119.166 Y84.848 E8.63886
G1 X119.707 Y85.171 E8.6682
G1 X120.469 Y85.651 E8.71013
G1 X120.776 Y85.621 E8.72449
G1 X121.44 Y85.666 E8.75548
G1 X122.837 Y85.891 E8.82137
G1 X123.361 Y86.016 E8.84646
G1 X123.862 Y86.217 E8.87159
G1 X124.327 Y86.49 E8.8967
G1 X124.747 Y86.829 E8.92183
G1 X125.214 Y87.361 E8.9548
G1 X125.311 Y87.496 E8.96254
G1 X125.592 Y87.956 E8.98764
G1 X125.803 Y88.453 E9.01278
G1 X125.937 Y88.975 E9.03787
G1 X125.993 Y89.511 E9.06297
G1 X125.947 Y90.208 E9.09549
G1 X125.718 Y91.607 E9.1615
G1 X125.592 Y92.131 E9.1866
G1 X125.426 Y92.543 E9.20728
G1 X125.639 Y93.264 E9.24229
G1 X125.737 Y93.685 E9.26242
G1 X125.967 Y95.025 E9.32572
G1 X125.999 Y95.206 E9.33428
G1 X126.108 Y95.909 E9.36741
G1 X126.238 Y96.8 E9.40934
G1 X126.278 Y97.342 E9.43464
G1 X126.521 Y98.667 E9.49737
G1 X126.691 Y99.729 E9.54745
G1 X126.792 Y100.066 E9.56383
G1 X126.901 Y100.643 E9.59117
G1 X127.015 Y101.321 E9.62319
G1 X127.132 Y102.294 E9.66882
G1 X127.158 Y102.688 E9.68721
G1 X127.168 Y103.58 E9.72875
G1 X127.14 Y104.094 E9.75271
G1 X127.052 Y104.626 E9.77782
G1 X126.885 Y105.139 E9.80295
G1 X126.645 Y105.621 E9.82802
G1 X126.337 Y106.064 E9.85314
G1 X125.966 Y106.455 E9.87824
G1 X125.541 Y106.788 E9.90338
G1 X125.072 Y107.054 E9.92849
G1 X124.934 Y107.107 E9.93537
G1 X124.999 Y107.262 E9.9432
G1 X125.131 Y107.785 E9.96831
G1 X125.185 Y108.411 E9.99757
G1 X125.185 Y108.539 E10.00353
G1 X125.145 Y109.077 E10.02865
G1 X125.026 Y109.603 E10.05376
G1 X124.831 Y110.105 E10.07884
G1 X124.506 Y110.656 E10.10863
G1 X124.175 Y111.119 E10.13513
G1 X123.83 Y111.533 E10.16022
G1 X123.427 Y111.892 E10.18535
G1 X122.976 Y112.187 E10.21045
G1 X122.486 Y112.412 E10.23556
G1 X121.968 Y112.563 E10.26068
G1 X121.214 Y112.642 E10.29598
G1 X121.009 Y112.642 E10.30553
G1 X120.471 Y112.602 E10.33065
G1 X119.945 Y112.483 E10.35576
G1 X119.443 Y112.288 E10.38084
G1 X118.974 Y112.02 E10.40599
G1 X118.551 Y111.687 E10.43106
G1 X118.056 Y111.131 E10.46572
G1 X117.245 Y110.006 E10.5303
G1 X116.963 Y109.546 E10.55542
G1 X116.752 Y109.05 E10.58052
G1 X116.617 Y108.528 E10.60563
G1 X116.557 Y107.944 E10.63296
G1 X116.569 Y107.405 E10.65807
G1 X116.661 Y106.873 E10.68321
G1 X116.831 Y106.361 E10.70833
G1 X117.032 Y105.952 E10.72955
G1 X117.323 Y105.443 E10.75685
G1 X117.625 Y104.996 E10.78197
G1 X117.989 Y104.599 E10.80705
G1 X118.408 Y104.259 E10.83217
G1 X118.538 Y104.183 E10.83919
G1 X118.429 Y103.864 E10.85488
G1 X118.332 Y103.334 E10.87997
G1 X118.312 Y102.858 E10.90216
G1 X118.347 Y101.425 E10.9689
G1 X117.413 Y98.177 E11.12627
G1 X109.442 Y103.921 E11.58377
G1 X110.041 Y103.902 E11.61167
G1 X110.672 Y103.936 E11.6411
G1 X111.375 Y104.036 E11.67416
G1 X111.901 Y104.152 E11.69924
G1 X112.405 Y104.343 E11.72434
G1 X112.875 Y104.608 E11.74946
G1 X113.301 Y104.938 E11.77455
G1 X113.674 Y105.328 E11.79968
G1 X113.984 Y105.769 E11.82478
G1 X114.227 Y106.251 E11.84992
G1 X114.395 Y106.763 E11.87501
G1 X114.486 Y107.295 E11.90014
G1 X114.496 Y107.849 E11.92594
G1 X114.475 Y108.215 E11.94301
G1 X114.404 Y108.749 E11.9681
G1 X114.255 Y109.267 E11.9932
G1 X114.032 Y109.758 E12.01831
G1 X113.738 Y110.21 E12.04341
G1 X113.38 Y110.614 E12.06855
G1 X112.967 Y110.961 E12.09367
G1 X112.507 Y111.242 E12.11877
G1 X112.011 Y111.453 E12.14387
G1 X111.489 Y111.588 E12.16897
G1 X110.96 Y111.644 E12.19374
G1 X98.835 Y112.04 E12.75863
G1 X98.463 Y112.269 E12.77897
G1 X97.966 Y112.48 E12.80412
G1 X97.444 Y112.615 E12.82922
G1 X96.908 Y112.672 E12.85432
G1 X96.369 Y112.649 E12.87944
G1 X95.84 Y112.547 E12.90453
G1 X95.247 Y112.336 E12.93384
G1 X94.762 Y112.1 E12.95895
G1 X94.317 Y111.796 E12.98405
G1 X93.922 Y111.429 E13.00915
G1 X93.585 Y111.007 E13.0343
G1 X93.315 Y110.541 E13.05938
G1 X93.116 Y110.04 E13.08448
G1 X93.014 Y109.634 E13.10397
G1 X92.734 Y108.163 E13.1737
G1 X92.673 Y107.627 E13.19882
G1 X92.691 Y107.088 E13.22393
G1 X92.789 Y106.558 E13.24903
G1 X92.983 Y106.001 E13.27649
G1 X93.223 Y105.518 E13.30161
G1 X93.532 Y105.075 E13.32676
G1 X93.902 Y104.684 E13.35182
G1 X94.168 Y104.468 E13.36778
G1 X94.225 Y104.375 E13.37286
G1 X94.574 Y103.964 E13.39796
G1 X94.979 Y103.608 E13.42307
G1 X95.433 Y103.316 E13.44821
G1 X96.089 Y103.039 E13.48136
G1 X96.626 Y102.9 E13.50719
G1 X97.502 Y102.552 E13.55108
G1 X97.738 Y102.382 E13.56463
G1 X98.197 Y102.099 E13.58974
G1 X98.693 Y101.887 E13.61485
G1 X99.215 Y101.751 E13.63997
G1 X99.751 Y101.693 E13.66508
G1 X100.29 Y101.715 E13.69019
G1 X100.819 Y101.817 E13.71528
G1 X101.328 Y101.995 E13.74039
G1 X101.541 Y102.108 E13.75162
G1 X101.557 Y101.794 E13.76626
G1 X101.662 Y101.265 E13.79137
G1 X101.845 Y100.758 E13.81647
G1 X101.921 Y100.616 E13.82397
G1 X101.983 Y100.312 E13.83842
G1 X102.167 Y99.805 E13.86353
G1 X102.423 Y99.331 E13.88861
G1 X102.747 Y98.899 E13.91376
G1 X103.131 Y98.521 E13.93885
G1 X103.362 Y98.339 E13.95254
G1 X108.979 Y94.297 E14.27477
G1 X112.614 Y91.674 E14.4835
G1 X111.575 Y91.002 E14.54112
G1 X111.189 Y90.735 E14.56297
G1 X108.453 Y88.969 E14.71461
G1 X107.056 Y88.219 E14.78844
G1 X106.601 Y87.929 E14.81356
G1 X106.317 Y87.682 E14.83109
G1 X106.294 Y87.701 E14.83248
G1 X105.835 Y87.984 E14.85759
G1 X105.339 Y88.197 E14.88272
G1 X104.818 Y88.334 E14.90781
G1 X104.282 Y88.392 E14.93291
G1 X103.743 Y88.37 E14.95803
G1 X103.213 Y88.269 E14.98315
G1 X102.902 Y88.171 E14.99834
G1 X102.341 Y87.965 E15.02617
G1 X101.85 Y87.742 E15.05128
G1 X101.398 Y87.449 E15.07636
G1 X100.993 Y87.092 E15.1015
G1 X100.646 Y86.68 E15.12658
G1 X100.363 Y86.221 E15.15169
G1 X100.151 Y85.725 E15.17681
G1 X99.986 Y85.014 E15.21079
G1 X99.955 Y84.774 E15.22206
G1 X99.926 Y84.236 E15.24715
G1 X99.976 Y83.699 E15.27226
G1 X100.106 Y83.175 E15.2974
G1 X100.311 Y82.677 E15.32248
G1 X100.588 Y82.214 E15.3476
G1 X100.93 Y81.797 E15.37271
M204 S3000
M205 X10 Y10
G0 F3000 X101.165 Y82.377
M204 S1800
M205 X8 Y8
G1 F2400 X101.506 Y82.017 E15.3958
G1 X102.1 Y81.571 E15.43039
G1 X102.527 Y81.318 E15.4535
G1 X102.989 Y81.137 E15.47661
G1 X103.473 Y81.032 E15.49967
G1 X103.969 Y81.006 E15.5228
G1 X104.567 Y81.078 E15.55084
G1 X105.047 Y81.202 E15.57393
G1 X105.501 Y81.401 E15.59701
G1 X105.773 Y81.577 E15.61209
G1 X106.121 Y81.014 E15.64291
G1 X106.46 Y80.652 E15.66601
G1 X106.737 Y80.429 E15.68257
G1 X107.159 Y80.169 E15.70565
G1 X107.617 Y79.98 E15.72872
G1 X108.1 Y79.867 E15.75181
G1 X108.595 Y79.833 E15.77492
G1 X109.089 Y79.879 E15.79802
G1 X109.656 Y80.035 E15.8254
G1 X110.353 Y80.301 E15.86014
G1 X110.662 Y80.439 E15.8759
G1 X111.139 Y80.684 E15.90087
G1 X111.746 Y81.04 E15.93364
G1 X112.338 Y81.426 E15.96654
G1 X112.418 Y81.48 E15.97104
G1 X112.904 Y81.82 E15.99866
G1 X113.483 Y82.232 E16.03175
G1 X113.613 Y82.342 E16.03968
G1 X114.322 Y82.829 E16.07973
G1 X114.787 Y83.131 E16.10555
G1 X115.292 Y83.439 E16.13309
G1 X115.815 Y83.738 E16.16114
G1 X116.382 Y84.046 E16.19119
G1 X118.91 Y85.346 E16.32355
G1 X119.41 Y85.646 E16.35071
G1 X120.2 Y86.144 E16.39419
G1 X120.331 Y86.232 E16.40154
G1 X120.909 Y86.18 E16.42856
G1 X121.351 Y86.219 E16.44922
G1 X122.748 Y86.444 E16.51511
G1 X123.229 Y86.562 E16.53817
G1 X123.686 Y86.756 E16.56129
G1 X124.106 Y87.021 E16.58441
G1 X124.477 Y87.349 E16.60747
G1 X124.856 Y87.823 E16.63573
G1 X125.112 Y88.248 E16.65884
G1 X125.297 Y88.708 E16.68192
G1 X125.405 Y89.192 E16.70501
G1 X125.434 Y89.687 E16.7281
G1 X125.395 Y90.118 E16.74825
G1 X125.166 Y91.517 E16.81426
G1 X125.046 Y91.998 E16.83735
G1 X124.827 Y92.492 E16.86251
G1 X125.102 Y93.423 E16.90771
G1 X125.185 Y93.779 E16.92473
G1 X125.418 Y95.138 E16.98894
G1 X125.446 Y95.292 E16.99623
G1 X125.554 Y95.99 E17.02911
G1 X125.684 Y96.881 E17.07104
