;FLAVOR:Marlin
;TIME:3734
;Filament used: 5.8427m
;Layer height: 0.3
;MINX:77.173
;MINY:77.173
;MINZ:0.3
;MAXX:132.827
;MAXY:132.827
;MAXZ:27.9
;Generated with Cura_SteamEngine 4.11.0
M140 S60
M105
M190 S60
M104 S200
M105
M109 S200
M82 ;absolute extrusion mode
G21 ;metric values
G90 ;absolute positioning
M82 ;set extruder to absolute mode
M107 ;start with the fan off
G28 X0 Y0 ;move X/Y to min endstops
G28 Z0 ;move Z to min endstops
G1 Z15.0 F100 ;move the platform down 15mm
G92 E0 ;zero the extruded length
G1 F200 E3 ;extrude 3mm of feed stock
G92 E0 ;zero the extruded length again
G1 F100
G0 Y20 F100
M117 Printing...
G5
G92 E0
G92 E0
G1 F2400 E-6
;LAYER_COUNT:93
;LAYER:0
M107
M204 S3000
M205 X10 Y10
G1 F600 Z0.375
G0 F3000 X79.058 Y79.17 Z0.375
M204 S1800
M205 X8 Y8
;TYPE:SKIRT
G1 F600 Z0.3
G1 F2400 E0
G1 X79.17 Y79.058 E0.01106
G1 X79.703 Y78.581 E0.06102
G1 X80.286 Y78.167 E0.11097
G1 X80.912 Y77.82 E0.16096
G1 X81.572 Y77.545 E0.2109
G1 X82.259 Y77.346 E0.26085
G1 X82.964 Y77.225 E0.31082
G1 X83.479 Y77.187 E0.34688
G1 X84.174 Y77.173 E0.39544
G1 X125.603 Y77.173 E3.2891
G1 X126.396 Y77.184 E3.34449
G1 X127.11 Y77.234 E3.39449
G1 X127.813 Y77.363 E3.44441
G1 X128.498 Y77.57 E3.49439
G1 X129.155 Y77.853 E3.54435
G1 X129.777 Y78.206 E3.59431
G1 X130.355 Y78.627 E3.64425
G1 X130.83 Y79.058 E3.68905
G1 X130.942 Y79.17 E3.70011
G1 X131.419 Y79.703 E3.75007
G1 X131.833 Y80.286 E3.80002
G1 X132.18 Y80.912 E3.85001
G1 X132.455 Y81.572 E3.89995
G1 X132.654 Y82.259 E3.9499
G1 X132.775 Y82.964 E3.99987
G1 X132.818 Y83.599 E4.04432
G1 X132.827 Y84.209 E4.08693
G1 X132.826 Y125.664 E6.98241
G1 X132.816 Y126.393 E7.03333
G1 X132.767 Y127.106 E7.08325
G1 X132.638 Y127.81 E7.13324
G1 X132.431 Y128.495 E7.18322
G1 X132.149 Y129.152 E7.23316
G1 X131.795 Y129.774 E7.28315
G1 X131.375 Y130.352 E7.33305
G1 X130.942 Y130.83 E7.3781
G1 X130.83 Y130.942 E7.38916
G1 X130.297 Y131.419 E7.43912
G1 X129.714 Y131.833 E7.48906
G1 X129.088 Y132.18 E7.53906
G1 X128.428 Y132.455 E7.589
G1 X127.741 Y132.654 E7.63895
G1 X127.036 Y132.775 E7.68891
G1 X126.521 Y132.813 E7.72498
G1 X125.826 Y132.827 E7.77354
G1 X84.306 Y132.826 E10.67355
G1 X83.604 Y132.816 E10.72259
G1 X82.89 Y132.766 E10.77258
G1 X82.187 Y132.637 E10.82251
G1 X81.502 Y132.43 E10.87249
G1 X80.845 Y132.147 E10.92245
G1 X80.223 Y131.794 E10.97241
G1 X79.645 Y131.373 E11.02235
G1 X79.17 Y130.942 E11.06715
G1 X79.058 Y130.83 E11.07821
G1 X78.581 Y130.297 E11.12817
G1 X78.167 Y129.714 E11.17811
G1 X77.82 Y129.088 E11.22811
G1 X77.545 Y128.428 E11.27805
G1 X77.346 Y127.741 E11.328
G1 X77.225 Y127.036 E11.37796
G1 X77.187 Y126.521 E11.41403
G1 X77.173 Y125.776 E11.46608
G1 X77.174 Y84.283 E14.36421
G1 X77.184 Y83.601 E14.41185
G1 X77.234 Y82.888 E14.46177
G1 X77.364 Y82.184 E14.51178
G1 X77.571 Y81.5 E14.56169
G1 X77.854 Y80.843 E14.61166
G1 X78.208 Y80.221 E14.66164
G1 X78.629 Y79.643 E14.71159
G1 X79.058 Y79.17 E14.75619
M204 S3000
M205 X10 Y10
G0 F3000 X79.565 Y79.453
M204 S1800
M205 X8 Y8
G1 F2400 X80.076 Y78.999 E14.80393
G1 X80.636 Y78.608 E14.85164
G1 X81.238 Y78.285 E14.89936
G1 X81.874 Y78.034 E14.94711
G1 X82.534 Y77.86 E14.99479
G1 X83.498 Y77.746 E15.06259
G1 X84.181 Y77.733 E15.1103
G1 X125.603 Y77.733 E18.00347
G1 X126.388 Y77.744 E18.05831
G1 X127.07 Y77.793 E18.10607
G1 X127.741 Y77.922 E18.15379
G1 X128.392 Y78.129 E18.2015
G1 X129.015 Y78.41 E18.24924
G1 X129.6 Y78.762 E18.29693
G1 X130.141 Y79.179 E18.34464
G1 X130.547 Y79.565 E18.38376
G1 X131.001 Y80.076 E18.43151
G1 X131.392 Y80.636 E18.47921
G1 X131.715 Y81.238 E18.52693
G1 X131.966 Y81.874 E18.57469
G1 X132.14 Y82.534 E18.62236
G1 X132.253 Y83.482 E18.68904
G1 X132.266 Y84.132 E18.73445
G1 X132.267 Y125.576 E21.62916
G1 X132.256 Y126.385 E21.68567
G1 X132.207 Y127.067 E21.73343
G1 X132.079 Y127.738 E21.78114
G1 X131.873 Y128.389 E21.82883
G1 X131.592 Y129.012 E21.87657
G1 X131.24 Y129.598 E21.92432
G1 X130.823 Y130.138 E21.97197
G1 X130.435 Y130.547 E22.01135
G1 X129.924 Y131.001 E22.05909
G1 X129.364 Y131.392 E22.10679
G1 X128.762 Y131.715 E22.15451
G1 X128.126 Y131.966 E22.20227
G1 X127.466 Y132.14 E22.24994
G1 X126.502 Y132.254 E22.31774
G1 X125.819 Y132.267 E22.36546
G1 X84.314 Y132.266 E25.26443
G1 X83.612 Y132.256 E25.31346
G1 X82.93 Y132.207 E25.36122
G1 X82.259 Y132.078 E25.40895
G1 X81.608 Y131.871 E25.45666
G1 X80.985 Y131.59 E25.5044
G1 X80.4 Y131.238 E25.55208
G1 X79.859 Y130.821 E25.59979
G1 X79.453 Y130.435 E25.63892
G1 X78.999 Y129.924 E25.68666
G1 X78.608 Y129.364 E25.73437
G1 X78.285 Y128.762 E25.78209
G1 X78.034 Y128.126 E25.82984
G1 X77.86 Y127.466 E25.87752
G1 X77.746 Y126.502 E25.94532
G1 X77.733 Y125.77 E25.99645
G1 X77.734 Y84.291 E28.89361
G1 X77.744 Y83.609 E28.94125
G1 X77.794 Y82.928 E28.98894
G1 X77.923 Y82.257 E29.03666
G1 X78.129 Y81.606 E29.08436
G1 X78.411 Y80.983 E29.13212
G1 X78.763 Y80.398 E29.17981
G1 X79.181 Y79.857 E29.22756
G1 X79.565 Y79.453 E29.26649
M204 S3000
M205 X10 Y10
G0 F3000 X79.849 Y79.961
M204 S1800
M205 X8 Y8
G1 F2400 X79.961 Y79.849 E29.27755
G1 X80.448 Y79.419 E29.32293
G1 X80.984 Y79.052 E29.3683
G1 X81.561 Y78.753 E29.41369
G1 X82.17 Y78.528 E29.45904
G1 X82.803 Y78.379 E29.50446
G1 X83.517 Y78.306 E29.55459
G1 X84.187 Y78.293 E29.6014
G1 X125.603 Y78.293 E32.49415
G1 X126.38 Y78.304 E32.54843
G1 X127.028 Y78.353 E32.59382
G1 X127.665 Y78.481 E32.6392
G1 X128.281 Y78.687 E32.68457
G1 X128.867 Y78.966 E32.7299
G1 X129.415 Y79.316 E32.77531
G1 X130.039 Y79.849 E32.83263
G1 X130.151 Y79.961 E32.8437
G1 X130.581 Y80.448 E32.88907
G1 X130.948 Y80.984 E32.93445
G1 X131.247 Y81.561 E32.97984
G1 X131.472 Y82.17 E33.02518
G1 X131.621 Y82.803 E33.0706
G1 X131.693 Y83.502 E33.11969
G1 X131.707 Y84.139 E33.16419
G1 X131.707 Y125.648 E36.06344
G1 X131.697 Y126.377 E36.11436
G1 X131.648 Y127.025 E36.15975
G1 X131.52 Y127.662 E36.20513
G1 X131.314 Y128.278 E36.2505
G1 X131.035 Y128.865 E36.29589
G1 X130.686 Y129.413 E36.34127
G1 X130.151 Y130.039 E36.39879
G1 X130.039 Y130.151 E36.40985
G1 X129.552 Y130.581 E36.45523
G1 X129.016 Y130.948 E36.5006
G1 X128.439 Y131.247 E36.54599
G1 X127.83 Y131.472 E36.59134
G1 X127.197 Y131.621 E36.63676
G1 X126.483 Y131.694 E36.68689
G1 X125.813 Y131.707 E36.7337
G1 X84.322 Y131.706 E39.63169
G1 X83.62 Y131.696 E39.68073
G1 X82.972 Y131.647 E39.72612
G1 X82.335 Y131.519 E39.7715
G1 X81.719 Y131.313 E39.81686
G1 X81.133 Y131.034 E39.8622
G1 X80.585 Y130.684 E39.90761
G1 X79.961 Y130.151 E39.96493
G1 X79.849 Y130.039 E39.976
G1 X79.419 Y129.552 E40.02137
G1 X79.052 Y129.016 E40.06674
G1 X78.753 Y128.439 E40.11214
G1 X78.528 Y127.83 E40.15748
G1 X78.379 Y127.197 E40.2029
G1 X78.306 Y126.483 E40.25303
G1 X78.293 Y125.763 E40.30333
G1 X78.294 Y84.3 E43.19937
G1 X78.304 Y83.618 E43.24701
G1 X78.353 Y82.97 E43.2924
G1 X78.482 Y82.333 E43.33779
G1 X78.688 Y81.717 E43.38316
G1 X78.967 Y81.131 E43.42849
G1 X79.317 Y80.583 E43.47391
G1 X79.849 Y79.961 E43.53108
M204 S3000
M205 X10 Y10
G0 F3000 X83.853 Y83.853
M204 S1800
M205 X8 Y8
;TYPE:SUPPORT
G1 F1800 X126.147 Y83.853 E46.48516
G1 X126.147 Y126.147 E49.43923
G1 X83.853 Y126.147 E52.39331
G1 X83.853 Y83.853 E55.34739
M204 S3000
M205 X10 Y10
G0 F3000 X84.736 Y85.474
M204 S1800
M205 X8 Y8
G1 F1800 X84.736 Y124.526 E58.07503
G1 X85.474 Y125.264 E58.14793
G1 X124.526 Y125.264 E60.87556
G1 X125.264 Y124.526 E60.94846
G1 X125.264 Y85.474 E63.6761
G1 X124.526 Y84.736 E63.749
G1 X85.474 Y84.736 E66.47663
G1 X84.736 Y85.474 E66.54953
M204 S3000
M205 X10 Y10
G0 F3000 X84.515 Y89.769
M204 S1800
M205 X8 Y8
G1 F1800 X84.072 Y90.025 E66.58527
M204 S3000
M205 X10 Y10
G1 F2400 E60.58527
G0 F3000 X85.055 Y85.606
G0 X93.613 Y84.516
M204 S1800
M205 X8 Y8
G1 F2400 E66.58527
G1 F1800 X94.382 Y84.072 E66.64729
M204 S3000
M205 X10 Y10
G0 F3000 X120 Y84.073
M204 S1800
M205 X8 Y8
G1 F1800 X120 Y84.516 E66.67823
M204 S3000
M205 X10 Y10
G1 F2400 E60.67823
G0 F3000 X124.394 Y85.055
G0 X124.945 Y124.394
G0 X120 Y125.484
M204 S1800
M205 X8 Y8
G1 F2400 E66.67823
G1 F1800 X120 Y125.927 E66.70917
M204 S3000
M205 X10 Y10
G0 F3000 X98.11 Y125.926
M204 S1800
M205 X8 Y8
G1 F1800 X97.343 Y125.483 E66.77104
M204 S3000
M205 X10 Y10
G1 F2400 E60.77104
G0 F3000 X85.606 Y124.945
G0 X84.516 Y118.077
M204 S1800
M205 X8 Y8
G1 F2400 E66.77104
G1 F1800 X84.072 Y117.821 E66.80684
M204 S3000
M205 X10 Y10
G1 F2400 E60.80684
;MESH:bill_top2.stl
G0 F3000 X86.576 Y117.821
G0 X122.884 Y122.884
M204 S1800
M205 X8 Y8
;TYPE:WALL-INNER
G1 F2400 E66.80684
G1 F1800 X87.116 Y122.884 E69.3051
G1 X87.116 Y87.116 E71.80336
G1 X122.884 Y87.116 E74.30162
G1 X122.884 Y122.884 E76.79988
M204 S3000
M205 X10 Y10
G0 F3000 X123.444 Y123.444
M204 S1800
M205 X8 Y8
G1 F1800 X86.556 Y123.444 E79.37637
G1 X86.556 Y86.556 E81.95286
G1 X123.444 Y86.556 E84.52935
G1 X123.444 Y123.444 E87.10584
M204 S3000
M205 X10 Y10
G0 F3000 X124.004 Y124.004
M204 S1800
M205 X8 Y8
;TYPE:WALL-OUTER
G1 F1800 X85.996 Y124.004 E89.76056
G1 X85.996 Y85.996 E92.41528
G1 X124.004 Y85.996 E95.07
G1 X124.004 Y124.004 E97.72471
M204 S3000
M205 X10 Y10
G0 F3000 X123.804 Y124.004
G0 X123.374 Y123.374
G0 X122.334 Y122.334
M204 S1800
M205 X8 Y8
;TYPE:SKIN
G1 F1800 X87.666 Y122.334 E100.14614
G1 X87.666 Y87.666 E102.56757
G1 X122.334 Y87.666 E104.98901
G1 X122.334 Y122.334 E107.41044
M204 S3000
M205 X10 Y10
G0 F3000 X122.073 Y88.019
M204 S1800
M205 X8 Y8
G1 F1800 X121.98 Y87.925 E107.41967
M204 S3000
M205 X10 Y10
G0 F3000 X121.188 Y87.925
M204 S1800
M205 X8 Y8
G1 F1800 X122.073 Y88.811 E107.50714
M204 S3000
M205 X10 Y10
G0 F3000 X122.073 Y89.603
M204 S1800
M205 X8 Y8
G1 F1800 X120.396 Y87.925 E107.67284
M204 S3000
M205 X10 Y10
G0 F3000 X119.604 Y87.925
M204 S1800
M205 X8 Y8
G1 F1800 X122.073 Y90.395 E107.91677
M204 S3000
M205 X10 Y10
G0 F3000 X122.073 Y91.187
M204 S1800
M205 X8 Y8
G1 F1800 X118.812 Y87.925 E108.23893
M204 S3000
M205 X10 Y10
G0 F3000 X118.02 Y87.925
M204 S1800
M205 X8 Y8
G1 F1800 X122.073 Y91.979 E108.63933
M204 S3000
M205 X10 Y10
G0 F3000 X122.073 Y92.77
M204 S1800
M205 X8 Y8
G1 F1800 X117.228 Y87.925 E109.11791
M204 S3000
M205 X10 Y10
G0 F3000 X116.436 Y87.925
M204 S1800
M205 X8 Y8
G1 F1800 X122.073 Y93.562 E109.67471
M204 S3000
M205 X10 Y10
G0 F3000 X122.073 Y94.354
M204 S1800
M205 X8 Y8
G1 F1800 X115.644 Y87.925 E110.30976
M204 S3000
M205 X10 Y10
G0 F3000 X114.852 Y87.925
M204 S1800
M205 X8 Y8
G1 F1800 X122.073 Y95.146 E111.02303
M204 S3000
M205 X10 Y10
G0 F3000 X122.073 Y95.938
M204 S1800
M205 X8 Y8
G1 F1800 X114.06 Y87.925 E111.81453
M204 S3000
M205 X10 Y10
G0 F3000 X113.268 Y87.925
M204 S1800
M205 X8 Y8
G1 F1800 X122.073 Y96.73 E112.68427
M204 S3000
M205 X10 Y10
G0 F3000 X122.073 Y97.522
M204 S1800
M205 X8 Y8
G1 F1800 X112.476 Y87.925 E113.63224
M204 S3000
M205 X10 Y10
G0 F3000 X111.684 Y87.925
M204 S1800
M205 X8 Y8
G1 F1800 X122.073 Y98.314 E114.65844
M204 S3000
M205 X10 Y10
G0 F3000 X122.073 Y99.106
M204 S1800
M205 X8 Y8
G1 F1800 X110.892 Y87.925 E115.76287
M204 S3000
M205 X10 Y10
G0 F3000 X110.1 Y87.925
M204 S1800
M205 X8 Y8
G1 F1800 X122.073 Y99.898 E116.94553
M204 S3000
M205 X10 Y10
G0 F3000 X122.073 Y100.69
M204 S1800
M205 X8 Y8
G1 F1800 X109.308 Y87.925 E118.20643
M204 S3000
M205 X10 Y10
G0 F3000 X108.516 Y87.925
M204 S1800
M205 X8 Y8
G1 F1800 X122.073 Y101.482 E119.54556
M204 S3000
M205 X10 Y10
G0 F3000 X122.073 Y102.274
M204 S1800
M205 X8 Y8
G1 F1800 X107.724 Y87.925 E120.96292
M204 S3000
M205 X10 Y10
G0 F3000 X106.932 Y87.925
M204 S1800
M205 X8 Y8
G1 F1800 X122.073 Y103.066 E122.45851
M204 S3000
M205 X10 Y10
G0 F3000 X122.073 Y103.858
M204 S1800
M205 X8 Y8
G1 F1800 X106.14 Y87.925 E124.03233
M204 S3000
M205 X10 Y10
G0 F3000 X105.349 Y87.925
M204 S1800
M205 X8 Y8
G1 F1800 X122.073 Y104.65 E125.68433
M204 S3000
M205 X10 Y10
G0 F3000 X122.073 Y105.442
M204 S1800
M205 X8 Y8
G1 F1800 X104.557 Y87.925 E127.41457
M204 S3000
M205 X10 Y10
G0 F3000 X103.765 Y87.925
M204 S1800
M205 X8 Y8
G1 F1800 X122.073 Y106.234 E129.22304
M204 S3000
M205 X10 Y10
G0 F3000 X122.073 Y107.026
M204 S1800
M205 X8 Y8
G1 F1800 X102.973 Y87.925 E131.10974
M204 S3000
M205 X10 Y10
G0 F3000 X102.181 Y87.925
M204 S1800
M205 X8 Y8
G1 F1800 X122.073 Y107.818 E133.07467
M204 S3000
M205 X10 Y10
G0 F3000 X122.073 Y108.61
M204 S1800
M205 X8 Y8
G1 F1800 X101.389 Y87.925 E135.11784
M204 S3000
M205 X10 Y10
G0 F3000 X100.597 Y87.925
M204 S1800
M205 X8 Y8
G1 F1800 X122.073 Y109.402 E137.23924
M204 S3000
M205 X10 Y10
G0 F3000 X122.073 Y110.194
M204 S1800
M205 X8 Y8
G1 F1800 X99.805 Y87.925 E139.43886
M204 S3000
M205 X10 Y10
G0 F3000 X99.013 Y87.925
M204 S1800
M205 X8 Y8
G1 F1800 X122.073 Y110.986 E141.71672
M204 S3000
M205 X10 Y10
G0 F3000 X122.073 Y111.778
M204 S1800
M205 X8 Y8
G1 F1800 X98.221 Y87.925 E144.07282
M204 S3000
M205 X10 Y10
G0 F3000 X97.429 Y87.925
M204 S1800
M205 X8 Y8
G1 F1800 X122.073 Y112.569 E146.50709
M204 S3000
M205 X10 Y10
G0 F3000 X122.073 Y113.361
M204 S1800
M205 X8 Y8
G1 F1800 X96.637 Y87.925 E149.0196
M204 S3000
M205 X10 Y10
G0 F3000 X95.845 Y87.925
M204 S1800
M205 X8 Y8
G1 F1800 X122.073 Y114.153 E151.61033
M204 S3000
M205 X10 Y10
G0 F3000 X122.073 Y114.945
M204 S1800
M205 X8 Y8
G1 F1800 X95.053 Y87.925 E154.2793
M204 S3000
M205 X10 Y10
G0 F3000 X94.261 Y87.925
M204 S1800
M205 X8 Y8
G1 F1800 X122.073 Y115.737 E157.0265
M204 S3000
M205 X10 Y10
G0 F3000 X122.073 Y116.529
M204 S1800
M205 X8 Y8
G1 F1800 X93.469 Y87.925 E159.85194
M204 S3000
M205 X10 Y10
G0 F3000 X92.677 Y87.925
M204 S1800
M205 X8 Y8
G1 F1800 X122.073 Y117.321 E162.7556
M204 S3000
M205 X10 Y10
G0 F3000 X122.073 Y118.113
M204 S1800
M205 X8 Y8
G1 F1800 X91.885 Y87.925 E165.7375
M204 S3000
M205 X10 Y10
G0 F3000 X91.093 Y87.925
M204 S1800
M205 X8 Y8
G1 F1800 X122.073 Y118.905 E168.79763
M204 S3000
M205 X10 Y10
G0 F3000 X122.073 Y119.697
M204 S1800
M205 X8 Y8
G1 F1800 X90.301 Y87.925 E171.93599
M204 S3000
M205 X10 Y10
G0 F3000 X89.509 Y87.925
M204 S1800
M205 X8 Y8
G1 F1800 X122.073 Y120.489 E175.15258
M204 S3000
M205 X10 Y10
G0 F3000 X122.073 Y121.281
M204 S1800
M205 X8 Y8
G1 F1800 X88.717 Y87.925 E178.44741
M204 S3000
M205 X10 Y10
G0 F3000 X87.925 Y87.925
M204 S1800
M205 X8 Y8
G1 F1800 X122.073 Y122.073 E181.82046
M204 S3000
M205 X10 Y10
G0 F3000 X121.281 Y122.073
M204 S1800
M205 X8 Y8
G1 F1800 X87.925 Y88.717 E185.11529
M204 S3000
M205 X10 Y10
G0 F3000 X87.925 Y89.509
M204 S1800
M205 X8 Y8
G1 F1800 X120.489 Y122.073 E188.33188
M204 S3000
M205 X10 Y10
G0 F3000 X119.697 Y122.073
M204 S1800
M205 X8 Y8
G1 F1800 X87.925 Y90.301 E191.47024
M204 S3000
M205 X10 Y10
G0 F3000 X87.925 Y91.093
M204 S1800
M205 X8 Y8
G1 F1800 X118.905 Y122.073 E194.53037
M204 S3000
M205 X10 Y10
G0 F3000 X118.113 Y122.073
M204 S1800
M205 X8 Y8
G1 F1800 X87.925 Y91.885 E197.51227
M204 S3000
M205 X10 Y10
G0 F3000 X87.925 Y92.677
M204 S1800
M205 X8 Y8
G1 F1800 X117.321 Y122.073 E200.41593
M204 S3000
M205 X10 Y10
G0 F3000 X116.529 Y122.073
M204 S1800
M205 X8 Y8
G1 F1800 X87.925 Y93.469 E203.24136
M204 S3000
M205 X10 Y10
G0 F3000 X87.925 Y94.261
M204 S1800
M205 X8 Y8
G1 F1800 X115.737 Y122.073 E205.98857
M204 S3000
M205 X10 Y10
G0 F3000 X114.945 Y122.073
M204 S1800
M205 X8 Y8
G1 F1800 X87.925 Y95.053 E208.65754
M204 S3000
M205 X10 Y10
G0 F3000 X87.925 Y95.845
M204 S1800
M205 X8 Y8
G1 F1800 X114.153 Y122.073 E211.24827
M204 S3000
M205 X10 Y10
G0 F3000 X113.361 Y122.073
M204 S1800
M205 X8 Y8
G1 F1800 X87.925 Y96.637 E213.76078
M204 S3000
M205 X10 Y10
G0 F3000 X87.925 Y97.429
M204 S1800
M205 X8 Y8
G1 F1800 X112.569 Y122.073 E216.19505
M204 S3000
M205 X10 Y10
G0 F3000 X111.778 Y122.073
M204 S1800
M205 X8 Y8
G1 F1800 X87.925 Y98.221 E218.55115
M204 S3000
M205 X10 Y10
G0 F3000 X87.925 Y99.013
M204 S1800
M205 X8 Y8
G1 F1800 X110.986 Y122.073 E220.82901
M204 S3000
M205 X10 Y10
G0 F3000 X110.194 Y122.073
M204 S1800
M205 X8 Y8
G1 F1800 X87.925 Y99.805 E223.02863
M204 S3000
M205 X10 Y10
G0 F3000 X87.925 Y100.597
M204 S1800
M205 X8 Y8
G1 F1800 X109.402 Y122.073 E225.15003
M204 S3000
M205 X10 Y10
G0 F3000 X108.61 Y122.073
M204 S1800
M205 X8 Y8
G1 F1800 X87.925 Y101.389 E227.19319
M204 S3000
M205 X10 Y10
G0 F3000 X87.925 Y102.181
M204 S1800
M205 X8 Y8
G1 F1800 X107.818 Y122.073 E229.15813
M204 S3000
M205 X10 Y10
G0 F3000 X107.026 Y122.073
M204 S1800
M205 X8 Y8
