;FLAVOR:Marlin
;TIME:9238
;Filament used: 15.3219m
;Layer height: 0.3
;MINX:13.573
;MINY:36.131
;MINZ:0.3
;MAXX:196.4
;MAXY:173.882
;MAXZ:18
;Generated with Cura_SteamEngine 4.11.0
M140 S60
M105
M190 S60
M104 S200
M105
M109 S200
M82 ;absolute extrusion mode
G21 ;metric values
G90 ;absolute positioning
M82 ;set extruder to absolute mode
M107 ;start with the fan off
G28 X0 Y0 ;move X/Y to min endstops
G28 Z0 ;move Z to min endstops
G1 Z15.0 F100 ;move the platform down 15mm
G92 E0 ;zero the extruded length
G1 F200 E3 ;extrude 3mm of feed stock
G92 E0 ;zero the extruded length again
G1 F100
G0 Y20 F100
M117 Printing...
G5
G92 E0
G92 E0
G1 F2400 E-6
;LAYER_COUNT:60
;LAYER:0
M107
M204 S3000
M205 X10 Y10
G1 F600 Z0.375
G0 F3000 X22.227 Y66.699 Z0.375
M204 S1800
M205 X8 Y8
;TYPE:SKIRT
G1 F600 Z0.3
G1 F2400 E0
G1 X22.77 Y66.537 E0.03958
G1 X23.161 Y66.43 E0.06789
G1 X23.868 Y66.284 E0.11832
G1 X24.397 Y66.208 E0.15564
G1 X24.855 Y66.154 E0.18785
G1 X25.373 Y66.114 E0.22414
G1 X26.051 Y66.1 E0.27151
G1 X94.772 Y66.1 E5.07142
G1 X97.434 Y66.062 E5.25737
G1 X100.074 Y65.95 E5.44193
G1 X102.719 Y65.763 E5.62713
G1 X105.376 Y65.499 E5.81363
G1 X107.991 Y65.165 E5.99776
G1 X110.587 Y64.757 E6.1813
G1 X113.194 Y64.272 E6.36652
G1 X115.802 Y63.711 E6.55284
G1 X118.323 Y63.094 E6.73412
G1 X120.91 Y62.382 E6.92153
G1 X123.466 Y61.599 E7.10825
G1 X125.933 Y60.767 E7.2901
G1 X128.455 Y59.837 E7.47784
G1 X130.903 Y58.853 E7.66212
G1 X133.316 Y57.803 E7.84593
G1 X135.728 Y56.673 E8.03197
G1 X138.078 Y55.489 E8.21576
G1 X140.426 Y54.221 E8.40215
G1 X142.699 Y52.91 E8.58542
G1 X144.959 Y51.52 E8.77074
G1 X147.16 Y50.079 E8.95449
G1 X149.37 Y48.539 E9.14263
G1 X151.465 Y46.991 E9.32457
G1 X153.571 Y45.342 E9.51139
G1 X155.597 Y43.659 E9.69536
G1 X157.582 Y41.913 E9.88001
G1 X159.538 Y40.093 E10.06662
G1 X160.597 Y39.066 E10.16966
G1 X161.253 Y38.471 E10.23152
G1 X161.712 Y38.099 E10.27278
G1 X162.17 Y37.762 E10.3125
G1 X162.484 Y37.541 E10.33932
G1 X163.093 Y37.167 E10.38923
G1 X163.738 Y36.856 E10.43925
G1 X164.104 Y36.696 E10.46715
G1 X164.777 Y36.452 E10.51715
G1 X165.341 Y36.309 E10.55779
G1 X165.669 Y36.242 E10.58117
G1 X166.377 Y36.139 E10.63114
G1 X167.43 Y36.131 E10.70469
G1 X167.656 Y36.148 E10.72052
G1 X168.365 Y36.241 E10.77047
G1 X169.059 Y36.413 E10.82041
G1 X169.721 Y36.658 E10.86971
G1 X169.991 Y36.775 E10.89026
G1 X170.63 Y37.095 E10.94018
G1 X171.23 Y37.485 E10.99016
G1 X171.981 Y38.131 E11.05935
G1 X172.213 Y38.364 E11.08232
G1 X172.689 Y38.899 E11.13234
G1 X173.156 Y39.57 E11.18944
G1 X173.301 Y39.81 E11.20902
G1 X173.585 Y40.335 E11.25071
G1 X174.81 Y42.868 E11.44724
G1 X176.022 Y45.205 E11.63111
G1 X177.323 Y47.543 E11.81799
G1 X178.667 Y49.809 E12.00201
G1 X180.092 Y52.065 E12.18839
G1 X181.553 Y54.237 E12.37122
G1 X183.103 Y56.406 E12.55742
G1 X184.684 Y58.491 E12.74019
G1 X186.349 Y60.564 E12.9259
G1 X188.073 Y62.588 E13.1116
G1 X189.844 Y64.556 E13.29652
G1 X191.677 Y66.477 E13.48198
G1 X193.358 Y68.142 E13.64723
G1 X193.719 Y68.511 E13.68329
G1 X193.877 Y68.68 E13.69945
G1 X194.248 Y69.114 E13.73933
G1 X194.61 Y69.578 E13.78043
G1 X195.098 Y70.3 E13.8413
G1 X195.391 Y70.832 E13.88372
G1 X195.703 Y71.512 E13.93598
G1 X195.854 Y71.899 E13.96499
G1 X196.133 Y72.807 E14.03134
G1 X196.257 Y73.366 E14.07133
G1 X196.364 Y74.073 E14.12128
G1 X196.4 Y74.932 E14.18133
G1 X196.4 Y75.502 E14.22114
G1 X196.356 Y76.216 E14.2711
G1 X196.298 Y76.608 E14.29878
G1 X196.164 Y77.349 E14.35138
G1 X195.978 Y78.176 E14.41058
G1 X195.713 Y79.125 E14.4794
G1 X195.476 Y79.935 E14.53835
G1 X194.804 Y82.486 E14.72261
G1 X194.204 Y85.057 E14.90701
G1 X193.676 Y87.666 E15.09293
G1 X193.228 Y90.238 E15.27528
G1 X192.843 Y92.892 E15.46259
G1 X192.541 Y95.49 E15.64527
G1 X192.307 Y98.155 E15.83213
G1 X192.152 Y100.777 E16.01559
G1 X192.069 Y103.436 E16.2014
G1 X192.062 Y106.08 E16.38607
G1 X192.129 Y108.717 E16.57032
G1 X192.275 Y111.398 E16.75785
G1 X192.488 Y113.992 E16.93964
G1 X192.78 Y116.625 E17.12468
G1 X193.151 Y119.277 E17.31171
G1 X193.59 Y121.886 E17.4965
G1 X194.099 Y124.459 E17.6797
G1 X194.681 Y127.012 E17.86259
G1 X195.355 Y129.637 E18.05189
G1 X195.751 Y131.006 E18.15143
G1 X195.981 Y131.841 E18.21192
G1 X196.155 Y132.587 E18.26542
G1 X196.284 Y133.259 E18.31322
G1 X196.374 Y133.968 E18.36314
G1 X196.39 Y134.345 E18.38949
G1 X196.398 Y135.016 E18.43636
G1 X196.388 Y135.518 E18.47143
G1 X196.327 Y136.231 E18.52141
G1 X196.18 Y137 E18.5761
G1 X195.965 Y137.777 E18.63241
G1 X195.83 Y138.167 E18.66123
G1 X195.454 Y139.038 E18.7275
G1 X195.034 Y139.799 E18.78821
G1 X194.915 Y139.989 E18.80387
G1 X194.589 Y140.461 E18.84393
G1 X194.46 Y140.631 E18.85884
G1 X194.059 Y141.109 E18.90242
G1 X193.612 Y141.592 E18.94838
G1 X193.463 Y141.748 E18.96345
G1 X192.898 Y142.317 E19.01946
G1 X192.005 Y143.194 E19.10688
G1 X190.137 Y145.134 E19.29499
G1 X188.36 Y147.088 E19.47946
G1 X186.649 Y149.079 E19.66282
G1 X184.962 Y151.157 E19.84977
G1 X183.37 Y153.236 E20.03267
G1 X181.809 Y155.401 E20.21909
G1 X180.326 Y157.581 E20.40325
G1 X178.892 Y159.827 E20.58937
G1 X177.543 Y162.078 E20.77267
G1 X176.239 Y164.397 E20.95849
G1 X175.019 Y166.721 E21.14182
G1 X173.608 Y169.612 E21.36651
G1 X173.39 Y170.033 E21.39963
G1 X173.275 Y170.233 E21.41574
G1 X172.686 Y171.089 E21.48832
G1 X172.482 Y171.339 E21.51085
G1 X171.999 Y171.867 E21.56083
G1 X171.461 Y172.338 E21.61078
G1 X170.937 Y172.71 E21.65566
G1 X170.322 Y173.077 E21.70568
G1 X169.671 Y173.372 E21.7556
G1 X169.07 Y173.576 E21.79993
G1 X168.377 Y173.755 E21.84993
G1 X167.372 Y173.874 E21.92061
G1 X167.165 Y173.882 E21.93508
G1 X166.45 Y173.87 E21.98503
G1 X165.813 Y173.791 E22.02986
G1 X165.579 Y173.75 E22.04645
G1 X164.883 Y173.587 E22.09638
G1 X164.296 Y173.384 E22.13977
G1 X163.824 Y173.185 E22.17554
G1 X163.462 Y173.018 E22.20339
G1 X162.83 Y172.683 E22.25335
G1 X162.173 Y172.243 E22.30858
G1 X161.819 Y171.986 E22.33913
G1 X161.388 Y171.638 E22.37782
G1 X160.874 Y171.186 E22.42563
G1 X160.714 Y171.041 E22.44071
G1 X160.029 Y170.395 E22.50648
G1 X158.869 Y169.275 E22.6191
G1 X156.882 Y167.462 E22.80698
G1 X154.897 Y165.751 E22.99002
G1 X152.819 Y164.06 E23.17714
G1 X150.761 Y162.481 E23.35832
G1 X148.566 Y160.891 E23.54763
G1 X146.407 Y159.421 E23.73006
G1 X144.177 Y157.99 E23.91513
G1 X141.91 Y156.627 E24.09989
G1 X139.624 Y155.338 E24.28319
G1 X137.23 Y154.076 E24.47222
G1 X134.875 Y152.919 E24.65548
G1 X132.487 Y151.828 E24.83886
G1 X130.047 Y150.795 E25.02393
G1 X127.565 Y149.828 E25.20998
G1 X125.072 Y148.935 E25.39494
G1 X122.558 Y148.114 E25.57966
G1 X120.031 Y147.368 E25.76369
G1 X117.453 Y146.686 E25.94995
G1 X114.882 Y146.081 E26.13443
G1 X112.264 Y145.546 E26.32107
G1 X109.683 Y145.093 E26.50409
G1 X107.078 Y144.711 E26.68799
G1 X104.451 Y144.401 E26.87275
G1 X101.778 Y144.162 E27.06019
G1 X99.176 Y144.004 E27.24227
G1 X96.491 Y143.916 E27.42991
G1 X94.73 Y143.9 E27.55291
G1 X26.305 Y143.9 E32.33214
G1 X25.515 Y143.889 E32.38733
G1 X24.991 Y143.86 E32.42398
G1 X24.42 Y143.797 E32.46411
G1 X23.847 Y143.712 E32.50457
G1 X23.148 Y143.568 E32.55441
G1 X22.333 Y143.34 E32.61352
G1 X21.45 Y143.008 E32.67941
G1 X20.957 Y142.78 E32.71735
G1 X20.292 Y142.423 E32.77007
G1 X19.991 Y142.238 E32.79475
G1 X19.308 Y141.754 E32.85322
G1 X18.973 Y141.482 E32.88336
G1 X18.444 Y141.001 E32.93329
G1 X18.057 Y140.571 E32.9737
G1 X17.721 Y140.161 E33.01073
G1 X17.236 Y139.484 E33.06889
G1 X17.055 Y139.193 E33.09283
G1 X16.694 Y138.527 E33.14574
G1 X16.51 Y138.134 E33.17605
G1 X16.174 Y137.252 E33.24197
G1 X16.004 Y136.683 E33.28345
G1 X15.948 Y136.486 E33.29776
G1 X15.638 Y135.313 E33.3825
G1 X14.93 Y132.784 E33.56593
G1 X14.206 Y130.437 E33.73748
G1 X13.893 Y129.466 E33.80874
G1 X13.711 Y128.774 E33.85872
G1 X13.608 Y128.067 E33.90862
G1 X13.576 Y127.364 E33.95777
G1 X13.573 Y127.17 E33.97133
G1 X13.574 Y118.115 E34.60378
G1 X13.584 Y117.418 E34.65247
G1 X13.611 Y116.911 E34.68793
G1 X13.646 Y116.552 E34.71313
G1 X13.906 Y114.265 E34.87389
G1 X14.128 Y111.646 E35.05748
G1 X14.28 Y108.965 E35.24504
G1 X14.354 Y106.359 E35.42713
G1 X14.354 Y103.68 E35.61425
G1 X14.28 Y101.073 E35.79641
G1 X14.129 Y98.401 E35.98334
G1 X13.903 Y95.755 E36.16882
G1 X13.749 Y94.31 E36.27032
G1 X13.624 Y93.219 E36.34702
G1 X13.585 Y92.669 E36.38554
G1 X13.573 Y92.17 E36.4204
G1 X13.574 Y83.107 E37.05342
G1 X13.585 Y82.401 E37.10273
G1 X13.636 Y81.688 E37.15266
G1 X13.86 Y80.643 E37.22731
G1 X13.99 Y80.216 E37.25848
G1 X14.608 Y78.297 E37.3993
G1 X15.612 Y74.782 E37.65463
G1 X15.987 Y73.367 E37.75687
G1 X16.13 Y72.87 E37.79299
G1 X16.465 Y71.978 E37.85955
G1 X16.693 Y71.486 E37.89742
G1 X17.049 Y70.824 E37.94992
G1 X17.244 Y70.507 E37.97592
G1 X17.723 Y69.831 E38.03378
G1 X17.988 Y69.504 E38.06318
G1 X18.468 Y68.974 E38.11312
G1 X18.901 Y68.585 E38.15378
G1 X19.302 Y68.256 E38.19001
G1 X19.938 Y67.796 E38.24483
G1 X20.224 Y67.615 E38.26847
G1 X20.944 Y67.222 E38.32577
G1 X21.354 Y67.031 E38.35736
G1 X22.227 Y66.699 E38.42259
M204 S3000
M205 X10 Y10
G0 F3000 X22.387 Y67.236
M204 S1800
M205 X8 Y8
G1 F2400 X22.93 Y67.074 E38.46217
G1 X23.305 Y66.971 E38.48934
G1 X23.95 Y66.838 E38.53533
G1 X24.462 Y66.764 E38.57147
G1 X25.393 Y66.674 E38.6368
G1 X26.056 Y66.66 E38.68312
G1 X94.78 Y66.66 E43.48323
G1 X97.431 Y66.623 E43.66841
G1 X100.138 Y66.508 E43.85766
G1 X102.741 Y66.323 E44.03992
G1 X105.433 Y66.056 E44.22887
G1 X108.08 Y65.717 E44.41527
G1 X110.673 Y65.31 E44.5986
G1 X113.331 Y64.816 E44.78743
G1 X115.924 Y64.258 E44.97268
G1 X118.461 Y63.637 E45.15512
G1 X121.078 Y62.916 E45.34471
G1 X123.6 Y62.144 E45.52893
G1 X126.161 Y61.28 E45.71772
G1 X128.65 Y60.362 E45.90301
G1 X131.085 Y59.384 E46.08629
G1 X133.556 Y58.309 E46.27451
G1 X135.966 Y57.179 E46.46042
G1 X138.374 Y55.967 E46.64871
G1 X140.679 Y54.722 E46.83169
G1 X142.979 Y53.395 E47.01716
G1 X145.256 Y51.995 E47.20386
G1 X147.492 Y50.53 E47.39057
G1 X149.664 Y49.018 E47.57541
G1 X151.824 Y47.422 E47.763
G1 X153.911 Y45.786 E47.94822
G1 X155.969 Y44.078 E48.13502
G1 X157.972 Y42.316 E48.32134
G1 X159.914 Y40.508 E48.50667
G1 X160.979 Y39.476 E48.61025
G1 X161.625 Y38.889 E48.67122
G1 X162.044 Y38.55 E48.70886
G1 X162.502 Y38.213 E48.74858
G1 X162.803 Y38.001 E48.77429
G1 X163.685 Y37.497 E48.84525
G1 X164.325 Y37.211 E48.89421
G1 X164.968 Y36.979 E48.94195
G1 X165.781 Y36.791 E49.00024
G1 X166.457 Y36.694 E49.04794
G1 X167.388 Y36.689 E49.11297
G1 X167.614 Y36.706 E49.12879
G1 X168.291 Y36.797 E49.17651
G1 X168.953 Y36.967 E49.22424
G1 X169.498 Y37.171 E49.26489
G1 X169.768 Y37.288 E49.28544
G1 X170.378 Y37.596 E49.33317
G1 X170.948 Y37.973 E49.38091
G1 X171.584 Y38.526 E49.43977
G1 X171.816 Y38.759 E49.46274
G1 X172.269 Y39.271 E49.51049
G1 X172.677 Y39.86 E49.56053
G1 X172.822 Y40.1 E49.58012
G1 X173.081 Y40.578 E49.61809
G1 X174.316 Y43.133 E49.8163
G1 X175.537 Y45.484 E50.00133
G1 X176.837 Y47.824 E50.1883
G1 X178.189 Y50.101 E50.37327
G1 X179.609 Y52.35 E50.55904
G1 X181.094 Y54.557 E50.74484
G1 X182.65 Y56.734 E50.93174
G1 X184.262 Y58.861 E51.11815
G1 X185.93 Y60.937 E51.30416
G1 X187.626 Y62.929 E51.48689
G1 X189.453 Y64.958 E51.67759
G1 X191.255 Y66.848 E51.85999
G1 X192.959 Y68.535 E52.02747
G1 X193.31 Y68.894 E52.06253
G1 X193.468 Y69.063 E52.07869
G1 X193.806 Y69.459 E52.11506
G1 X194.168 Y69.923 E52.15616
G1 X194.614 Y70.581 E52.21168
G1 X194.897 Y71.095 E52.25267
G1 X195.182 Y71.715 E52.30033
G1 X195.333 Y72.102 E52.32934
G1 X195.587 Y72.931 E52.3899
G1 X195.709 Y73.48 E52.42918
G1 X195.809 Y74.156 E52.47691
G1 X195.84 Y74.945 E52.53206
G1 X195.84 Y75.499 E52.57076
G1 X195.747 Y76.508 E52.64153
G1 X195.613 Y77.249 E52.69413
G1 X195.438 Y78.025 E52.74969
G1 X195.175 Y78.967 E52.818
G1 X194.949 Y79.737 E52.87405
G1 X194.259 Y82.361 E53.06356
G1 X193.653 Y84.954 E53.24955
G1 X193.131 Y87.534 E53.43341
G1 X192.667 Y90.2 E53.62242
G1 X192.292 Y92.787 E53.805
G1 X191.982 Y95.446 E53.99198
G1 X191.749 Y98.107 E54.17855
G1 X191.591 Y100.776 E54.36529
G1 X191.509 Y103.418 E54.54992
G1 X191.502 Y106.093 E54.73676
G1 X191.57 Y108.762 E54.92324
G1 X191.713 Y111.403 E55.10797
G1 X191.932 Y114.065 E55.29453
G1 X192.224 Y116.695 E55.47935
G1 X192.593 Y119.339 E55.66582
G1 X193.039 Y121.984 E55.85317
G1 X193.553 Y124.582 E56.03815
G1 X194.143 Y127.17 E56.22355
G1 X194.807 Y129.756 E56.41003
G1 X195.211 Y131.155 E56.51174
G1 X195.441 Y131.99 E56.57223
G1 X195.609 Y132.709 E56.6238
G1 X195.733 Y133.36 E56.67009
G1 X195.83 Y134.351 E56.73964
G1 X195.838 Y135.022 E56.78651
G1 X195.828 Y135.502 E56.82004
G1 X195.769 Y136.183 E56.86778
G1 X195.632 Y136.884 E56.91767
G1 X195.436 Y137.593 E56.96905
G1 X195.301 Y137.983 E56.99788
G1 X194.957 Y138.779 E57.05844
G1 X194.559 Y139.502 E57.11609
G1 X194.44 Y139.692 E57.13175
G1 X194.143 Y140.122 E57.16825
G1 X194.014 Y140.292 E57.18316
G1 X193.648 Y140.729 E57.22297
G1 X193.201 Y141.212 E57.26894
G1 X193.065 Y141.354 E57.28267
G1 X192.506 Y141.918 E57.33813
G1 X191.57 Y142.837 E57.42975
G1 X189.75 Y144.728 E57.61307
G1 X187.951 Y146.705 E57.79977
G1 X186.202 Y148.741 E57.98724
G1 X184.526 Y150.805 E58.17295
G1 X182.902 Y152.927 E58.35958
G1 X181.363 Y155.06 E58.5433
G1 X179.867 Y157.26 E58.72912
G1 X178.417 Y159.531 E58.91732
G1 X177.052 Y161.809 E59.1028
G1 X175.741 Y164.139 E59.28954
G1 X174.513 Y166.478 E59.47405
G1 X173.219 Y169.131 E59.68022
G1 X172.905 Y169.754 E59.72895
G1 X172.79 Y169.954 E59.74507
G1 X172.252 Y170.735 E59.81131
G1 X172.048 Y170.985 E59.83384
G1 X171.586 Y171.488 E59.88155
G1 X171.068 Y171.934 E59.92929
G1 X170.623 Y172.246 E59.96725
G1 X170.036 Y172.594 E60.01491
G1 X169.132 Y172.969 E60.08327
G1 X168.9 Y173.043 E60.10028
G1 X168.238 Y173.212 E60.148
G1 X167.351 Y173.315 E60.21037
G1 X167.144 Y173.323 E60.22484
G1 X166.46 Y173.309 E60.27263
G1 X165.91 Y173.239 E60.31135
G1 X165.676 Y173.198 E60.32794
G1 X165.011 Y173.041 E60.37567
G1 X164.505 Y172.864 E60.41311
G1 X163.697 Y172.51 E60.47472
G1 X162.82 Y172.009 E60.54527
G1 X162.352 Y171.683 E60.58511
G1 X162.151 Y171.535 E60.60254
G1 X161.757 Y171.218 E60.63786
G1 X161.243 Y170.766 E60.68567
G1 X161.098 Y170.633 E60.69941
G1 X160.418 Y169.992 E60.76468
G1 X159.24 Y168.855 E60.87904
G1 X157.284 Y167.07 E61.06399
G1 X155.236 Y165.305 E61.25283
G1 X153.176 Y163.628 E61.43836
G1 X151.072 Y162.014 E61.62358
G1 X148.931 Y160.463 E61.80824
G1 X146.706 Y158.947 E61.99629
G1 X144.449 Y157.5 E62.18355
G1 X142.196 Y156.145 E62.36718
G1 X139.868 Y154.832 E62.55386
G1 X137.531 Y153.6 E62.73838
G1 X135.118 Y152.415 E62.92615
G1 X132.687 Y151.304 E63.11284
G1 X130.261 Y150.277 E63.29684
G1 X127.78 Y149.31 E63.48283
G1 X125.257 Y148.407 E63.67
G1 X122.713 Y147.576 E63.85693
G1 X120.155 Y146.821 E64.04321
G1 X117.614 Y146.148 E64.22681
G1 X114.986 Y145.53 E64.41537
G1 X112.398 Y145.002 E64.59986
G1 X109.758 Y144.538 E64.78708
G1 X107.151 Y144.156 E64.97111
G1 X104.5 Y143.843 E65.15756
G1 X101.824 Y143.604 E65.34522
G1 X99.193 Y143.444 E65.52932
G1 X96.514 Y143.356 E65.71654
G1 X94.735 Y143.34 E65.8408
G1 X26.305 Y143.34 E70.62038
G1 X25.523 Y143.329 E70.67501
G1 X24.796 Y143.279 E70.72591
G1 X24.502 Y143.243 E70.74659
G1 X23.929 Y143.158 E70.78705
G1 X23.292 Y143.027 E70.83248
G1 X22.491 Y142.802 E70.89059
G1 X21.685 Y142.5 E70.95071
G1 X21.192 Y142.272 E70.98865
G1 X20.585 Y141.946 E71.03677
G1 X20.284 Y141.761 E71.06145
G1 X19.661 Y141.32 E71.11476
G1 X19.326 Y141.048 E71.1449
G1 X18.822 Y140.587 E71.19261
G1 X18.49 Y140.216 E71.22738
G1 X18.154 Y139.806 E71.26441
G1 X17.712 Y139.188 E71.31747
G1 X17.531 Y138.897 E71.34141
G1 X17.201 Y138.289 E71.38973
G1 X17.017 Y137.896 E71.42004
G1 X16.71 Y137.092 E71.48015
G1 X16.54 Y136.523 E71.52163
G1 X16.49 Y136.343 E71.53468
G1 X16.202 Y135.252 E71.61349
G1 X15.456 Y132.587 E71.80678
G1 X14.764 Y130.344 E71.97074
G1 X14.425 Y129.294 E72.0478
G1 X14.254 Y128.633 E72.09549
G1 X14.146 Y127.677 E72.16269
G1 X14.133 Y127.17 E72.19811
G1 X14.134 Y118.123 E72.83001
G1 X14.144 Y117.426 E72.8787
G1 X14.191 Y116.729 E72.92749
G1 X14.202 Y116.616 E72.93542
G1 X14.464 Y114.309 E73.09759
G1 X14.687 Y111.687 E73.28139
G1 X14.838 Y109.013 E73.46846
G1 X14.914 Y106.34 E73.65523
G1 X14.914 Y103.699 E73.8397
