;FLAVOR:Marlin
;TIME:7116
;Filament used: 11.6589m
;Layer height: 0.3
;MINX:3.741
;MINY:6.061
;MINZ:0.3
;MAXX:199.582
;MAXY:203.939
;MAXZ:14.7
;Generated with Cura_SteamEngine 4.11.0
M140 S60
M105
M190 S60
M104 S200
M105
M109 S200
M82 ;absolute extrusion mode
G21 ;metric values
G90 ;absolute positioning
M82 ;set extruder to absolute mode
M107 ;start with the fan off
G28 X0 Y0 ;move X/Y to min endstops
G28 Z0 ;move Z to min endstops
G1 Z15.0 F100 ;move the platform down 15mm
G92 E0 ;zero the extruded length
G1 F200 E3 ;extrude 3mm of feed stock
G92 E0 ;zero the extruded length again
G1 F100
G0 Y20 F100
M117 Printing...
G5
G92 E0
G92 E0
G1 F2400 E-6
;LAYER_COUNT:49
;LAYER:0
M107
M204 S3000
M205 X10 Y10
G1 F600 Z0.375
G0 F3000 X24.039 Y19.803 Z0.375
M204 S1800
M205 X8 Y8
;TYPE:SKIRT
G1 F600 Z0.3
G1 F2400 E0
G1 X25.958 Y17.829 E0.19229
G1 X27.757 Y15.868 E0.37816
G1 X29.452 Y13.913 E0.55889
G1 X31.138 Y11.856 E0.74466
G1 X31.9 Y10.863 E0.83208
G1 X32.766 Y9.759 E0.93009
G1 X33.097 Y9.371 E0.96571
G1 X33.584 Y8.859 E1.01506
G1 X34.083 Y8.361 E1.0643
G1 X34.576 Y7.88 E1.11241
G1 X35.115 Y7.41 E1.16236
G1 X35.703 Y7.003 E1.21231
G1 X36.333 Y6.664 E1.26228
G1 X36.997 Y6.398 E1.31224
G1 X37.686 Y6.207 E1.36218
G1 X38.392 Y6.094 E1.41212
G1 X39.045 Y6.061 E1.45779
G1 X39.203 Y6.061 E1.46882
G1 X39.917 Y6.101 E1.51877
G1 X40.622 Y6.22 E1.56871
G1 X41.31 Y6.418 E1.61871
G1 X41.971 Y6.691 E1.66866
G1 X42.598 Y7.035 E1.71862
G1 X43.182 Y7.448 E1.76858
G1 X43.686 Y7.89 E1.8154
G1 X44.113 Y8.305 E1.85699
G1 X57.249 Y21.441 E3.15453
G1 X57.767 Y21.974 E3.20644
G1 X58.236 Y22.514 E3.2564
G1 X58.454 Y22.812 E3.28219
G1 X59.295 Y24.039 E3.38609
G1 X59.525 Y24.381 E3.41487
G1 X61.059 Y26.537 E3.59969
G1 X62.645 Y28.637 E3.7835
G1 X64.314 Y30.724 E3.97015
G1 X66.035 Y32.751 E4.15587
G1 X67.77 Y34.685 E4.33735
G1 X70.427 Y37.45 E4.60519
G1 X197.286 Y164.309 E17.13601
G1 X197.767 Y164.803 E17.18417
G1 X198.237 Y165.343 E17.23417
G1 X198.643 Y165.931 E17.28408
G1 X198.982 Y166.562 E17.33411
G1 X199.247 Y167.226 E17.38404
G1 X199.437 Y167.915 E17.43396
G1 X199.549 Y168.622 E17.48396
G1 X199.582 Y169.268 E17.52914
G1 X199.582 Y169.425 E17.54011
G1 X199.542 Y170.139 E17.59005
G1 X199.423 Y170.844 E17.63999
G1 X199.225 Y171.532 E17.69
G1 X198.952 Y172.193 E17.73995
G1 X198.608 Y172.82 E17.7899
G1 X198.195 Y173.404 E17.83986
G1 X197.733 Y173.93 E17.88876
G1 X197.385 Y174.287 E17.92358
G1 X170.017 Y201.655 E20.62692
G1 X169.523 Y202.134 E20.67499
G1 X168.983 Y202.602 E20.7249
G1 X168.393 Y203.007 E20.77488
G1 X167.762 Y203.344 E20.82485
G1 X167.098 Y203.609 E20.87478
G1 X166.408 Y203.797 E20.92473
G1 X165.701 Y203.908 E20.97472
G1 X165.068 Y203.939 E21.01898
G1 X164.912 Y203.939 E21.02988
G1 X164.198 Y203.899 E21.07983
G1 X163.493 Y203.78 E21.12977
G1 X162.805 Y203.582 E21.17977
G1 X162.144 Y203.309 E21.22972
G1 X161.517 Y202.965 E21.27967
G1 X160.933 Y202.552 E21.32963
G1 X160.417 Y202.099 E21.37759
G1 X160.033 Y201.726 E21.41498
G1 X6.022 Y47.713 E36.62791
G1 X5.554 Y47.232 E36.67479
G1 X5.085 Y46.692 E36.72474
G1 X4.678 Y46.104 E36.77469
G1 X4.34 Y45.473 E36.82469
G1 X4.075 Y44.809 E36.87462
G1 X3.885 Y44.119 E36.92461
G1 X3.773 Y43.413 E36.97454
G1 X3.741 Y42.698 E37.02453
G1 X3.789 Y41.985 E37.07444
G1 X3.916 Y41.281 E37.12441
G1 X4.121 Y40.596 E37.17435
G1 X4.401 Y39.938 E37.2243
G1 X4.753 Y39.315 E37.27428
G1 X5.172 Y38.735 E37.32425
G1 X5.504 Y38.358 E37.35934
G1 X5.868 Y37.978 E37.39609
G1 X24.039 Y19.803 E39.19118
M204 S3000
M205 X10 Y10
G0 F3000 X24.482 Y20.152
M204 S1800
M205 X8 Y8
G1 F2400 X26.359 Y18.22 E39.37932
G1 X28.148 Y16.272 E39.56405
G1 X29.893 Y14.258 E39.75018
G1 X31.591 Y12.187 E39.93724
G1 X32.341 Y11.209 E40.02332
G1 X33.207 Y10.105 E40.12132
G1 X33.651 Y9.596 E40.1685
G1 X34.031 Y9.203 E40.20668
G1 X34.474 Y8.762 E40.25034
G1 X34.967 Y8.281 E40.29845
G1 X35.483 Y7.833 E40.34618
G1 X36.048 Y7.449 E40.39389
G1 X36.654 Y7.133 E40.44163
G1 X37.292 Y6.89 E40.48931
G1 X37.955 Y6.724 E40.53705
G1 X38.632 Y6.636 E40.58474
G1 X39.203 Y6.621 E40.62463
G1 X39.885 Y6.661 E40.67235
G1 X40.558 Y6.78 E40.72008
G1 X41.212 Y6.977 E40.76779
G1 X41.839 Y7.25 E40.81556
G1 X42.429 Y7.593 E40.86322
G1 X43.178 Y8.183 E40.92982
G1 X43.669 Y8.653 E40.97729
G1 X56.847 Y21.831 E42.27898
G1 X57.365 Y22.364 E42.3309
G1 X57.992 Y23.129 E42.39998
G1 X58.83 Y24.351 E42.50348
G1 X59.064 Y24.699 E42.53277
G1 X60.604 Y26.863 E42.71828
G1 X62.222 Y29.005 E42.90578
G1 X63.877 Y31.075 E43.09089
G1 X65.606 Y33.112 E43.27751
G1 X67.359 Y35.066 E43.46086
G1 X69.967 Y37.78 E43.72376
G1 X196.885 Y164.7 E56.26051
G1 X197.366 Y165.194 E56.30867
G1 X197.813 Y165.71 E56.35635
G1 X198.197 Y166.276 E56.40412
G1 X198.512 Y166.882 E56.45183
G1 X198.755 Y167.521 E56.49958
G1 X198.92 Y168.184 E56.5473
G1 X199.008 Y168.861 E56.59498
G1 X199.022 Y169.425 E56.63439
G1 X198.982 Y170.107 E56.6821
G1 X198.863 Y170.78 E56.72984
G1 X198.666 Y171.434 E56.77755
G1 X198.393 Y172.061 E56.82531
G1 X198.05 Y172.651 E56.87298
G1 X197.464 Y173.397 E56.93924
G1 X197.034 Y173.846 E56.98266
G1 X169.692 Y201.19 E59.68354
G1 X169.133 Y201.732 E59.73792
G1 X168.616 Y202.178 E59.78561
G1 X168.05 Y202.56 E59.8333
G1 X167.443 Y202.874 E59.88104
G1 X166.804 Y203.115 E59.92874
G1 X166.14 Y203.28 E59.97653
G1 X165.463 Y203.366 E60.02419
G1 X164.912 Y203.379 E60.06269
G1 X164.23 Y203.339 E60.11041
G1 X163.557 Y203.22 E60.15814
G1 X162.903 Y203.023 E60.20585
G1 X162.276 Y202.75 E60.25361
G1 X161.686 Y202.407 E60.30128
G1 X160.938 Y201.819 E60.36773
G1 X160.425 Y201.326 E60.41743
G1 X6.423 Y47.323 E75.62942
G1 X5.955 Y46.842 E75.6763
G1 X5.508 Y46.325 E75.72403
G1 X5.125 Y45.759 E75.77176
G1 X4.81 Y45.153 E75.81947
G1 X4.568 Y44.514 E75.86719
G1 X4.402 Y43.851 E75.91493
G1 X4.315 Y43.174 E75.96261
G1 X4.308 Y42.491 E76.01031
G1 X4.38 Y41.811 E76.05807
G1 X4.531 Y41.145 E76.10577
G1 X4.759 Y40.501 E76.15349
G1 X5.061 Y39.888 E76.20122
G1 X5.432 Y39.314 E76.24896
G1 X5.909 Y38.744 E76.30087
G1 X6.264 Y38.374 E76.33668
G1 X24.482 Y20.152 E78.13641
M204 S3000
M205 X10 Y10
G0 F3000 X24.895 Y20.531
M204 S1800
M205 X8 Y8
G1 F2400 X26.743 Y18.629 E78.32164
G1 X28.586 Y16.621 E78.51201
G1 X30.319 Y14.621 E78.69685
G1 X32.028 Y12.537 E78.88509
G1 X32.782 Y11.554 E78.97162
G1 X33.648 Y10.45 E79.06963
G1 X34.062 Y9.976 E79.11359
G1 X34.427 Y9.599 E79.15024
G1 X34.865 Y9.163 E79.1934
G1 X35.358 Y8.682 E79.24151
G1 X35.85 Y8.258 E79.28688
G1 X36.39 Y7.897 E79.33224
G1 X36.971 Y7.606 E79.37763
G1 X37.583 Y7.388 E79.42301
G1 X38.217 Y7.246 E79.46839
G1 X39.045 Y7.181 E79.5264
G1 X39.203 Y7.181 E79.53743
G1 X39.851 Y7.221 E79.58278
G1 X40.49 Y7.34 E79.62818
G1 X41.109 Y7.537 E79.67355
G1 X41.699 Y7.808 E79.7189
G1 X42.252 Y8.15 E79.76431
G1 X42.797 Y8.593 E79.81337
G1 X43.277 Y9.054 E79.85985
G1 X56.445 Y22.221 E81.16051
G1 X56.963 Y22.754 E81.21242
G1 X57.53 Y23.446 E81.27491
G1 X58.365 Y24.663 E81.37799
G1 X58.603 Y25.017 E81.40779
G1 X60.161 Y27.207 E81.59551
G1 X61.768 Y29.334 E81.78171
G1 X63.443 Y31.428 E81.969
G1 X65.175 Y33.469 E82.15597
G1 X66.964 Y35.463 E82.34308
G1 X69.571 Y38.176 E82.60588
G1 X196.484 Y165.091 E95.14214
G1 X196.965 Y165.585 E95.19029
G1 X197.389 Y166.077 E95.23566
G1 X197.749 Y166.618 E95.28105
G1 X198.04 Y167.199 E95.32643
G1 X198.257 Y167.811 E95.37179
G1 X198.397 Y168.445 E95.41714
G1 X198.462 Y169.268 E95.4748
G1 X198.462 Y169.425 E95.48576
G1 X198.422 Y170.073 E95.53111
G1 X198.303 Y170.712 E95.57651
G1 X198.106 Y171.331 E95.62188
G1 X197.835 Y171.921 E95.66723
G1 X197.493 Y172.474 E95.71265
G1 X197.053 Y173.016 E95.76141
G1 X196.634 Y173.454 E95.80374
G1 X169.296 Y200.794 E98.50422
G1 X168.744 Y201.33 E98.55796
G1 X168.25 Y201.752 E98.60334
G1 X167.709 Y202.111 E98.64869
G1 X167.127 Y202.401 E98.69411
G1 X166.515 Y202.617 E98.73944
G1 X165.88 Y202.756 E98.78484
G1 X165.068 Y202.819 E98.84173
G1 X164.912 Y202.819 E98.85262
G1 X164.264 Y202.779 E98.89797
G1 X163.625 Y202.66 E98.94337
G1 X163.006 Y202.463 E98.98874
G1 X162.416 Y202.192 E99.03409
G1 X161.863 Y201.85 E99.0795
G1 X161.319 Y201.408 E99.12846
G1 X160.817 Y200.926 E99.17707
G1 X7.558 Y47.669 E114.31552
G1 X6.825 Y46.932 E114.38812
G1 X6.357 Y46.451 E114.435
G1 X5.933 Y45.958 E114.48042
G1 X5.573 Y45.418 E114.52575
G1 X5.283 Y44.837 E114.5711
G1 X5.066 Y44.224 E114.61652
G1 X4.925 Y43.59 E114.66188
G1 X4.864 Y42.943 E114.70728
G1 X4.882 Y42.294 E114.75262
G1 X4.981 Y41.652 E114.79799
G1 X5.157 Y41.027 E114.84335
G1 X5.408 Y40.428 E114.88871
G1 X5.732 Y39.864 E114.93414
G1 X6.315 Y39.13 E114.99961
G1 X6.66 Y38.77 E115.03444
G1 X24.895 Y20.531 E116.83584
M204 S3000
M205 X10 Y10
G0 F3000 X38.272 Y13.619
M204 S1800
M205 X8 Y8
;TYPE:SUPPORT
G1 F1800 X39.125 Y12.764 E116.9202
G1 X52.873 Y26.512 E118.27819
G1 X51.773 Y27.612 E118.38685
G1 X51.773 Y28.242 E118.43085
G1 X192.879 Y169.347 E132.36891
G1 X164.99 Y197.236 E135.12372
G1 X13.93 Y46.175 E150.04511
G1 X42.133 Y17.972 E152.83093
G1 X42.133 Y17.242 E152.88192
G1 X40.441 Y15.55 E153.04905
G1 X40.441 Y15.127 E153.07859
G1 X38.933 Y13.619 E153.22755
G1 X38.272 Y13.619 E153.27372
M204 S3000
M205 X10 Y10
G1 F2400 E147.27372
G0 F3000 X40.122 Y15.259
G0 X38.302 Y22.114
M204 S1800
M205 X8 Y8
G1 F2400 E153.27372
G1 F1800 X54.935 Y31.717 E154.61519
M204 S3000
M205 X10 Y10
G0 F3000 X58.643 Y35.424
M204 S1800
M205 X8 Y8
G1 F1800 X23.678 Y55.611 E157.43517
M204 S3000
M205 X10 Y10
G0 F3000 X60 Y36.781
M204 S1800
M205 X8 Y8
G1 F1800 X60 Y91.934 E161.2874
M204 S3000
M205 X10 Y10
G0 F3000 X67.6 Y99.535
M204 S1800
M205 X8 Y8
G1 F1800 X102.566 Y79.347 E164.10748
M204 S3000
M205 X10 Y10
G0 F3000 X120 Y96.781
M204 S1800
M205 X8 Y8
G1 F1800 X120 Y151.934 E167.95971
M204 S3000
M205 X10 Y10
G0 F3000 X111.523 Y143.458
M204 S1800
M205 X8 Y8
G1 F1800 X146.49 Y123.269 E170.77988
M204 S3000
M205 X10 Y10
G0 F3000 X180 Y156.78
M204 S1800
M205 X8 Y8
G1 F1800 X180 Y181.915 E172.53547
M204 S3000
M205 X10 Y10
G0 F3000 X185.52 Y176.392
M204 S1800
M205 X8 Y8
G1 F1800 X88.364 Y120.299 E180.37125
M204 S3000
M205 X10 Y10
G0 F3000 X155.445 Y187.381
M204 S1800
M205 X8 Y8
G1 F1800 X190.413 Y167.192 E183.19148
M204 S3000
M205 X10 Y10
G0 F3000 X41.653 Y17.774
M204 S1800
M205 X8 Y8
;TYPE:SUPPORT-INTERFACE
G1 F1800 X13.534 Y45.893 E185.969
G1 X12.214 Y44.573 E186.09939
G1 X40.333 Y16.453 E188.87697
G1 X40.333 Y16.165 E188.89708
G1 X40.356 Y16.143 E188.8993
G1 X41.653 Y17.44 E189.02742
G1 X41.653 Y17.774 E189.05075
M204 S3000
M205 X10 Y10
G0 F3000 X41.142 Y17.607
M204 S1800
M205 X8 Y8
G1 F1800 X13.534 Y45.215 E191.7778
G1 X12.892 Y44.573 E191.84121
G1 X40.5 Y16.965 E194.56826
G1 X41.142 Y17.607 E194.63168
M204 S3000
M205 X10 Y10
G1 F2400 E188.63168
;MESH:pcsmart0.stl
G0 F3000 X39.161 Y15.649
G0 X11.421 Y43.27
G1 F2400 E194.63168
G0 F3000 X11.49 Y43.341
M204 S1800
M205 X8 Y8
;TYPE:WALL-OUTER
G1 F1800 X11.293 Y43.538 E194.65114
G1 X11.095 Y43.34 E194.6638
G1 X10.524 Y42.769 E194.7202
G1 X15.039 Y38.251 E195.16633
G1 X16.362 Y36.93 E195.29691
G1 X19.753 Y33.537 E195.63197
G1 X21.076 Y32.216 E195.76255
G1 X24.467 Y28.823 E196.09761
G1 X25.79 Y27.502 E196.22819
G1 X29.181 Y24.109 E196.56324
G1 X30.504 Y22.788 E196.69383
G1 X33.895 Y19.395 E197.02888
G1 X35.218 Y18.074 E197.15946
G1 X38.214 Y15.077 E197.45545
G1 X38.411 Y14.879 E197.47496
G1 X38.608 Y15.076 E197.48751
G1 X38.609 Y15.077 E197.48761
G1 X39.181 Y15.649 E197.54411
G1 X11.49 Y43.341 E200.27941
M204 S3000
M205 X10 Y10
G0 F3000 X11.349 Y43.482
G0 X11.19 Y42.869
M204 S1800
M205 X8 Y8
;TYPE:SKIN
G1 F1800 X11.332 Y42.727 E200.29298
G1 X16.14 Y37.919 E200.75258
G1 X20.524 Y33.535 E201.17165
G1 X24.484 Y29.575 E201.55019
G1 X28.585 Y25.474 E201.94221
G1 X32.686 Y21.372 E202.33427
G1 X37.494 Y16.564 E202.79387
G1 X38.484 Y15.574 E202.88851
M204 S3000
M205 X10 Y10
G0 F3000 X38.39 Y15.65
G1 F2400 E196.88851
;MESH:NONMESH
G0 F600 X38.39 Y15.65 Z0.6
G0 F3000 X38.383 Y13.394
;TIME_ELAPSED:97.193941
;LAYER:1
M106 S255
M204 S1800
M205 X8 Y8
;TYPE:SUPPORT
G1 F2400 E202.88851
G1 F2700 X39.126 Y12.651 E202.94093
G1 X52.986 Y26.51 E203.91879
G1 X51.853 Y27.645 E203.9988
G1 X51.853 Y28.209 E204.02694
G1 X192.992 Y169.346 E213.98499
G1 X164.991 Y197.349 E215.96068
G1 X14.227 Y46.587 E226.59782
G1 X42.465 Y18.351 E228.5901
G1 X42.465 Y17.687 E228.62322
G1 X40.771 Y15.993 E228.74274
G1 X40.533 Y16.091 E228.75559
G1 X40.533 Y16.038 E228.75823
G1 X40.368 Y15.873 E228.76987
G1 X40.721 Y15.519 E228.79481
G1 X38.596 Y13.394 E228.94474
G1 X38.383 Y13.394 E228.95537
M204 S3000
M205 X10 Y10
G1 F2400 E222.95537
G0 F4500 X40.794 Y15.93
G0 X38.681 Y22.333
M204 S1800
M205 X8 Y8
G1 F2400 E228.95537
G1 F2700 X55.468 Y32.025 E229.92244
M204 S3000
M205 X10 Y10
G0 F4500 X58.786 Y35.341
M204 S1800
M205 X8 Y8
G1 F2700 X23.533 Y55.695 E231.95332
M204 S3000
M205 X10 Y10
G0 F4500 X60 Y36.555
M204 S1800
M205 X8 Y8
G1 F2700 X60 Y92.162 E234.72756
M204 S3000
M205 X10 Y10
G0 F4500 X67.456 Y99.618
M204 S1800
M205 X8 Y8
G1 F2700 X102.71 Y79.264 E236.75849
M204 S3000
M205 X10 Y10
G0 F4500 X120 Y96.554
M204 S1800
M205 X8 Y8
G1 F2700 X120 Y152.161 E239.53273
M204 S3000
M205 X10 Y10
G0 F4500 X111.379 Y143.541
M204 S1800
M205 X8 Y8
G1 F2700 X146.634 Y123.186 E241.56372
M204 S3000
M205 X10 Y10
G0 F4500 X180 Y156.552
M204 S1800
M205 X8 Y8
G1 F2700 X180 Y182.142 E242.84041
M204 S3000
M205 X10 Y10
G0 F4500 X185.664 Y176.475
M204 S1800
M205 X8 Y8
G1 F2700 X87.827 Y119.989 E248.47663
M204 S3000
M205 X10 Y10
G0 F4500 X155.301 Y187.464
M204 S1800
M205 X8 Y8
G1 F2700 X190.558 Y167.109 E250.5077
M204 S3000
M205 X10 Y10
G0 F4500 X41.1 Y18.019
M204 S1800
M205 X8 Y8
;TYPE:SUPPORT-INTERFACE
G1 F2100 X13.945 Y45.173 E252.4236
G1 X13.843 Y45.071 E252.4308
G1 X40.997 Y17.916 E254.34669
G1 X41.1 Y18.019 E254.35396
M204 S3000
M205 X10 Y10
G0 F4500 X41.665 Y18.02
M204 S1800
M205 X8 Y8
G1 F2100 X13.945 Y45.739 E256.30972
G1 X13.277 Y45.071 E256.35685
G1 X40.997 Y17.35 E258.31268
G1 X41.665 Y18.02 E258.35989
M204 S3000
M205 X10 Y10
G0 F4500 X42.065 Y18.186
M204 S1800
M205 X8 Y8
G1 F2100 X13.945 Y46.305 E260.34387
G1 X12.711 Y45.071 E260.43093
G1 X40.83 Y16.95 E262.41495
G1 X40.83 Y16.618 E262.43152
G1 X42.065 Y17.852 E262.51862
G1 X42.065 Y18.186 E262.53528
M204 S3000
M205 X10 Y10
G1 F2400 E256.53528
;MESH:pcsmart0.stl
G0 F4500 X40.252 Y17.191
G0 X39.347 Y16.287
G0 X12.073 Y43.017
M204 S1800
M205 X8 Y8
;TYPE:WALL-INNER
G1 F2400 E262.53528
G1 F2700 X11.932 Y43.158 E262.54523
G1 X11.791 Y43.017 E262.55165
G1 X11.271 Y42.497 E262.58834
G1 X15.27 Y38.496 E262.87056
G1 X15.485 Y38.285 E262.88559
G1 X19.984 Y33.782 E263.20316
G1 X20.199 Y33.571 E263.21819
G1 X24.698 Y29.068 E263.53576
G1 X24.913 Y28.857 E263.55079
G1 X29.412 Y24.354 E263.86836
G1 X29.627 Y24.143 E263.88339
G1 X34.126 Y19.64 E264.20096
G1 X34.341 Y19.429 E264.21599
G1 X37.999 Y15.767 E264.47422
G1 X38.14 Y15.626 E264.48417
G1 X38.281 Y15.767 E264.49059
G1 X38.801 Y16.287 E264.52728
G1 X12.073 Y43.017 E266.41316
M204 S3000
M205 X10 Y10
G0 F4500 X12.073 Y43.583
M204 S1800
M205 X8 Y8
G1 F2700 X11.932 Y43.724 E266.4231
G1 X11.791 Y43.583 E266.42953
G1 X10.705 Y42.497 E266.50615
G1 X14.99 Y38.21 E266.80855
G1 X15.203 Y38.001 E266.82344
G1 X19.704 Y33.496 E267.14115
G1 X19.917 Y33.287 E267.15604
G1 X24.418 Y28.782 E267.47375
G1 X24.631 Y28.573 E267.48864
G1 X29.132 Y24.068 E267.80635
G1 X29.345 Y23.859 E267.82124
G1 X33.846 Y19.354 E268.13895
G1 X34.059 Y19.145 E268.15383
G1 X37.999 Y15.201 E268.43196
G1 X38.14 Y15.06 E268.44191
G1 X38.281 Y15.201 E268.44834
G1 X39.367 Y16.287 E268.52496
G1 X12.073 Y43.583 E270.45077
M204 S3000
M205 X10 Y10
G0 F4500 X12.073 Y44.149
M204 S1800
M205 X8 Y8
;TYPE:WALL-OUTER
G1 F2700 X11.932 Y44.29 E270.46072
G1 X11.791 Y44.149 E270.46714
G1 X10.139 Y42.497 E270.5837
G1 X14.71 Y37.924 E270.90628
G1 X14.921 Y37.717 E270.92102
G1 X19.424 Y33.21 E271.23888
G1 X19.635 Y33.003 E271.25362
G1 X24.138 Y28.496 E271.57148
G1 X24.349 Y28.289 E271.58622
G1 X28.852 Y23.782 E271.90407
G1 X29.063 Y23.575 E271.91882
G1 X33.566 Y19.068 E272.23667
G1 X33.777 Y18.861 E272.25142
G1 X37.999 Y14.635 E272.54945
G1 X38.14 Y14.494 E272.55939
G1 X38.281 Y14.635 E272.56582
G1 X39.933 Y16.287 E272.68238
G1 X12.073 Y44.149 E274.64812
M204 S3000
M205 X10 Y10
