;FLAVOR:Marlin
;TIME:884
;Filament used: 0.839304m
;Layer height: 0.3
;MINX:79.333
;MINY:92.441
;MINZ:0.3
;MAXX:130.778
;MAXY:117.904
;MAXZ:33
;Generated with Cura_SteamEngine 4.11.0
M140 S60
M105
M190 S60
M104 S200
M105
M109 S200
M82 ;absolute extrusion mode
G21 ;metric values
G90 ;absolute positioning
M82 ;set extruder to absolute mode
M107 ;start with the fan off
G28 X0 Y0 ;move X/Y to min endstops
G28 Z0 ;move Z to min endstops
G1 Z15.0 F100 ;move the platform down 15mm
G92 E0 ;zero the extruded length
G1 F200 E3 ;extrude 3mm of feed stock
G92 E0 ;zero the extruded length again
G1 F100
G0 Y20 F100
M117 Printing...
G5
G92 E0
G92 E0
G1 F2400 E-6
;LAYER_COUNT:110
;LAYER:0
M107
M204 S3000
M205 X10 Y10
G1 F600 Z0.375
G0 F3000 X82.46 Y94.541 Z0.375
M204 S1800
M205 X8 Y8
;TYPE:SKIRT
G1 F600 Z0.3
G1 F2400 E0
G1 X83.01 Y94.083 E0.04999
G1 X83.741 Y93.593 E0.11146
G1 X84.438 Y93.2 E0.16735
G1 X84.568 Y93.137 E0.17744
G1 X85.228 Y92.861 E0.2274
G1 X85.915 Y92.661 E0.27738
G1 X86.619 Y92.539 E0.32728
G1 X87.333 Y92.496 E0.37725
G1 X88.048 Y92.533 E0.42725
G1 X88.781 Y92.612 E0.47875
G1 X91.404 Y92.857 E0.66275
G1 X94.075 Y93.031 E0.8497
G1 X96.716 Y93.127 E1.03429
G1 X99.358 Y93.148 E1.21883
G1 X102.005 Y93.095 E1.40375
G1 X104.672 Y92.966 E1.59025
G1 X107.288 Y92.765 E1.7735
G1 X108.642 Y92.616 E1.86865
G1 X108.903 Y92.602 E1.8869
G1 X110.09 Y92.478 E1.97026
G1 X110.511 Y92.446 E1.99975
G1 X111.227 Y92.441 E2.04976
G1 X111.938 Y92.516 E2.0997
G1 X112.807 Y92.72 E2.16205
G1 X113.12 Y92.817 E2.18493
G1 X113.791 Y93.066 E2.23492
G1 X114.429 Y93.389 E2.28487
G1 X115.095 Y93.828 E2.34059
G1 X116.174 Y94.631 E2.43453
G1 X118.404 Y96.243 E2.62672
G1 X120.585 Y97.726 E2.81093
G1 X122.148 Y98.728 E2.94061
G1 X123.326 Y99.479 E3.03819
G1 X123.913 Y99.902 E3.08872
G1 X124.451 Y100.386 E3.13927
G1 X124.642 Y100.579 E3.15824
G1 X126.602 Y102.508 E3.35032
G1 X128.176 Y103.979 E3.50079
G1 X128.494 Y104.269 E3.53085
G1 X128.994 Y104.78 E3.58079
G1 X129.435 Y105.343 E3.63074
G1 X129.81 Y105.952 E3.68069
G1 X130.115 Y106.599 E3.73065
G1 X130.319 Y107.185 E3.77399
G1 X130.475 Y107.713 E3.81244
G1 X130.645 Y108.444 E3.86486
G1 X130.686 Y108.683 E3.8818
G1 X130.768 Y109.405 E3.93255
G1 X130.772 Y109.476 E3.93752
G1 X130.778 Y110.059 E3.97824
G1 X130.771 Y110.26 E3.99229
G1 X130.697 Y111.032 E4.04646
G1 X130.597 Y111.617 E4.08791
G1 X130.425 Y112.311 E4.13785
G1 X130.165 Y113.007 E4.18975
G1 X129.941 Y113.515 E4.22853
G1 X129.616 Y114.152 E4.27847
G1 X129.085 Y114.928 E4.34415
G1 X128.926 Y115.127 E4.36194
G1 X128.449 Y115.66 E4.4119
G1 X127.916 Y116.136 E4.46181
G1 X127.332 Y116.55 E4.51181
G1 X126.57 Y116.96 E4.57225
G1 X126.028 Y117.205 E4.61379
G1 X125.655 Y117.365 E4.64214
G1 X124.983 Y117.61 E4.6921
G1 X124.288 Y117.778 E4.74204
G1 X123.345 Y117.879 E4.80829
G1 X122.774 Y117.898 E4.84819
G1 X122.58 Y117.902 E4.86174
G1 X121.456 Y117.904 E4.94025
G1 X120.686 Y117.885 E4.99405
G1 X119.433 Y117.809 E5.08173
G1 X119.128 Y117.787 E5.10308
G1 X116.408 Y117.66 E5.29327
G1 X116.006 Y117.629 E5.32144
G1 X114.898 Y117.507 E5.39929
G1 X113.454 Y117.32 E5.50099
G1 X113.264 Y117.292 E5.51441
G1 X110.563 Y116.975 E5.70436
G1 X109.572 Y116.87 E5.77396
G1 X108.866 Y116.755 E5.82392
G1 X105.47 Y115.842 E6.06954
G1 X102.888 Y115.224 E6.25498
G1 X102.704 Y115.185 E6.26812
G1 X101.62 Y114.939 E6.34576
G1 X101.101 Y114.798 E6.38332
G1 X100.313 Y114.548 E6.44106
G1 X100.122 Y114.484 E6.45513
G1 X99.502 Y114.265 E6.50106
G1 X97.939 Y113.688 E6.61743
G1 X95.977 Y113.04 E6.76175
G1 X94.682 Y112.6 E6.85728
G1 X94.178 Y112.405 E6.89502
G1 X93.956 Y112.306 E6.912
G1 X92.302 Y111.548 E7.03908
G1 X91.678 Y111.27 E7.0868
G1 X91.315 Y111.099 E7.11482
G1 X88.887 Y109.976 E7.30167
G1 X86.984 Y109.153 E7.44648
G1 X86.386 Y108.901 E7.49181
G1 X85.743 Y108.587 E7.54179
G1 X85.279 Y108.3 E7.5799
G1 X84.914 Y108.043 E7.61108
G1 X84.292 Y107.576 E7.6654
G1 X82.125 Y105.991 E7.85293
G1 X81.572 Y105.537 E7.9029
G1 X81.073 Y105.024 E7.95289
G1 X80.634 Y104.458 E8.00292
G1 X80.345 Y104.014 E8.03992
G1 X80.233 Y103.826 E8.0552
G1 X79.902 Y103.192 E8.10516
G1 X79.643 Y102.525 E8.15514
G1 X79.461 Y101.833 E8.20511
G1 X79.357 Y101.125 E8.25509
G1 X79.333 Y100.41 E8.30506
G1 X79.388 Y99.697 E8.35501
G1 X79.523 Y98.995 E8.40494
G1 X79.735 Y98.312 E8.45489
G1 X80.022 Y97.657 E8.50484
G1 X80.381 Y97.038 E8.55482
G1 X80.733 Y96.552 E8.59673
G1 X81.369 Y95.759 E8.66773
G1 X81.553 Y95.539 E8.68777
G1 X81.965 Y95.058 E8.732
G1 X82.46 Y94.541 E8.782
M204 S3000
M205 X10 Y10
G0 F3000 X82.865 Y94.93
M204 S1800
M205 X8 Y8
G1 F2400 X83.643 Y94.325 E8.85083
G1 X84.046 Y94.063 E8.88441
G1 X84.682 Y93.704 E8.93542
G1 X84.812 Y93.641 E8.94551
G1 X85.443 Y93.379 E8.99323
G1 X86.101 Y93.193 E9.04099
G1 X86.775 Y93.085 E9.08867
G1 X87.458 Y93.057 E9.13641
G1 X87.988 Y93.09 E9.1735
G1 X88.671 Y93.164 E9.22148
G1 X91.385 Y93.417 E9.41187
G1 X94.054 Y93.59 E9.59868
G1 X96.691 Y93.687 E9.78299
G1 X99.365 Y93.708 E9.96976
G1 X102.044 Y93.654 E10.15692
G1 X104.672 Y93.528 E10.34069
G1 X107.33 Y93.323 E10.52689
G1 X108.703 Y93.172 E10.62337
G1 X108.942 Y93.16 E10.64008
G1 X110.148 Y93.034 E10.72477
G1 X110.546 Y93.005 E10.75265
G1 X111.23 Y93.002 E10.80042
G1 X111.909 Y93.078 E10.84814
G1 X112.642 Y93.255 E10.90081
G1 X112.955 Y93.352 E10.9237
G1 X113.594 Y93.592 E10.97138
G1 X114.441 Y94.055 E11.0388
G1 X114.761 Y94.277 E11.066
G1 X115.846 Y95.085 E11.16049
G1 X118.088 Y96.706 E11.35373
G1 X120.253 Y98.178 E11.53659
G1 X121.859 Y99.209 E11.66989
G1 X123.025 Y99.952 E11.76646
G1 X123.561 Y100.337 E11.81255
G1 X123.582 Y100.354 E11.81444
G1 X124.053 Y100.78 E11.85879
G1 X124.299 Y101.028 E11.88319
G1 X126.202 Y102.901 E12.06969
G1 X127.824 Y104.417 E12.22476
G1 X128.116 Y104.683 E12.25235
G1 X128.593 Y105.172 E12.30006
G1 X129.01 Y105.714 E12.34783
G1 X129.36 Y106.3 E12.3955
G1 X129.64 Y106.923 E12.44321
G1 X129.782 Y107.343 E12.47418
G1 X129.938 Y107.871 E12.51263
G1 X130.093 Y108.539 E12.56053
G1 X130.134 Y108.778 E12.57746
G1 X130.209 Y109.437 E12.62379
G1 X130.213 Y109.508 E12.62876
G1 X130.218 Y110.039 E12.66585
G1 X130.211 Y110.24 E12.67989
G1 X130.144 Y110.945 E12.72936
G1 X130.047 Y111.513 E12.76961
G1 X129.881 Y112.175 E12.81728
G1 X129.653 Y112.781 E12.8625
G1 X129.429 Y113.289 E12.90128
G1 X129.117 Y113.897 E12.94901
G1 X128.648 Y114.578 E13.00676
G1 X128.489 Y114.777 E13.02455
G1 X128.032 Y115.285 E13.07228
G1 X127.518 Y115.736 E13.12004
G1 X126.956 Y116.124 E13.16774
G1 X126.339 Y116.45 E13.21648
G1 X125.807 Y116.69 E13.25725
G1 X125.434 Y116.85 E13.2856
G1 X124.792 Y117.082 E13.33327
G1 X124.126 Y117.238 E13.38105
G1 X123.326 Y117.32 E13.43722
G1 X122.755 Y117.339 E13.47713
G1 X122.579 Y117.342 E13.48942
G1 X121.465 Y117.344 E13.56723
G1 X120.72 Y117.326 E13.61928
G1 X119.474 Y117.25 E13.70647
G1 X119.193 Y117.229 E13.72615
G1 X116.435 Y117.101 E13.919
G1 X116.067 Y117.072 E13.94478
G1 X114.849 Y116.937 E14.03037
G1 X113.536 Y116.766 E14.12285
G1 X113.346 Y116.738 E14.13627
G1 X110.629 Y116.419 E14.32734
G1 X109.631 Y116.313 E14.39744
G1 X108.646 Y116.122 E14.46752
G1 X108.254 Y116.01 E14.496
G1 X105.601 Y115.297 E14.68788
G1 X103.044 Y114.684 E14.87153
G1 X102.828 Y114.639 E14.88694
G1 X101.744 Y114.393 E14.96458
G1 X101.27 Y114.265 E14.99888
G1 X100.482 Y114.015 E15.05662
G1 X100.308 Y113.956 E15.06945
G1 X99.696 Y113.74 E15.11478
G1 X98.132 Y113.162 E15.23124
G1 X96.157 Y112.51 E15.37651
G1 X94.862 Y112.07 E15.47204
G1 X94.284 Y111.839 E15.51552
G1 X92.53 Y111.037 E15.65023
G1 X91.906 Y110.759 E15.69794
G1 X91.623 Y110.625 E15.71981
G1 X89.11 Y109.462 E15.91322
G1 X87.201 Y108.637 E16.05847
G1 X86.603 Y108.385 E16.1038
G1 X85.99 Y108.083 E16.15153
G1 X85.478 Y107.758 E16.19389
G1 X85.25 Y107.595 E16.21346
G1 X84.622 Y107.124 E16.26829
G1 X82.455 Y105.539 E16.45582
G1 X81.928 Y105.104 E16.50354
G1 X81.456 Y104.61 E16.55127
G1 X81.095 Y104.141 E16.5926
G1 X80.714 Y103.539 E16.64237
G1 X80.399 Y102.933 E16.69007
G1 X80.157 Y102.294 E16.73779
G1 X79.992 Y101.631 E16.78551
G1 X79.905 Y100.953 E16.83326
G1 X79.898 Y100.27 E16.88097
G1 X79.97 Y99.59 E16.92873
G1 X80.122 Y98.924 E16.97644
G1 X80.35 Y98.28 E17.02416
G1 X80.652 Y97.667 E17.07189
G1 X81.171 Y96.902 E17.13646
G1 X81.8 Y96.117 E17.20672
G1 X81.979 Y95.903 E17.2262
G1 X82.391 Y95.422 E17.27044
G1 X82.865 Y94.93 E17.31816
M204 S3000
M205 X10 Y10
G0 F3000 X83.268 Y95.32
M204 S1800
M205 X8 Y8
G1 F2400 X83.948 Y94.794 E17.3782
G1 X84.351 Y94.532 E17.41178
G1 X84.926 Y94.208 E17.45787
G1 X85.056 Y94.145 E17.46796
G1 X85.657 Y93.898 E17.51335
G1 X86.284 Y93.727 E17.55874
G1 X86.927 Y93.634 E17.60412
G1 X87.576 Y93.62 E17.64946
G1 X87.927 Y93.647 E17.67405
G1 X88.621 Y93.722 E17.72281
G1 X91.332 Y93.975 E17.91298
G1 X94.034 Y94.15 E18.1021
G1 X96.666 Y94.246 E18.28606
G1 X99.372 Y94.268 E18.47507
G1 X102.046 Y94.215 E18.66188
G1 X104.742 Y94.085 E18.8504
G1 X107.376 Y93.882 E19.03492
G1 X108.765 Y93.729 E19.13252
G1 X108.988 Y93.718 E19.14812
G1 X110.206 Y93.591 E19.23365
G1 X110.582 Y93.563 E19.25999
G1 X111.231 Y93.563 E19.30532
G1 X111.876 Y93.642 E19.3507
G1 X112.476 Y93.79 E19.39387
G1 X112.789 Y93.887 E19.41676
G1 X113.396 Y94.117 E19.46209
G1 X114.133 Y94.522 E19.52083
G1 X114.426 Y94.726 E19.54577
G1 X115.548 Y95.562 E19.6435
G1 X117.746 Y97.151 E19.83294
G1 X119.972 Y98.664 E20.02093
G1 X121.546 Y99.673 E20.15152
G1 X122.724 Y100.424 E20.24909
G1 X123.208 Y100.772 E20.29073
G1 X123.656 Y101.175 E20.33282
G1 X123.857 Y101.378 E20.35277
G1 X125.823 Y103.313 E20.54544
G1 X127.462 Y104.844 E20.7021
G1 X127.739 Y105.097 E20.7283
G1 X128.191 Y105.563 E20.77364
G1 X128.582 Y106.082 E20.81903
G1 X128.907 Y106.644 E20.86437
G1 X129.245 Y107.502 E20.92879
G1 X129.401 Y108.03 E20.96724
G1 X129.541 Y108.633 E21.01048
G1 X129.582 Y108.872 E21.02741
G1 X129.65 Y109.468 E21.06931
G1 X129.659 Y110.02 E21.10787
G1 X129.652 Y110.221 E21.12192
G1 X129.591 Y110.858 E21.16662
G1 X129.497 Y111.408 E21.20559
G1 X129.337 Y112.038 E21.25099
G1 X129.14 Y112.555 E21.28963
G1 X128.916 Y113.063 E21.32841
G1 X128.618 Y113.64 E21.37377
G1 X128.21 Y114.229 E21.42381
G1 X128.051 Y114.428 E21.44161
G1 X127.615 Y114.909 E21.48695
G1 X127.123 Y115.334 E21.53236
G1 X126.583 Y115.695 E21.57773
G1 X126.107 Y115.94 E21.61512
G1 X125.586 Y116.175 E21.65504
G1 X125.213 Y116.335 E21.68339
G1 X124.602 Y116.554 E21.72872
G1 X123.968 Y116.696 E21.7741
G1 X123.308 Y116.76 E21.82042
G1 X122.737 Y116.779 E21.86032
G1 X122.577 Y116.782 E21.8715
G1 X121.474 Y116.784 E21.94854
G1 X120.753 Y116.767 E21.99891
G1 X119.515 Y116.692 E22.08554
G1 X119.186 Y116.668 E22.10858
G1 X116.461 Y116.541 E22.29912
G1 X116.128 Y116.515 E22.32245
G1 X114.921 Y116.381 E22.40727
G1 X113.618 Y116.212 E22.49905
G1 X113.428 Y116.184 E22.51246
G1 X110.73 Y115.867 E22.7022
G1 X109.69 Y115.757 E22.77525
G1 X108.799 Y115.584 E22.83864
G1 X108.336 Y115.452 E22.87227
G1 X105.767 Y114.762 E23.05806
G1 X103.145 Y114.133 E23.2464
G1 X102.951 Y114.093 E23.26023
G1 X101.867 Y113.847 E23.33787
G1 X101.439 Y113.731 E23.36884
G1 X100.651 Y113.481 E23.42659
G1 X100.494 Y113.428 E23.43816
G1 X99.89 Y113.215 E23.48289
G1 X98.299 Y112.627 E23.60136
G1 X96.337 Y111.979 E23.74568
G1 X95.042 Y111.539 E23.84121
G1 X94.508 Y111.326 E23.88137
G1 X92.729 Y110.512 E24.01801
G1 X92.134 Y110.247 E24.06351
G1 X91.858 Y110.117 E24.08482
G1 X89.318 Y108.941 E24.28032
G1 X87.419 Y108.121 E24.4248
G1 X86.821 Y107.869 E24.47012
G1 X86.239 Y107.58 E24.51551
G1 X85.792 Y107.295 E24.55253
G1 X85.586 Y107.148 E24.57021
G1 X84.9 Y106.633 E24.63012
G1 X82.786 Y105.087 E24.81305
G1 X82.286 Y104.672 E24.85844
G1 X81.841 Y104.198 E24.90385
G1 X81.496 Y103.736 E24.94412
G1 X81.195 Y103.252 E24.98393
G1 X80.897 Y102.675 E25.02929
G1 X80.673 Y102.065 E25.07468
G1 X80.525 Y101.433 E25.12001
G1 X80.456 Y100.787 E25.16539
G1 X80.467 Y100.137 E25.2108
G1 X80.558 Y99.494 E25.25616
G1 X80.727 Y98.867 E25.30151
G1 X80.971 Y98.265 E25.34688
G1 X81.288 Y97.698 E25.39226
G1 X81.608 Y97.252 E25.4306
G1 X82.23 Y96.475 E25.50011
G1 X82.404 Y96.267 E25.51905
G1 X82.816 Y95.786 E25.56329
G1 X83.268 Y95.32 E25.60863
M204 S3000
M205 X10 Y10
G0 F3000 X87.021 Y99.41
M204 S1800
M205 X8 Y8
;TYPE:SUPPORT
G1 F1800 X87.298 Y99.237 E25.63145
G1 X87.414 Y99.35 E25.64276
G1 X87.654 Y99.72 E25.67356
G1 X89.827 Y100.92 E25.84694
G1 X91.905 Y102.661 E26.03629
G1 X92.624 Y102.913 E26.0895
G1 X93.059 Y103.097 E26.12249
G1 X93.221 Y103.436 E26.14874
G1 X94.368 Y104.178 E26.24415
G1 X96.339 Y105.405 E26.40632
G1 X96.955 Y105.256 E26.45058
G1 X96.97 Y105.232 E26.45256
G1 X97.152 Y105.47 E26.47348
G1 X97.136 Y105.815 E26.49761
G1 X96.838 Y106.062 E26.52464
G1 X96.741 Y106.222 E26.53771
G1 X95.071 Y105.185 E26.67501
G1 X94.407 Y105.16 E26.72142
G1 X93.499 Y104.207 E26.81336
G1 X89.655 Y102.268 E27.11408
G1 X89.077 Y102.374 E27.15512
G1 X88.834 Y102.642 E27.18039
G1 X88.78 Y102.603 E27.18504
G1 X88.662 Y102.142 E27.21828
G1 X86.594 Y100.977 E27.38406
G1 X86.105 Y100.639 E27.42558
G1 X86.06 Y100.566 E27.43157
G1 X87.021 Y99.41 E27.53657
M204 S3000
M205 X10 Y10
G0 F3000 X102.22 Y106.568
M204 S1800
M205 X8 Y8
G1 F1800 X102.689 Y106.149 E27.5805
G1 X102.801 Y106.217 E27.58965
G1 X104.461 Y106.446 E27.70669
G1 X106.252 Y105.998 E27.83564
G1 X106.633 Y105.577 E27.8753
G1 X106.711 Y105.057 E27.91203
G1 X107.047 Y104.674 E27.94761
G1 X107.222 Y103.877 E28.00461
G1 X107.617 Y103.535 E28.0411
G1 X108.076 Y102.17 E28.14169
G1 X108.595 Y101.912 E28.18217
G1 X109.254 Y100.091 E28.31743
G1 X110.383 Y99.701 E28.40086
G1 X110.693 Y99.165 E28.44411
G1 X110.902 Y99.104 E28.45932
G1 X111.085 Y99.164 E28.47277
G1 X111.194 Y99.292 E28.48451
G1 X111.507 Y100.076 E28.54347
G1 X111.182 Y100.543 E28.58321
G1 X111.238 Y101.145 E28.62544
G1 X112.177 Y102.057 E28.71687
G1 X112.17 Y102.076 E28.71828
G1 X112.307 Y102.599 E28.75604
G1 X112.304 Y102.605 E28.75651
G1 X112.464 Y103.145 E28.79585
G1 X112.398 Y103.401 E28.81432
G1 X112.566 Y103.933 E28.85328
G1 X114.052 Y105.21 E28.99013
G1 X114.223 Y105.323 E29.00445
G1 X114.284 Y105.815 E29.03908
G1 X115.16 Y106.497 E29.11662
G1 X115.036 Y107.868 E29.21277
G1 X115.179 Y107.911 E29.2232
G1 X115.291 Y108.517 E29.26624
G1 X115.37 Y108.684 E29.27915
G1 X115.791 Y109.257 E29.32881
G1 X116.671 Y109.265 E29.39028
G1 X117.157 Y108.631 E29.44607
G1 X117.348 Y108.201 E29.47894
G1 X117.844 Y108.587 E29.52284
G1 X118.499 Y108.402 E29.57037
G1 X119.593 Y105.512 E29.78621
G1 X119.416 Y107.106 E29.89823
G1 X119.655 Y107.611 E29.93725
G1 X121.743 Y108.969 E30.11122
G1 X122.148 Y108.951 E30.13954
G1 X122.537 Y109.366 E30.17927
G1 X123.057 Y109.53 E30.21735
G1 X124.001 Y109.331 E30.28473
G1 X124.099 Y109.687 E30.31053
G1 X124.117 Y109.955 E30.32929
G1 X124.044 Y110.374 E30.35899
G1 X123.809 Y110.88 E30.39796
G1 X123.325 Y111.067 E30.4342
G1 X123.048 Y111.22 E30.4563
G1 X122.278 Y111.233 E30.51009
G1 X121.574 Y111.148 E30.55962
G1 X121.1 Y111.221 E30.59312
G1 X120.951 Y111.179 E30.60393
G1 X120.106 Y110.492 E30.68
G1 X119.565 Y110.404 E30.71828
G1 X118.134 Y110.945 E30.82514
G1 X117.975 Y110.99 E30.83668
G1 X117.621 Y110.911 E30.86201
G1 X116.838 Y110.985 E30.91694
G1 X116.819 Y110.963 E30.91897
G1 X116.32 Y110.766 E30.95645
G1 X115.594 Y110.847 E31.00747
G1 X115.466 Y110.707 E31.02072
G1 X111.804 Y110.256 E31.27843
G1 X111.693 Y110.273 E31.28627
G1 X111.326 Y110.119 E31.31407
G1 X110.278 Y110.23 E31.38768
G1 X110.055 Y110.15 E31.40423
G1 X110.169 Y109.317 E31.46295
G1 X109.71 Y108.831 E31.50964
G1 X107.241 Y109.025 E31.68262
G1 X106.748 Y108.931 E31.71768
G1 X104.693 Y107.972 E31.87607
G1 X104.161 Y107.991 E31.91325
G1 X104.055 Y108.049 E31.92169
G1 X103.515 Y108.031 E31.95943
G1 X103.086 Y108.332 E31.99604
G1 X103.007 Y108.236 E32.00472
G1 X102.305 Y108.166 E32.05399
G1 X102.167 Y108.031 E32.06748
G1 X102.057 Y107.735 E32.08953
G1 X102.026 Y107.211 E32.1262
G1 X102.102 Y106.829 E32.1534
G1 X102.22 Y106.568 E32.17341
M204 S3000
M205 X10 Y10
G1 F2400 E26.17341
G0 F3000 X116.868 Y107.926
G0 X120 Y108.098
M204 S1800
M205 X8 Y8
G1 F2400 E32.17341
G1 F1800 X120 Y110.252 E32.32386
M204 S3000
M205 X10 Y10
G0 F3000 X116.76 Y108.36
M204 S1800
M205 X8 Y8
;TYPE:SUPPORT-INTERFACE
