;FLAVOR:Marlin
;TIME:39
;Filament used: 0.0177609m
;Layer height: 0.2
;MINX:99.101
;MINY:95.461
;MINZ:0.2
;MAXX:113.789
;MAXY:106.694
;MAXZ:8.8
;Generated with Cura_SteamEngine 4.11.0
M140 S60
M105
M190 S60
M104 S200
M105
M109 S200
M82 ;absolute extrusion mode
G21 ;metric values
G90 ;absolute positioning
M82 ;set extruder to absolute mode
M107 ;start with the fan off
G28 X0 Y0 ;move X/Y to min endstops
G28 Z0 ;move Z to min endstops
G1 Z15.0 F100 ;move the platform down 15mm
G92 E0 ;zero the extruded length
G1 F200 E3 ;extrude 3mm of feed stock
G92 E0 ;zero the extruded length again
G1 F100
G0 Y20 F100
M117 Printing...
G5
G92 E0
G92 E0
G1 F2400 E-6
;LAYER_COUNT:52
;LAYER:0
M107
M204 S3000
M205 X10 Y10
G1 F600 Z0.275
G0 F3000 X100.761 Y96.71 Z0.275
M204 S1800
M205 X8 Y8
;TYPE:SKIRT
G1 F600 Z0.2
G1 F2400 E0
G1 X101.242 Y96.324 E0.02872
G1 X101.769 Y96.003 E0.05745
G1 X102.333 Y95.753 E0.08618
G1 X102.924 Y95.578 E0.11488
G1 X103.533 Y95.482 E0.14359
G1 X104.375 Y95.461 E0.1828
G1 X104.99 Y95.501 E0.2115
G1 X105.596 Y95.62 E0.24026
G1 X106.18 Y95.817 E0.26896
G1 X106.429 Y95.948 E0.28206
G1 X106.994 Y95.713 E0.31055
G1 X107.589 Y95.553 E0.33924
G1 X108.201 Y95.47 E0.368
G1 X108.94 Y95.461 E0.40241
G1 X109.555 Y95.504 E0.43112
G1 X110.159 Y95.627 E0.45982
G1 X110.743 Y95.826 E0.48855
G1 X111.296 Y96.099 E0.51727
G1 X111.809 Y96.442 E0.546
G1 X112.273 Y96.848 E0.57471
G1 X112.681 Y97.31 E0.60341
G1 X113.035 Y97.837 E0.63298
G1 X113.149 Y98.034 E0.64357
G1 X113.423 Y98.587 E0.67231
G1 X113.623 Y99.17 E0.70101
G1 X113.745 Y99.774 E0.7297
G1 X113.789 Y100.39 E0.75846
G1 X113.753 Y101.005 E0.78715
G1 X113.637 Y101.611 E0.81588
G1 X113.444 Y102.197 E0.84461
G1 X113.185 Y102.739 E0.87258
G1 X112.875 Y103.294 E0.90218
G1 X112.455 Y103.923 E0.9374
G1 X112.211 Y104.21 E0.95494
G1 X111.832 Y104.623 E0.98104
G1 X111.565 Y104.893 E0.99872
G1 X111.115 Y105.265 E1.02591
G1 X110.704 Y105.565 E1.0496
G1 X110.184 Y105.895 E1.07828
G1 X109.625 Y106.156 E1.107
G1 X109.037 Y106.342 E1.13572
G1 X108.429 Y106.45 E1.16448
G1 X107.813 Y106.479 E1.19319
G1 X107.199 Y106.428 E1.22188
G1 X107.021 Y106.39 E1.23036
G1 X106.848 Y106.46 E1.23905
G1 X106.251 Y106.616 E1.26778
G1 X105.639 Y106.694 E1.29651
G1 X105.023 Y106.692 E1.32519
G1 X104.411 Y106.61 E1.35394
G1 X103.816 Y106.45 E1.38263
G1 X103.246 Y106.215 E1.41134
G1 X102.948 Y106.055 E1.42709
G1 X102.324 Y105.691 E1.46073
G1 X101.748 Y105.296 E1.49325
G1 X101.423 Y105.014 E1.51329
G1 X101.041 Y104.651 E1.53782
G1 X100.724 Y104.318 E1.55923
G1 X100.406 Y103.914 E1.58317
G1 X100.14 Y103.534 E1.60477
G1 X99.713 Y102.788 E1.6448
G1 X99.53 Y102.389 E1.66524
G1 X99.31 Y101.813 E1.69395
G1 X99.166 Y101.214 E1.72263
G1 X99.101 Y100.6 E1.75138
G1 X99.116 Y99.984 E1.78007
G1 X99.21 Y99.374 E1.80881
G1 X99.382 Y98.782 E1.83752
G1 X99.63 Y98.217 E1.86625
G1 X99.968 Y97.651 E1.89695
G1 X100.334 Y97.155 E1.92565
G1 X100.761 Y96.71 E1.95437
M204 S3000
M205 X10 Y10
G0 F3000 X101.191 Y97.076
M204 S1800
M205 X8 Y8
G1 F2400 X101.651 Y96.723 E1.98137
G1 X102.154 Y96.436 E2.00834
G1 X102.692 Y96.222 E2.0353
G1 X103.255 Y96.083 E2.0623
G1 X103.975 Y96.021 E2.09595
G1 X104.375 Y96.021 E2.11457
G1 X104.953 Y96.061 E2.14155
G1 X105.52 Y96.18 E2.16853
G1 X106.065 Y96.376 E2.1955
G1 X106.444 Y96.583 E2.21561
G1 X106.799 Y96.392 E2.23438
G1 X107.342 Y96.19 E2.26136
G1 X107.908 Y96.065 E2.28835
G1 X108.551 Y96.019 E2.31836
G1 X108.937 Y96.021 E2.33634
G1 X109.514 Y96.064 E2.36328
G1 X110.081 Y96.186 E2.39029
G1 X110.625 Y96.385 E2.41726
G1 X111.137 Y96.657 E2.44425
G1 X111.606 Y96.996 E2.4712
G1 X112.024 Y97.397 E2.49817
G1 X112.383 Y97.852 E2.52516
G1 X112.664 Y98.314 E2.55034
G1 X112.919 Y98.835 E2.57735
G1 X113.1 Y99.385 E2.60431
G1 X113.203 Y99.955 E2.63128
G1 X113.227 Y100.534 E2.65827
G1 X113.172 Y101.11 E2.68521
G1 X113.037 Y101.674 E2.71221
G1 X112.696 Y102.466 E2.75236
G1 X112.386 Y103.021 E2.78197
G1 X112.016 Y103.576 E2.81303
G1 X111.798 Y103.832 E2.82868
G1 X111.419 Y104.245 E2.85478
G1 X111.182 Y104.484 E2.87046
G1 X110.785 Y104.812 E2.89444
G1 X110.374 Y105.112 E2.91813
G1 X109.884 Y105.421 E2.9451
G1 X109.356 Y105.659 E2.97207
G1 X108.8 Y105.822 E2.99905
G1 X108.227 Y105.907 E3.02602
G1 X107.648 Y105.913 E3.05299
G1 X107.073 Y105.838 E3.07999
G1 X106.972 Y105.81 E3.08487
G1 X106.503 Y105.98 E3.1081
G1 X105.937 Y106.101 E3.13505
G1 X105.359 Y106.143 E3.16203
G1 X104.781 Y106.105 E3.18901
G1 X104.213 Y105.987 E3.21602
G1 X103.668 Y105.793 E3.24296
G1 X103.23 Y105.571 E3.26582
G1 X102.606 Y105.207 E3.29946
G1 X102.098 Y104.859 E3.32813
G1 X101.809 Y104.608 E3.34596
G1 X101.427 Y104.245 E3.37049
G1 X100.865 Y103.593 E3.41058
G1 X100.599 Y103.213 E3.43217
G1 X100.222 Y102.555 E3.46749
G1 X100.039 Y102.156 E3.48793
G1 X99.835 Y101.614 E3.51489
G1 X99.707 Y101.049 E3.54187
G1 X99.658 Y100.472 E3.56883
G1 X99.688 Y99.893 E3.59583
G1 X99.798 Y99.325 E3.62277
G1 X99.986 Y98.776 E3.64979
G1 X100.322 Y98.138 E3.68337
G1 X100.44 Y97.954 E3.69354
G1 X100.785 Y97.489 E3.72051
G1 X101.191 Y97.076 E3.74747
M204 S3000
M205 X10 Y10
G0 F3000 X101.619 Y97.446
M204 S1800
M205 X8 Y8
G1 F2400 X102.055 Y97.129 E3.77257
G1 X102.533 Y96.879 E3.79769
G1 X103.042 Y96.703 E3.82277
G1 X103.572 Y96.603 E3.84788
G1 X104.375 Y96.581 E3.88529
G1 X104.913 Y96.621 E3.91041
G1 X105.439 Y96.74 E3.93552
G1 X105.941 Y96.935 E3.9606
G1 X106.38 Y97.183 E3.98408
G1 X106.461 Y97.236 E3.98858
G1 X106.683 Y97.082 E4.00116
G1 X107.167 Y96.843 E4.0263
G1 X107.681 Y96.679 E4.05142
G1 X108.213 Y96.593 E4.07652
G1 X108.934 Y96.581 E4.11009
G1 X109.471 Y96.624 E4.13518
G1 X109.997 Y96.745 E4.16031
G1 X110.498 Y96.943 E4.1854
G1 X110.965 Y97.213 E4.21051
G1 X111.387 Y97.549 E4.23563
G1 X111.755 Y97.944 E4.26077
G1 X112.066 Y98.398 E4.28639
G1 X112.18 Y98.595 E4.29699
G1 X112.414 Y99.08 E4.32207
G1 X112.575 Y99.595 E4.34719
G1 X112.657 Y100.128 E4.3723
G1 X112.66 Y100.667 E4.3974
G1 X112.584 Y101.201 E4.42252
G1 X112.429 Y101.718 E4.44765
G1 X112.207 Y102.193 E4.47206
G1 X111.897 Y102.748 E4.50167
G1 X111.576 Y103.229 E4.52859
G1 X111.386 Y103.453 E4.54227
G1 X111.007 Y103.866 E4.56837
G1 X110.455 Y104.36 E4.60286
G1 X110.044 Y104.66 E4.62656
G1 X109.586 Y104.945 E4.65168
G1 X109.091 Y105.159 E4.67679
G1 X108.57 Y105.297 E4.70188
G1 X108.034 Y105.357 E4.727
G1 X107.495 Y105.338 E4.75211
G1 X106.965 Y105.238 E4.77723
G1 X106.91 Y105.219 E4.77994
G1 X106.683 Y105.328 E4.79166
G1 X106.168 Y105.489 E4.81679
G1 X105.636 Y105.571 E4.84185
G1 X105.096 Y105.574 E4.867
G1 X104.563 Y105.498 E4.89207
G1 X104.046 Y105.343 E4.9172
G1 X103.512 Y105.087 E4.94477
G1 X102.888 Y104.723 E4.97841
G1 X102.448 Y104.421 E5.00326
G1 X102.195 Y104.202 E5.01884
G1 X101.813 Y103.839 E5.04338
G1 X101.324 Y103.271 E5.07828
G1 X101.058 Y102.891 E5.09988
G1 X100.731 Y102.321 E5.13048
G1 X100.548 Y101.922 E5.15092
G1 X100.361 Y101.417 E5.17599
G1 X100.249 Y100.889 E5.20113
G1 X100.217 Y100.351 E5.22622
G1 X100.265 Y99.814 E5.25133
G1 X100.392 Y99.29 E5.27643
G1 X100.595 Y98.79 E5.30156
G1 X100.911 Y98.256 E5.33045
G1 X101.235 Y97.825 E5.35556
G1 X101.619 Y97.446 E5.38068
M204 S3000
M205 X10 Y10
G0 F3000 X102.043 Y97.822
M204 S1800
M205 X8 Y8
G1 F2400 X102.453 Y97.543 E5.40378
G1 X102.902 Y97.334 E5.42684
G1 X103.38 Y97.199 E5.44997
G1 X103.975 Y97.141 E5.4778
G1 X104.869 Y97.181 E5.51947
G1 X105.351 Y97.3 E5.54259
G1 X106.072 Y97.65 E5.57991
G1 X106.466 Y97.946 E5.60286
G1 X106.655 Y97.775 E5.61473
G1 X107.071 Y97.506 E5.63779
G1 X107.526 Y97.307 E5.66092
G1 X108.006 Y97.184 E5.68399
G1 X108.545 Y97.139 E5.70918
G1 X109.425 Y97.184 E5.75021
G1 X109.906 Y97.305 E5.7733
G1 X110.361 Y97.502 E5.79639
G1 X110.779 Y97.769 E5.81948
G1 X111.148 Y98.1 E5.84257
G1 X111.581 Y98.678 E5.87619
G1 X111.908 Y99.323 E5.90987
G1 X112.046 Y99.8 E5.93299
G1 X112.106 Y100.292 E5.95607
G1 X112.087 Y100.787 E5.97914
G1 X111.988 Y101.273 E6.00223
G1 X111.718 Y101.92 E6.03488
G1 X111.408 Y102.475 E6.06448
G1 X111.121 Y102.901 E6.08839
G1 X110.973 Y103.074 E6.099
G1 X110.594 Y103.487 E6.1251
G1 X110.125 Y103.908 E6.15444
G1 X109.714 Y104.208 E6.17814
G1 X109.291 Y104.467 E6.20123
G1 X108.832 Y104.655 E6.22433
G1 X108.349 Y104.767 E6.24742
G1 X107.854 Y104.8 E6.27052
G1 X107.36 Y104.753 E6.29362
G1 X106.86 Y104.618 E6.31774
G1 X106.328 Y104.862 E6.34499
G1 X105.847 Y104.982 E6.36808
G1 X105.352 Y105.023 E6.39121
G1 X104.858 Y104.984 E6.41428
G1 X104.376 Y104.866 E6.43739
G1 X103.794 Y104.603 E6.46713
G1 X103.17 Y104.239 E6.50076
G1 X102.58 Y103.796 E6.53512
G1 X102.198 Y103.433 E6.55966
G1 X101.783 Y102.95 E6.58931
G1 X101.517 Y102.57 E6.61091
G1 X101.24 Y102.088 E6.63679
G1 X100.888 Y101.223 E6.68028
G1 X100.795 Y100.736 E6.70337
G1 X100.781 Y100.24 E6.72647
G1 X100.848 Y99.748 E6.74959
G1 X100.992 Y99.274 E6.77266
G1 X101.264 Y98.742 E6.80048
G1 X101.683 Y98.164 E6.83372
G1 X102.043 Y97.822 E6.85684
M204 S3000
M205 X10 Y10
G0 F3000 X102.129 Y98.506
M204 S1800
M205 X8 Y8
G1 F2400 X102.462 Y98.206 E6.87771
G1 X102.843 Y97.97 E6.89858
G1 X103.26 Y97.805 E6.91947
G1 X103.975 Y97.701 E6.95311
G1 X104.822 Y97.741 E6.99259
G1 X105.254 Y97.859 E7.01345
G1 X105.763 Y98.118 E7.04004
G1 X106.214 Y98.463 E7.06648
G1 X106.478 Y98.763 E7.08509
G1 X106.724 Y98.46 E7.10326
G1 X107.064 Y98.168 E7.12413
G1 X107.451 Y97.941 E7.14502
G1 X107.872 Y97.786 E7.16591
G1 X108.542 Y97.699 E7.19737
G1 X109.375 Y97.743 E7.23621
G1 X109.807 Y97.864 E7.2571
G1 X110.21 Y98.059 E7.27795
G1 X110.573 Y98.323 E7.29885
G1 X110.883 Y98.647 E7.31973
G1 X111.21 Y99.156 E7.3479
G1 X111.399 Y99.563 E7.3688
G1 X111.513 Y99.996 E7.38965
G1 X111.549 Y100.443 E7.41053
G1 X111.504 Y100.89 E7.43145
G1 X111.382 Y101.321 E7.4523
G1 X111.229 Y101.647 E7.46907
G1 X110.919 Y102.202 E7.49867
G1 X110.561 Y102.696 E7.52708
G1 X110.182 Y103.109 E7.55318
G1 X109.795 Y103.455 E7.57736
G1 X109.384 Y103.755 E7.60105
G1 X108.999 Y103.987 E7.62198
G1 X108.58 Y104.146 E7.64285
G1 X108.139 Y104.228 E7.66373
G1 X107.691 Y104.231 E7.6846
G1 X107.249 Y104.155 E7.70548
G1 X106.796 Y104.004 E7.72771
G1 X106.407 Y104.229 E7.74864
G1 X105.985 Y104.381 E7.76953
G1 X105.543 Y104.455 E7.79039
G1 X105.094 Y104.45 E7.8113
G1 X104.654 Y104.366 E7.83216
G1 X104.076 Y104.12 E7.86141
G1 X103.452 Y103.756 E7.89505
G1 X102.966 Y103.39 E7.92338
G1 X102.584 Y103.027 E7.94792
G1 X102.242 Y102.629 E7.97235
G1 X101.749 Y101.855 E8.01508
G1 X101.416 Y101.033 E8.05638
G1 X101.344 Y100.59 E8.07728
G1 X101.351 Y100.142 E8.09814
G1 X101.437 Y99.702 E8.11902
G1 X101.736 Y99.045 E8.15263
G1 X102.129 Y98.506 E8.18369
M204 S3000
M205 X10 Y10
G0 F3000 X102.571 Y98.853
M204 S1800
M205 X8 Y8
G1 F2400 X102.874 Y98.599 E8.2021
G1 X103.222 Y98.411 E8.22052
G1 X103.601 Y98.297 E8.23895
G1 X104.375 Y98.261 E8.27503
G1 X104.768 Y98.301 E8.29342
G1 X105.146 Y98.419 E8.31186
G1 X105.555 Y98.651 E8.33375
G1 X105.861 Y98.901 E8.35215
G1 X106.111 Y99.208 E8.37059
G1 X106.393 Y99.783 E8.40041
G1 X106.461 Y99.849 E8.40482
G1 X106.753 Y99.347 E8.43187
G1 X107.158 Y98.818 E8.46289
G1 X107.467 Y98.571 E8.48131
G1 X107.82 Y98.392 E8.49974
G1 X108.201 Y98.287 E8.51814
G1 X108.539 Y98.259 E8.53393
G1 X109.318 Y98.303 E8.57026
G1 X109.695 Y98.423 E8.58869
G1 X110.04 Y98.616 E8.60709
G1 X110.34 Y98.875 E8.62555
G1 X110.725 Y99.436 E8.65723
G1 X110.888 Y99.797 E8.67568
G1 X110.975 Y100.183 E8.6941
G1 X110.982 Y100.578 E8.7125
G1 X110.911 Y100.967 E8.73091
G1 X110.74 Y101.374 E8.75146
G1 X110.43 Y101.929 E8.78107
G1 X110.148 Y102.317 E8.8034
G1 X109.769 Y102.73 E8.8295
G1 X109.465 Y103.003 E8.84853
G1 X109.054 Y103.303 E8.87222
G1 X108.712 Y103.503 E8.89067
G1 X108.338 Y103.63 E8.90906
G1 X107.945 Y103.679 E8.9275
G1 X107.551 Y103.649 E8.9459
G1 X107.171 Y103.54 E8.96431
G1 X106.753 Y103.3 E8.98675
G1 X106.396 Y103.598 E9.00841
G1 X106.042 Y103.775 E9.02684
G1 X105.66 Y103.878 E9.04526
G1 X105.265 Y103.901 E9.06368
G1 X104.874 Y103.845 E9.08208
G1 X104.358 Y103.636 E9.108
G1 X103.734 Y103.272 E9.14164
G1 X103.352 Y102.984 E9.16391
G1 X102.97 Y102.621 E9.18845
G1 X102.7 Y102.308 E9.2077
G1 X102.258 Y101.621 E9.24574
G1 X101.948 Y100.848 E9.28452
G1 X101.898 Y100.456 E9.30292
G1 X101.927 Y100.061 E9.32136
G1 X102.036 Y99.681 E9.33977
G1 X102.325 Y99.163 E9.36739
G1 X102.571 Y98.853 E9.38582
M204 S3000
M205 X10 Y10
G0 F3000 X103.009 Y99.208
M204 S1800
M205 X8 Y8
G1 F2400 X103.277 Y99.008 E9.40139
G1 X103.584 Y98.877 E9.41693
G1 X103.975 Y98.821 E9.43532
G1 X104.707 Y98.861 E9.46946
G1 X105.246 Y99.119 E9.49728
G1 X105.501 Y99.335 E9.51285
G1 X105.759 Y99.73 E9.53481
G1 X105.906 Y100.068 E9.55198
G1 X106.01 Y100.206 E9.56002
G1 X106.434 Y100.547 E9.58536
G1 X106.529 Y100.645 E9.59172
G1 X106.609 Y100.526 E9.59839
G1 X106.965 Y100.125 E9.62336
G1 X107.217 Y99.66 E9.64799
G1 X107.588 Y99.183 E9.67613
G1 X107.86 Y98.989 E9.69168
G1 X108.17 Y98.866 E9.70721
G1 X108.536 Y98.819 E9.7244
G1 X109.254 Y98.863 E9.75789
G1 X109.566 Y98.982 E9.77344
G1 X109.841 Y99.171 E9.78898
G1 X110.241 Y99.717 E9.8205
G1 X110.372 Y100.024 E9.83604
G1 X110.428 Y100.353 E9.85158
G1 X110.403 Y100.686 E9.86713
G1 X110.251 Y101.101 E9.88771
G1 X109.941 Y101.656 E9.91731
G1 X109.735 Y101.939 E9.93361
G1 X109.356 Y102.352 E9.95971
G1 X109.134 Y102.551 E9.97359
G1 X108.723 Y102.851 E9.99728
G1 X108.432 Y103.014 E10.01282
G1 X108.11 Y103.104 E10.02838
G1 X107.776 Y103.115 E10.04394
G1 X107.449 Y103.046 E10.05951
G1 X107.148 Y102.902 E10.07504
G1 X106.684 Y102.467 E10.10466
G1 X106.28 Y102.986 E10.13528
G1 X106.006 Y103.178 E10.15086
G1 X105.695 Y103.299 E10.1664
G1 X105.364 Y103.343 E10.18195
G1 X105.031 Y103.307 E10.19755
G1 X104.641 Y103.152 E10.21709
G1 X104.017 Y102.788 E10.25073
G1 X103.738 Y102.578 E10.26699
G1 X103.356 Y102.215 E10.29153
G1 X102.893 Y101.607 E10.32711
G1 X102.584 Y100.989 E10.35928
G1 X102.482 Y100.671 E10.37483
G1 X102.459 Y100.337 E10.39042
G1 X102.514 Y100.008 E10.40596
G1 X102.797 Y99.465 E10.43447
G1 X103.009 Y99.208 E10.44998
M204 S3000
M205 X10 Y10
G0 F3000 X103.439 Y99.574
M204 S1800
M205 X8 Y8
G1 F2400 X103.661 Y99.442 E10.46201
G1 X103.975 Y99.381 E10.4769
G1 X104.63 Y99.421 E10.50746
G1 X104.938 Y99.586 E10.52373
G1 X105.129 Y99.76 E10.53576
G1 X105.42 Y100.353 E10.56652
G1 X105.607 Y100.599 E10.58091
G1 X106.083 Y100.983 E10.60938
G1 X106.257 Y101.174 E10.62142
G1 X106.364 Y101.409 E10.63344
G1 X106.396 Y101.666 E10.6455
G1 X106.347 Y101.92 E10.65754
G1 X106.039 Y102.418 E10.68481
G1 X105.861 Y102.606 E10.69686
G1 X105.635 Y102.732 E10.70891
G1 X105.382 Y102.782 E10.72092
G1 X105.125 Y102.753 E10.73296
G1 X104.923 Y102.669 E10.74315
G1 X104.299 Y102.305 E10.77679
G1 X104.123 Y102.172 E10.78706
G1 X103.741 Y101.809 E10.8116
G1 X103.352 Y101.286 E10.84195
G1 X103.093 Y100.755 E10.86946
G1 X103.023 Y100.506 E10.8815
G1 X103.032 Y100.248 E10.89353
G1 X103.268 Y99.768 E10.91843
G1 X103.439 Y99.574 E10.93047
M204 S3000
M205 X10 Y10
G0 F3000 X103.739 Y100.07
M204 S1800
M205 X8 Y8
G1 F2400 X103.85 Y99.971 E10.9374
G1 X104.375 Y99.941 E10.96189
G1 X104.629 Y100.053 E10.97481
G1 X104.732 Y100.176 E10.98228
G1 X104.933 Y100.638 E11.00574
G1 X105.201 Y100.991 E11.02638
G1 X105.732 Y101.419 E11.05814
G1 X105.818 Y101.539 E11.06501
G1 X105.831 Y101.687 E11.07193
G1 X105.577 Y102.101 E11.09455
G1 X105.464 Y102.197 E11.10145
G1 X105.317 Y102.222 E11.10839
G1 X105.205 Y102.185 E11.11389
G1 X104.581 Y101.821 E11.14752
G1 X104.509 Y101.766 E11.15174
G1 X104.109 Y101.384 E11.1775
G1 X103.811 Y100.965 E11.20144
G1 X103.602 Y100.522 E11.22425
G1 X103.579 Y100.375 E11.23118
G1 X103.739 Y100.07 E11.24721
M204 S3000
M205 X10 Y10
G1 F2400 E5.24721
G0 F3000 X106.917 Y101.056
M204 S1800
M205 X8 Y8
G1 F2400 E11.24721
G1 X107.028 Y100.897 E11.25624
G1 X107.431 Y100.443 E11.28451
G1 X107.681 Y99.974 E11.30926
G1 X108.009 Y99.559 E11.33389
G1 X108.234 Y99.433 E11.3459
G1 X108.533 Y99.379 E11.36005
G1 X109.175 Y99.422 E11.39001
G1 X109.405 Y99.539 E11.40202
G1 X109.642 Y99.8 E11.41844
G1 X109.85 Y100.238 E11.44102
G1 X109.865 Y100.496 E11.45305
G1 X109.762 Y100.828 E11.46924
G1 X109.452 Y101.383 E11.49884
G1 X109.323 Y101.56 E11.50904
G1 X108.944 Y101.973 E11.53514
G1 X108.804 Y102.098 E11.54388
G1 X108.393 Y102.398 E11.56757
