;FLAVOR:Marlin
;TIME:5953
;Filament used: 5.09887m
;Layer height: 0.2
;MINX:80.306
;MINY:78.955
;MINZ:0.2
;MAXX:128.667
;MAXY:131.315
;MAXZ:31
;Generated with Cura_SteamEngine 4.11.0
M140 S60
M105
M190 S60
M104 S200
M105
M109 S200
M82 ;absolute extrusion mode
G21 ;metric values
G90 ;absolute positioning
M82 ;set extruder to absolute mode
M107 ;start with the fan off
G28 X0 Y0 ;move X/Y to min endstops
G28 Z0 ;move Z to min endstops
G1 Z15.0 F100 ;move the platform down 15mm
G92 E0 ;zero the extruded length
G1 F200 E3 ;extrude 3mm of feed stock
G92 E0 ;zero the extruded length again
G1 F100
G0 Y20 F100
M117 Printing...
G5
G92 E0
G92 E0
G1 F2400 E-6
;LAYER_COUNT:155
;LAYER:0
M107
M204 S3000
M205 X10 Y10
G1 F600 Z0.275
G0 F3000 X92.382 Y81.295 Z0.275
M204 S1800
M205 X8 Y8
;TYPE:SKIRT
G1 F600 Z0.2
G1 F2400 E0
G1 X92.866 Y80.768 E0.03332
G1 X93.406 Y80.299 E0.06662
G1 X93.995 Y79.893 E0.09993
G1 X94.625 Y79.555 E0.13322
G1 X95.289 Y79.289 E0.16653
G1 X95.979 Y79.099 E0.19986
G1 X96.685 Y78.988 E0.23313
G1 X97.4 Y78.955 E0.26646
G1 X98.113 Y79.003 E0.29974
G1 X98.828 Y79.133 E0.33358
G1 X99.394 Y79.271 E0.36071
G1 X122.529 Y85.473 E1.47601
G1 X123.2 Y85.662 E1.50847
G1 X123.877 Y85.894 E1.54179
G1 X124.523 Y86.2 E1.57507
G1 X125.131 Y86.576 E1.60836
G1 X125.694 Y87.018 E1.64169
G1 X126.203 Y87.52 E1.67498
G1 X126.654 Y88.076 E1.70832
G1 X127.04 Y88.678 E1.74162
G1 X127.356 Y89.32 E1.77493
G1 X127.598 Y89.993 E1.80824
G1 X127.78 Y90.781 E1.84589
G1 X127.961 Y91.884 E1.89794
G1 X128.059 Y92.534 E1.92855
G1 X128.495 Y94.978 E2.04415
G1 X128.557 Y95.304 E2.0596
G1 X128.652 Y96.013 E2.09291
G1 X128.667 Y96.728 E2.12621
G1 X128.603 Y97.44 E2.1595
G1 X128.485 Y98.039 E2.18793
G1 X128.214 Y99.135 E2.2405
G1 X128.041 Y99.775 E2.27137
G1 X127.801 Y100.631 E2.31277
G1 X127.461 Y101.875 E2.37282
G1 X125.912 Y107.684 E2.65276
G1 X125.523 Y109.108 E2.7215
G1 X124.96 Y111.239 E2.82413
G1 X124.833 Y111.742 E2.84829
G1 X124.586 Y112.683 E2.89359
G1 X124.159 Y114.263 E2.9698
G1 X123.586 Y116.35 E3.07057
G1 X122.753 Y119.492 E3.22193
G1 X122.716 Y119.606 E3.22751
G1 X121.678 Y123.459 E3.41332
G1 X121.567 Y123.886 E3.43387
G1 X121.016 Y125.938 E3.5328
G1 X120.825 Y126.608 E3.56524
G1 X120.591 Y127.283 E3.59851
G1 X120.282 Y127.929 E3.63185
G1 X119.904 Y128.536 E3.66515
G1 X119.46 Y129.097 E3.69846
G1 X118.957 Y129.605 E3.73175
G1 X118.4 Y130.054 E3.76506
G1 X117.801 Y130.435 E3.79812
G1 X117.678 Y130.504 E3.80469
G1 X117.036 Y130.818 E3.83797
G1 X116.362 Y131.059 E3.8713
G1 X115.666 Y131.223 E3.90459
G1 X114.956 Y131.309 E3.93789
G1 X114.241 Y131.315 E3.97119
G1 X113.529 Y131.241 E4.00452
G1 X112.835 Y131.094 E4.03755
G1 X112.485 Y131.006 E4.05436
G1 X85.69 Y123.829 E5.34603
G1 X85.029 Y123.642 E5.37801
G1 X84.352 Y123.409 E5.41135
G1 X83.706 Y123.103 E5.44464
G1 X83.099 Y122.726 E5.47791
G1 X82.537 Y122.283 E5.51123
G1 X82.028 Y121.781 E5.54452
G1 X81.578 Y121.224 E5.57786
G1 X81.193 Y120.622 E5.61114
G1 X80.878 Y119.98 E5.64444
G1 X80.696 Y119.499 E5.66838
G1 X80.63 Y119.3 E5.67815
G1 X80.444 Y118.609 E5.71147
G1 X80.335 Y117.902 E5.74478
G1 X80.306 Y117.188 E5.77805
G1 X80.357 Y116.474 E5.81138
G1 X80.529 Y115.606 E5.85259
G1 X80.829 Y114.504 E5.90577
G1 X80.857 Y114.383 E5.91155
G1 X81.183 Y113.193 E5.969
G1 X81.447 Y112.179 E6.01779
G1 X81.84 Y110.754 E6.08662
G1 X82.219 Y109.322 E6.1556
G1 X82.683 Y107.684 E6.23487
G1 X83.619 Y104.169 E6.40425
G1 X84.053 Y102.481 E6.48541
G1 X84.272 Y101.626 E6.5265
G1 X84.394 Y101.184 E6.54786
G1 X85.011 Y98.873 E6.65923
G1 X85.35 Y97.619 E6.71972
G1 X85.737 Y96.146 E6.79064
G1 X86.237 Y94.188 E6.88474
G1 X87.925 Y87.928 E7.18664
G1 X88.107 Y87.289 E7.21758
G1 X88.341 Y86.613 E7.25089
G1 X88.509 Y86.239 E7.26998
G1 X88.854 Y85.612 E7.3033
G1 X89.385 Y84.886 E7.34519
G1 X90.05 Y84.1 E7.39313
G1 X90.583 Y83.487 E7.43095
G1 X92.382 Y81.295 E7.56299
M204 S3000
M205 X10 Y10
G0 F3000 X92.815 Y81.65
M204 S1800
M205 X8 Y8
G1 F2400 X93.279 Y81.149 E7.59479
G1 X93.798 Y80.704 E7.62663
G1 X94.365 Y80.323 E7.65843
G1 X94.973 Y80.012 E7.69023
G1 X95.613 Y79.773 E7.72205
G1 X96.277 Y79.611 E7.75387
G1 X96.955 Y79.527 E7.78568
G1 X97.638 Y79.523 E7.81749
G1 X98.317 Y79.599 E7.8493
G1 X99.104 Y79.775 E7.88685
G1 X99.249 Y79.812 E7.89382
G1 X122.377 Y86.012 E9.00878
G1 X123.048 Y86.201 E9.04124
G1 X123.694 Y86.424 E9.07306
G1 X124.309 Y86.721 E9.10487
G1 X124.885 Y87.088 E9.13667
G1 X125.415 Y87.52 E9.16851
G1 X125.89 Y88.011 E9.20032
G1 X126.305 Y88.554 E9.23214
G1 X126.654 Y89.142 E9.26398
G1 X126.931 Y89.766 E9.29577
G1 X127.134 Y90.418 E9.32757
G1 X127.227 Y90.872 E9.34915
G1 X127.407 Y91.967 E9.40082
G1 X127.509 Y92.648 E9.43288
G1 X127.934 Y95.028 E9.54546
G1 X128.007 Y95.409 E9.56352
G1 X128.096 Y96.086 E9.59532
G1 X128.105 Y96.77 E9.62717
G1 X128.035 Y97.449 E9.65896
G1 X127.941 Y97.905 E9.68063
G1 X127.673 Y98.99 E9.73268
G1 X127.502 Y99.624 E9.76325
G1 X127.262 Y100.48 E9.80465
G1 X126.921 Y101.727 E9.86485
G1 X125.372 Y107.536 E10.14479
G1 X124.983 Y108.96 E10.21353
G1 X124.436 Y111.028 E10.31313
G1 X124.292 Y111.6 E10.3406
G1 X124.046 Y112.536 E10.38566
G1 X123.619 Y114.115 E10.46183
G1 X123.046 Y116.202 E10.5626
G1 X122.412 Y118.599 E10.67806
G1 X122.212 Y119.348 E10.71415
G1 X122.174 Y119.464 E10.71984
G1 X121.137 Y123.313 E10.90545
G1 X121.026 Y123.741 E10.92604
G1 X120.477 Y125.784 E11.02455
G1 X120.286 Y126.454 E11.05699
G1 X120.061 Y127.099 E11.0888
G1 X119.762 Y127.713 E11.1206
G1 X119.393 Y128.288 E11.15241
G1 X118.959 Y128.816 E11.18424
G1 X118.467 Y129.29 E11.21605
G1 X117.923 Y129.703 E11.24785
G1 X117.404 Y130.015 E11.27605
G1 X116.79 Y130.314 E11.30785
G1 X116.145 Y130.539 E11.33966
G1 X115.478 Y130.687 E11.37147
G1 X114.798 Y130.757 E11.4033
G1 X114.115 Y130.746 E11.43511
G1 X113.219 Y130.609 E11.47732
G1 X112.698 Y130.483 E11.50228
G1 X85.842 Y123.29 E12.79688
G1 X85.181 Y123.103 E12.82887
G1 X84.536 Y122.879 E12.86066
G1 X83.921 Y122.581 E12.89249
G1 X83.345 Y122.214 E12.92429
G1 X82.816 Y121.781 E12.95612
G1 X82.341 Y121.29 E12.98793
G1 X81.927 Y120.746 E13.01976
G1 X81.579 Y120.158 E13.05158
G1 X81.228 Y119.322 E13.0938
G1 X81.162 Y119.123 E13.10356
G1 X80.985 Y118.463 E13.13538
G1 X80.887 Y117.787 E13.16718
G1 X80.868 Y117.104 E13.199
G1 X80.929 Y116.424 E13.23079
G1 X81.07 Y115.753 E13.26272
G1 X81.378 Y114.619 E13.31744
G1 X81.397 Y114.531 E13.32163
G1 X81.725 Y113.334 E13.37942
G1 X81.987 Y112.328 E13.42783
G1 X82.38 Y110.903 E13.49666
G1 X82.787 Y109.368 E13.5706
G1 X83.227 Y107.816 E13.64572
G1 X84.147 Y104.362 E13.81216
G1 X84.595 Y102.62 E13.89591
G1 X84.813 Y101.77 E13.93677
G1 X84.916 Y101.399 E13.9547
G1 X85.518 Y99.149 E14.06316
G1 X85.574 Y98.933 E14.07355
G1 X85.886 Y97.785 E14.12894
G1 X86.279 Y96.289 E14.20097
G1 X86.777 Y94.334 E14.29491
G1 X88.463 Y88.081 E14.59647
G1 X88.645 Y87.442 E14.62741
G1 X89 Y86.509 E14.67389
G1 X89.013 Y86.482 E14.67529
G1 X89.345 Y85.884 E14.70713
G1 X89.813 Y85.247 E14.74394
G1 X90.472 Y84.468 E14.79145
G1 X91.011 Y83.848 E14.82971
G1 X92.815 Y81.65 E14.96211
M204 S3000
M205 X10 Y10
G0 F3000 X93.248 Y82.006
M204 S1800
M205 X8 Y8
G1 F2400 X93.69 Y81.53 E14.99236
G1 X94.188 Y81.112 E15.02263
G1 X94.733 Y80.758 E15.0529
G1 X95.317 Y80.474 E15.08313
G1 X95.931 Y80.264 E15.11335
G1 X96.567 Y80.13 E15.14362
G1 X97.215 Y80.076 E15.17389
G1 X97.864 Y80.102 E15.20414
G1 X98.566 Y80.222 E15.2373
G1 X99.104 Y80.353 E15.26308
G1 X122.226 Y86.551 E16.37775
G1 X122.897 Y86.74 E16.41021
G1 X123.51 Y86.954 E16.44044
G1 X124.092 Y87.242 E16.47068
G1 X124.635 Y87.599 E16.50094
G1 X125.129 Y88.02 E16.53116
G1 X125.568 Y88.499 E16.56142
G1 X125.945 Y89.028 E16.59167
G1 X126.254 Y89.6 E16.62194
G1 X126.491 Y90.204 E16.65215
G1 X126.675 Y90.963 E16.68852
G1 X126.853 Y92.05 E16.73981
G1 X126.954 Y92.719 E16.77131
G1 X127.384 Y95.133 E16.88549
G1 X127.457 Y95.514 E16.90355
G1 X127.539 Y96.159 E16.93383
G1 X127.542 Y96.808 E16.96405
G1 X127.398 Y97.771 E17.00939
G1 X127.16 Y98.737 E17.05571
G1 X126.963 Y99.472 E17.09115
G1 X126.723 Y100.328 E17.13254
G1 X126.381 Y101.579 E17.19293
G1 X124.831 Y107.388 E17.47289
G1 X124.454 Y108.77 E17.53959
G1 X123.893 Y110.892 E17.64179
G1 X123.75 Y111.458 E17.66898
G1 X123.505 Y112.39 E17.71385
G1 X123.079 Y113.967 E17.78991
G1 X122.506 Y116.054 E17.89069
G1 X121.871 Y118.454 E18.00629
G1 X121.671 Y119.203 E18.04239
G1 X121.633 Y119.315 E18.04789
G1 X120.61 Y123.116 E18.23118
G1 X120.486 Y123.596 E18.25427
G1 X119.939 Y125.631 E18.35239
G1 X119.748 Y126.301 E18.38483
G1 X119.532 Y126.913 E18.41505
G1 X119.242 Y127.495 E18.44533
G1 X118.883 Y128.036 E18.47556
G1 X118.46 Y128.529 E18.50581
G1 X117.98 Y128.967 E18.53607
G1 X117.253 Y129.458 E18.57692
G1 X117.13 Y129.527 E18.58348
G1 X116.545 Y129.809 E18.61372
G1 X115.93 Y130.018 E18.64397
G1 X115.294 Y130.149 E18.6742
G1 X114.646 Y130.201 E18.70447
G1 X113.997 Y130.173 E18.73472
G1 X113.347 Y130.064 E18.76541
G1 X112.836 Y129.94 E18.7899
G1 X85.995 Y122.752 E20.08377
G1 X85.334 Y122.565 E20.11575
G1 X84.721 Y122.35 E20.146
G1 X84.139 Y122.061 E20.17626
G1 X83.597 Y121.703 E20.20651
G1 X83.102 Y121.281 E20.2368
G1 X82.664 Y120.802 E20.26702
G1 X82.288 Y120.273 E20.29724
G1 X81.979 Y119.701 E20.32751
G1 X81.759 Y119.146 E20.35531
G1 X81.693 Y118.947 E20.36507
G1 X81.527 Y118.319 E20.39532
G1 X81.439 Y117.675 E20.42559
G1 X81.431 Y117.026 E20.45581
G1 X81.503 Y116.38 E20.48608
G1 X81.61 Y115.9 E20.50898
G1 X81.926 Y114.739 E20.565
G1 X81.937 Y114.679 E20.56784
G1 X82.269 Y113.469 E20.62627
G1 X82.527 Y112.477 E20.674
G1 X82.92 Y111.052 E20.74283
G1 X83.326 Y109.521 E20.81658
G1 X83.766 Y107.969 E20.8917
G1 X84.689 Y104.502 E21.05876
G1 X85.137 Y102.76 E21.14251
G1 X85.354 Y101.913 E21.18323
G1 X85.457 Y101.543 E21.20111
G1 X86.059 Y99.293 E21.30956
G1 X86.114 Y99.08 E21.31981
G1 X86.431 Y97.912 E21.37616
G1 X86.81 Y96.471 E21.44554
G1 X87.318 Y94.48 E21.54122
G1 X89.002 Y88.235 E21.8424
G1 X89.184 Y87.596 E21.87334
G1 X89.505 Y86.751 E21.91543
G1 X89.518 Y86.724 E21.91683
G1 X89.835 Y86.158 E21.94703
G1 X90.241 Y85.608 E21.97887
G1 X90.895 Y84.835 E22.02601
G1 X91.451 Y84.196 E22.06546
G1 X93.248 Y82.006 E22.19737
M204 S3000
M205 X10 Y10
G0 F3000 X92.672 Y95.981
M204 S1800
M205 X8 Y8
;TYPE:SUPPORT
G1 F1500 X93.026 Y96.596 E22.23041
G1 X93.279 Y96.663 E22.2426
G1 X93.192 Y96.99 E22.25835
G1 X93.013 Y96.941 E22.26699
G1 X92.381 Y97.307 E22.301
G1 X89.19 Y109.215 E22.87505
G1 X89.555 Y109.849 E22.90912
G1 X89.732 Y109.896 E22.91764
G1 X88.552 Y114.301 E23.12999
G1 X89.071 Y115.205 E23.17853
G1 X113.688 Y121.801 E24.36523
G1 X114.592 Y121.282 E24.41377
G1 X121.256 Y96.412 E25.61268
G1 X121.975 Y96.605 E25.64734
G1 X121.438 Y98.614 E25.74417
G1 X121.221 Y99.348 E25.77981
G1 X119.305 Y106.533 E26.12607
G1 X119.225 Y106.762 E26.13736
G1 X118.887 Y108.154 E26.20406
G1 X118.28 Y110.275 E26.30679
G1 X118.221 Y110.634 E26.32373
G1 X117.539 Y113.154 E26.4453
G1 X117.406 Y113.54 E26.46431
G1 X117.038 Y115.019 E26.53527
G1 X116.599 Y116.602 E26.61177
G1 X116.496 Y117.034 E26.63245
G1 X116.329 Y117.6 E26.65993
G1 X116.293 Y117.77 E26.66802
G1 X115.15 Y122.007 E26.87236
G1 X115.145 Y122.044 E26.8741
G1 X114.455 Y124.618 E26.99819
G1 X86.995 Y117.264 E28.3219
G1 X87.68 Y114.874 E28.43767
G1 X87.741 Y114.489 E28.45582
G1 X87.958 Y113.695 E28.49415
G1 X88.033 Y113.482 E28.50466
G1 X88.328 Y112.272 E28.56266
G1 X88.486 Y111.719 E28.58944
G1 X88.636 Y111.284 E28.61086
G1 X90.376 Y104.759 E28.92531
G1 X90.417 Y104.517 E28.93674
G1 X90.909 Y102.656 E29.02637
G1 X91.019 Y102.362 E29.04099
G1 X91.275 Y101.289 E29.09236
G1 X92.233 Y97.765 E29.2624
G1 X92.345 Y97.268 E29.28613
G1 X92.51 Y96.581 E29.31903
G1 X92.672 Y95.981 E29.34796
M204 S3000
M205 X10 Y10
G1 F2400 E23.34796
G0 F3000 X94.714 Y88.673
G0 X96.716 Y85.065
G0 X121.753 Y91.205
G0 X120 Y101.947
M204 S1800
M205 X8 Y8
G1 F2400 E29.34796
G1 F1500 X120 Y103.072 E29.40035
M204 S3000
M205 X10 Y10
G0 F3000 X116.861 Y113.658
M204 S1800
M205 X8 Y8
G1 F1500 X117.113 Y113.803 E29.41389
M204 S3000
M205 X10 Y10
G0 F3000 X116.072 Y117.737
M204 S1800
M205 X8 Y8
G1 F1500 X115.712 Y117.945 E29.43325
M204 S3000
M205 X10 Y10
G1 F2400 E23.43325
G0 F3000 X114.319 Y121.071
G0 X110.24 Y121.104
M204 S1800
M205 X8 Y8
G1 F2400 E29.43325
G1 F1500 X107.687 Y122.578 E29.57052
M204 S3000
M205 X10 Y10
G1 F2400 E23.57052
G1 F600 Z0.275
G0 F3000 X110.895 Y115.92 Z0.275
M204 S1800
M205 X8 Y8
G1 F600 Z0.2
G1 F2400 E29.57052
G1 F1500 X94.436 Y111.508 E30.36397
G1 X100.14 Y90.216 E31.39038
G1 X116.6 Y94.628 E32.18388
G1 X110.895 Y115.92 E33.2103
M204 S3000
M205 X10 Y10
G0 F3000 X112.022 Y110.864
M204 S1800
M205 X8 Y8
G1 F1500 X97.136 Y102.27 E34.01068
M204 S3000
M205 X10 Y10
G1 F2400 E28.01068
G1 F600 Z0.275
G0 F3000 X93.144 Y97.474 Z0.275
M204 S1800
M205 X8 Y8
;TYPE:SUPPORT-INTERFACE
G1 F600 Z0.2
G1 F2400 E34.01068
G1 F1500 X89.933 Y109.453 E34.58816
G1 X89.871 Y109.436 E34.59115
G1 X89.704 Y109.148 E34.60665
G1 X92.793 Y97.623 E35.16225
G1 X93.08 Y97.457 E35.17769
G1 X93.144 Y97.474 E35.18077
M204 S3000
M205 X10 Y10
G1 F2400 E29.18077
;MESH:ouchi1.stl
G0 F3000 X93.872 Y95.502
G0 X95.835 Y89.449
G1 F2400 E35.18077
G0 F3000 X95.949 Y89.406
M204 S1800
M205 X8 Y8
;TYPE:WALL-OUTER
G1 F1500 X94.282 Y95.626 E35.48062
G1 X93.855 Y95.512 E35.5012
G1 X95.522 Y89.292 E35.73733
G1 X95.949 Y89.406 E35.75791
M204 S3000
M205 X10 Y10
G0 F3000 X95.898 Y89.599
G1 F2400 E29.75791
G0 F3000 X95.802 Y89.573
G0 X97.336 Y88.604
G0 X98.457 Y87.303
M204 S1800
M205 X8 Y8
;TYPE:WALL-INNER
G1 F2400 E35.75791
G1 F1500 X98.198 Y88.27 E35.80453
G1 X98.005 Y88.218 E35.81383
G1 X98.264 Y87.252 E35.83037
G1 X98.316 Y87.058 E35.83972
G1 X98.508 Y87.109 E35.84897
G1 X119.586 Y92.758 E36.86509
G1 X119.76 Y92.805 E36.87348
G1 X119.709 Y92.997 E36.88273
G1 X119.326 Y94.427 E36.95166
G1 X112.771 Y118.884 E38.13068
G1 X112.719 Y119.078 E38.14003
G1 X112.527 Y119.027 E38.14928
G1 X91.469 Y113.384 E39.16443
G1 X91.275 Y113.332 E39.17378
G1 X91.326 Y113.139 E39.18307
G1 X91.825 Y111.277 E39.27284
G1 X95.468 Y97.684 E39.92812
G1 X95.662 Y97.736 E39.93747
G1 X92.021 Y111.329 E40.17266
G1 X91.52 Y113.19 E40.20489
G1 X112.578 Y118.833 E40.56741
G1 X119.131 Y94.375 E40.9885
G1 X119.535 Y92.951 E41.01193
G1 X98.457 Y87.303 E41.37391
M204 S3000
M205 X10 Y10
G0 F3000 X98.372 Y88.823
G0 X98.286 Y88.873
M204 S1800
M205 X8 Y8
G1 F1500 X97.589 Y88.686 E41.40752
G1 X97.319 Y88.614 E41.42053
G1 X97.391 Y88.344 E41.42894
G1 X97.92 Y86.372 E41.52401
G1 X120.446 Y92.409 E42.60993
G1 X113.115 Y119.764 E43.92864
G1 X90.859 Y113.8 E45.00154
G1 X90.589 Y113.728 E45.01455
G1 X90.661 Y113.458 E45.02295
G1 X95.072 Y96.998 E45.81644
G1 X95.924 Y97.226 E45.85751
G1 X96.039 Y97.257 E45.86306
G1 X98.286 Y88.873 E46.26723
M204 S3000
M205 X10 Y10
G0 F3000 X98.372 Y88.823
G0 X92.12 Y112.843
G0 X92.206 Y112.794
M204 S1800
M205 X8 Y8
G1 F1500 X92.476 Y112.866 E46.28024
G1 X111.912 Y118.075 E47.2172
G1 X112.182 Y118.147 E47.23022
G1 X112.254 Y117.877 E47.23862
G1 X118.592 Y94.222 E48.37895
G1 X118.764 Y93.618 E48.40819
G1 X118.841 Y93.345 E48.4214
G1 X118.567 Y93.272 E48.4299
G1 X99.123 Y88.061 E49.36725
G1 X98.853 Y87.989 E49.38026
G1 X98.781 Y88.259 E49.38867
G1 X98.595 Y88.955 E49.42221
G1 X96.349 Y97.339 E49.6528
G1 X96.318 Y97.454 E49.65751
G1 X92.562 Y111.474 E50.33336
G1 X92.278 Y112.524 E50.38401
G1 X92.206 Y112.794 E50.39241
M204 S3000
M205 X10 Y10
G0 F3000 X92.893 Y112.398
M204 S1800
M205 X8 Y8
;TYPE:WALL-OUTER
G1 F1500 X93.163 Y112.47 E50.40543
G1 X111.786 Y117.461 E51.30319
G1 X118.053 Y94.069 E52.43084
G1 X118.147 Y93.739 E52.44681
G1 X99.519 Y88.747 E53.34482
G1 X99.249 Y88.675 E53.35783
G1 X99.177 Y88.945 E53.36624
G1 X93.103 Y111.62 E54.4593
G1 X92.966 Y112.128 E54.4838
G1 X92.893 Y112.398 E54.49221
M204 S3000
M205 X10 Y10
G0 F3000 X93.086 Y112.449
G0 X92.915 Y113.086
G0 X98.32 Y88.853
G0 X97.6 Y89.269
M204 S1800
M205 X8 Y8
G1 F1500 X96.903 Y89.082 E54.52581
G1 X96.633 Y89.01 E54.53882
G1 X96.705 Y88.74 E54.54723
G1 X97.524 Y85.686 E54.69446
G1 X121.132 Y92.013 E55.83254
G1 X113.511 Y120.45 E57.20341
G1 X90.173 Y114.196 E58.32847
G1 X89.903 Y114.124 E58.34148
G1 X89.975 Y113.854 E58.34989
G1 X94.676 Y96.312 E59.19554
