;FLAVOR:Marlin
;TIME:1705
;Filament used: 2.72974m
;Layer height: 0.3
;MINX:88.02
;MINY:89.82
;MINZ:0.3
;MAXX:129.038
;MAXY:116.237
;MAXZ:58.8
;Generated with Cura_SteamEngine 4.11.0
M140 S60
M105
M190 S60
M104 S200
M105
M109 S200
M82 ;absolute extrusion mode
G21 ;metric values
G90 ;absolute positioning
M82 ;set extruder to absolute mode
M107 ;start with the fan off
G28 X0 Y0 ;move X/Y to min endstops
G28 Z0 ;move Z to min endstops
G1 Z15.0 F100 ;move the platform down 15mm
G92 E0 ;zero the extruded length
G1 F200 E3 ;extrude 3mm of feed stock
G92 E0 ;zero the extruded length again
G1 F100
G0 Y20 F100
M117 Printing...
G5
G92 E0
G92 E0
G1 F2400 E-6
;LAYER_COUNT:196
;LAYER:0
M107
M204 S3000
M205 X10 Y10
G1 F600 Z0.375
G0 F3000 X95.242 Y92.238 Z0.375
M204 S1800
M205 X8 Y8
;TYPE:SKIRT
G1 F600 Z0.3
G1 F2400 E0
G1 X95.763 Y91.747 E0.05
G1 X96.474 Y91.228 E0.11149
G1 X96.679 Y91.099 E0.1284
G1 X97.305 Y90.753 E0.17836
G1 X97.966 Y90.478 E0.22837
G1 X98.653 Y90.279 E0.27832
G1 X99.194 Y90.178 E0.31676
G1 X99.374 Y90.152 E0.32947
G1 X101.081 Y89.929 E0.44971
G1 X101.28 Y89.901 E0.46374
G1 X102.042 Y89.84 E0.51714
G1 X103.027 Y89.82 E0.58595
G1 X103.25 Y89.82 E0.60153
G1 X104.351 Y89.836 E0.67843
G1 X107.582 Y89.828 E0.90411
G1 X108.218 Y89.82 E0.94853
G1 X108.761 Y89.828 E0.98646
G1 X109.662 Y89.905 E1.04963
G1 X110.704 Y90.069 E1.1233
G1 X111.466 Y90.185 E1.17714
G1 X112.008 Y90.289 E1.21568
G1 X112.39 Y90.38 E1.24311
G1 X114.439 Y90.891 E1.39061
G1 X117.01 Y91.455 E1.57446
G1 X119.609 Y91.95 E1.75925
G1 X122.238 Y92.37 E1.9452
G1 X122.88 Y92.457 E1.99046
G1 X123.482 Y92.549 E2.03299
G1 X124.182 Y92.697 E2.08296
G1 X124.861 Y92.921 E2.1329
G1 X125.511 Y93.22 E2.18288
G1 X126.123 Y93.59 E2.23283
G1 X126.69 Y94.026 E2.28279
G1 X127.205 Y94.522 E2.33273
G1 X127.844 Y95.332 E2.40479
G1 X127.969 Y95.52 E2.42056
G1 X128.332 Y96.137 E2.47056
G1 X128.623 Y96.791 E2.52055
G1 X128.839 Y97.472 E2.57045
G1 X128.978 Y98.174 E2.62044
G1 X129.038 Y98.887 E2.67041
G1 X129.017 Y99.602 E2.72038
G1 X128.918 Y100.31 E2.77031
G1 X128.739 Y101.003 E2.8203
G1 X128.548 Y101.526 E2.85919
G1 X128.533 Y101.562 E2.86191
G1 X128.255 Y102.144 E2.90696
G1 X127.611 Y103.335 E3.00153
G1 X127.524 Y103.49 E3.01395
G1 X127.112 Y104.204 E3.07153
G1 X126.715 Y104.809 E3.12207
G1 X126.352 Y105.3 E3.16472
G1 X125.374 Y106.584 E3.27745
G1 X123.817 Y108.754 E3.464
G1 X122.366 Y110.902 E3.64505
G1 X121.953 Y111.555 E3.69902
G1 X121.212 Y112.696 E3.79404
G1 X120.897 Y113.139 E3.83201
G1 X120.743 Y113.337 E3.84953
G1 X120.273 Y113.876 E3.89948
G1 X119.746 Y114.36 E3.94946
G1 X119.316 Y114.682 E3.98698
G1 X118.993 Y114.904 E4.01435
G1 X118.382 Y115.276 E4.06432
G1 X117.647 Y115.61 E4.12071
G1 X117.086 Y115.814 E4.1624
G1 X116.954 Y115.856 E4.17207
G1 X116.261 Y116.034 E4.22205
G1 X115.35 Y116.148 E4.28618
G1 X114.003 Y116.219 E4.38039
G1 X113.523 Y116.237 E4.41394
G1 X112.983 Y116.234 E4.45166
G1 X112.376 Y116.205 E4.4941
G1 X109.635 Y116.115 E4.68565
G1 X107.574 Y116.099 E4.82961
G1 X105.132 Y116.102 E5.00018
G1 X103.151 Y116.099 E5.13854
G1 X100.513 Y116.133 E5.32281
G1 X97.906 Y116.237 E5.50504
G1 X97.231 Y116.231 E5.55219
G1 X96.268 Y116.18 E5.61955
G1 X95.637 Y116.151 E5.66367
G1 X94.925 Y116.079 E5.71365
G1 X93.963 Y115.848 E5.78275
G1 X93.379 Y115.642 E5.82601
G1 X92.724 Y115.355 E5.87596
G1 X92.127 Y115.012 E5.92405
G1 X91.833 Y114.821 E5.94854
G1 X91.256 Y114.398 E5.99851
G1 X90.73 Y113.914 E6.04843
G1 X90.35 Y113.487 E6.08836
G1 X90.152 Y113.243 E6.1103
G1 X89.733 Y112.663 E6.16028
G1 X89.335 Y111.943 E6.21774
G1 X89.301 Y111.871 E6.2233
G1 X89.032 Y111.208 E6.27328
G1 X88.864 Y110.63 E6.31532
G1 X88.73 Y110.071 E6.35547
G1 X88.691 Y109.897 E6.36792
G1 X88.301 Y108.038 E6.50059
G1 X88.195 Y107.398 E6.54591
G1 X88.091 Y106.545 E6.60593
G1 X88.044 Y106.059 E6.64003
G1 X88.02 Y105.383 E6.68727
G1 X88.037 Y104.745 E6.73185
G1 X88.09 Y103.981 E6.78534
G1 X88.171 Y103.235 E6.83776
G1 X88.349 Y101.724 E6.94402
G1 X88.444 Y101.115 E6.98707
G1 X88.541 Y100.63 E7.02162
G1 X88.721 Y99.937 E7.07163
G1 X88.976 Y99.269 E7.12157
G1 X89.304 Y98.634 E7.17149
G1 X89.702 Y98.026 E7.22225
G1 X89.934 Y97.706 E7.24985
G1 X90.549 Y97.013 E7.31457
G1 X91.49 Y96.095 E7.40639
G1 X93.387 Y94.193 E7.59402
G1 X94.204 Y93.313 E7.67789
G1 X94.404 Y93.12 E7.6973
G1 X95.242 Y92.238 E7.78228
M204 S3000
M205 X10 Y10
G0 F3000 X95.648 Y92.623
M204 S1800
M205 X8 Y8
G1 F2400 X96.147 Y92.156 E7.83001
G1 X96.773 Y91.702 E7.88403
G1 X96.978 Y91.573 E7.90094
G1 X97.576 Y91.244 E7.94861
G1 X98.209 Y90.986 E7.99636
G1 X99.169 Y90.749 E8.06542
G1 X99.446 Y90.707 E8.08499
G1 X101.189 Y90.48 E8.20776
G1 X101.358 Y90.456 E8.21969
G1 X102.053 Y90.4 E8.26839
G1 X103.038 Y90.38 E8.3372
G1 X103.241 Y90.38 E8.35138
G1 X104.344 Y90.396 E8.42843
G1 X107.594 Y90.388 E8.65543
G1 X108.21 Y90.38 E8.69846
G1 X108.753 Y90.388 E8.73639
G1 X109.575 Y90.458 E8.79401
G1 X110.649 Y90.627 E8.86995
G1 X111.382 Y90.739 E8.92174
G1 X111.879 Y90.834 E8.95708
G1 X112.254 Y90.924 E8.98402
G1 X114.286 Y91.431 E9.13029
G1 X116.895 Y92.003 E9.31685
G1 X119.519 Y92.502 E9.50341
G1 X122.149 Y92.923 E9.68945
G1 X122.795 Y93.011 E9.73498
G1 X123.397 Y93.103 E9.77752
G1 X124.065 Y93.246 E9.82523
G1 X124.712 Y93.465 E9.87294
G1 X125.329 Y93.759 E9.92068
G1 X125.908 Y94.123 E9.96845
G1 X126.44 Y94.551 E10.01614
G1 X126.918 Y95.039 E10.06385
G1 X127.378 Y95.643 E10.11688
G1 X127.503 Y95.831 E10.13265
G1 X127.848 Y96.421 E10.18039
G1 X128.121 Y97.047 E10.22809
G1 X128.319 Y97.701 E10.27582
G1 X128.439 Y98.373 E10.3235
G1 X128.48 Y99.055 E10.37122
G1 X128.441 Y99.737 E10.41893
G1 X128.323 Y100.41 E10.46665
G1 X128.031 Y101.31 E10.53274
G1 X128.016 Y101.346 E10.53546
G1 X127.762 Y101.878 E10.57664
G1 X127.118 Y103.069 E10.67121
G1 X127.039 Y103.21 E10.6825
G1 X126.627 Y103.924 E10.74008
G1 X126.265 Y104.477 E10.78624
G1 X125.906 Y104.961 E10.82833
G1 X124.934 Y106.238 E10.94042
G1 X123.358 Y108.433 E11.12916
G1 X121.894 Y110.601 E11.31188
G1 X121.484 Y111.25 E11.3655
G1 X120.743 Y112.391 E11.46052
G1 X120.301 Y112.993 E11.51269
G1 X119.851 Y113.507 E11.5604
G1 X119.343 Y113.965 E11.60818
G1 X118.676 Y114.443 E11.66549
G1 X118.091 Y114.796 E11.71321
G1 X117.448 Y115.087 E11.76251
G1 X116.916 Y115.28 E11.80204
G1 X116.784 Y115.322 E11.81171
G1 X116.122 Y115.491 E11.85943
G1 X115.321 Y115.589 E11.9158
G1 X113.982 Y115.659 E12.00945
G1 X113.009 Y115.675 E12.07742
G1 X112.349 Y115.644 E12.12357
G1 X109.657 Y115.555 E12.3117
G1 X107.577 Y115.539 E12.45698
G1 X105.133 Y115.542 E12.62769
G1 X103.215 Y115.539 E12.76165
G1 X100.448 Y115.574 E12.95493
G1 X97.884 Y115.677 E13.13416
G1 X97.26 Y115.672 E13.17775
G1 X96.314 Y115.622 E13.24392
G1 X95.662 Y115.592 E13.2895
G1 X94.983 Y115.521 E13.33719
G1 X94.135 Y115.315 E13.39814
G1 X93.574 Y115.117 E13.43969
G1 X92.949 Y114.842 E13.48739
G1 X92.432 Y114.542 E13.52913
G1 X92.138 Y114.351 E13.55362
G1 X91.588 Y113.946 E13.60133
G1 X91.089 Y113.48 E13.64902
G1 X90.587 Y112.89 E13.70313
G1 X90.188 Y112.335 E13.75087
G1 X89.841 Y111.704 E13.80117
G1 X89.807 Y111.632 E13.80673
G1 X89.552 Y110.998 E13.85446
G1 X89.409 Y110.499 E13.89071
G1 X89.275 Y109.94 E13.93086
G1 X89.239 Y109.782 E13.94218
G1 X88.888 Y108.12 E14.06083
G1 X88.751 Y107.33 E14.11683
G1 X88.647 Y106.477 E14.17685
G1 X88.602 Y106.009 E14.20969
G1 X88.58 Y105.392 E14.25281
G1 X88.596 Y104.778 E14.29571
G1 X88.647 Y104.041 E14.34731
G1 X88.727 Y103.301 E14.3993
G1 X88.904 Y101.798 E14.505
G1 X88.993 Y101.225 E14.5455
G1 X89.09 Y100.74 E14.58005
G1 X89.263 Y100.079 E14.62777
G1 X89.512 Y99.442 E14.67554
G1 X89.99 Y98.598 E14.74329
G1 X90.353 Y98.08 E14.78747
G1 X90.379 Y98.046 E14.79046
G1 X90.94 Y97.414 E14.84949
G1 X91.881 Y96.496 E14.94131
G1 X93.797 Y94.574 E15.13086
G1 X94.614 Y93.695 E15.21468
G1 X94.793 Y93.523 E15.23202
G1 X95.648 Y92.623 E15.31873
M204 S3000
M205 X10 Y10
G0 F3000 X96.054 Y93.009
M204 S1800
M205 X8 Y8
G1 F2400 X96.53 Y92.566 E15.36414
G1 X97.071 Y92.176 E15.41073
G1 X97.276 Y92.047 E15.42764
G1 X97.846 Y91.736 E15.473
G1 X98.45 Y91.497 E15.51837
G1 X99.257 Y91.302 E15.57635
G1 X99.518 Y91.262 E15.5948
G1 X101.436 Y91.011 E15.7299
G1 X102.065 Y90.96 E15.77398
G1 X103.05 Y90.94 E15.84279
G1 X103.233 Y90.94 E15.85558
G1 X104.337 Y90.956 E15.93269
G1 X107.607 Y90.948 E16.16109
G1 X108.202 Y90.94 E16.20265
G1 X108.745 Y90.948 E16.24059
G1 X109.488 Y91.011 E16.29267
G1 X110.554 Y91.179 E16.36804
G1 X111.298 Y91.292 E16.4206
G1 X112.064 Y91.454 E16.47529
G1 X114.174 Y91.98 E16.62718
G1 X116.773 Y92.55 E16.81302
G1 X119.429 Y93.055 E17.00186
G1 X122.07 Y93.477 E17.18866
G1 X122.711 Y93.565 E17.23385
G1 X123.313 Y93.657 E17.27639
G1 X123.948 Y93.794 E17.32176
G1 X124.561 Y94.008 E17.36711
G1 X125.143 Y94.296 E17.41247
G1 X125.686 Y94.654 E17.45789
G1 X126.18 Y95.075 E17.50323
G1 X126.619 Y95.554 E17.54861
G1 X127.037 Y96.141 E17.59894
G1 X127.363 Y96.703 E17.64432
G1 X127.617 Y97.3 E17.68964
G1 X127.796 Y97.925 E17.73505
G1 X127.897 Y98.567 E17.78044
G1 X127.918 Y99.216 E17.82579
G1 X127.859 Y99.863 E17.87117
G1 X127.722 Y100.498 E17.91654
G1 X127.514 Y101.095 E17.9607
G1 X127.499 Y101.131 E17.96342
G1 X127.269 Y101.611 E18.0006
G1 X126.625 Y102.802 E18.09517
G1 X126.554 Y102.93 E18.10539
G1 X126.142 Y103.644 E18.16297
G1 X125.815 Y104.144 E18.2047
G1 X125.461 Y104.622 E18.24624
G1 X124.465 Y105.93 E18.36107
G1 X122.9 Y108.111 E18.54857
G1 X121.422 Y110.299 E18.73299
G1 X121.014 Y110.945 E18.78636
G1 X120.273 Y112.086 E18.88139
G1 X119.859 Y112.65 E18.93025
G1 X119.429 Y113.137 E18.97563
G1 X118.682 Y113.759 E19.04352
G1 X118.359 Y113.981 E19.0709
G1 X117.802 Y114.316 E19.1163
G1 X117.249 Y114.564 E19.15863
G1 X116.746 Y114.746 E19.19599
G1 X116.614 Y114.788 E19.20567
G1 X115.984 Y114.947 E19.25105
G1 X115.291 Y115.03 E19.2998
G1 X114.041 Y115.096 E19.38723
G1 X113.481 Y115.117 E19.42637
G1 X113.035 Y115.115 E19.45752
G1 X112.394 Y115.085 E19.50234
G1 X109.679 Y114.996 E19.69208
G1 X107.58 Y114.979 E19.83869
G1 X105.134 Y114.982 E20.00953
G1 X103.209 Y114.979 E20.14399
G1 X100.454 Y115.014 E20.33643
G1 X97.861 Y115.118 E20.51769
G1 X97.29 Y115.113 E20.55757
G1 X96.327 Y115.061 E20.62493
G1 X95.688 Y115.032 E20.66961
G1 X95.042 Y114.963 E20.71498
G1 X94.307 Y114.783 E20.76784
G1 X93.77 Y114.593 E20.80762
G1 X93.176 Y114.329 E20.85303
G1 X92.738 Y114.073 E20.88846
G1 X92.444 Y113.882 E20.91295
G1 X91.922 Y113.495 E20.95834
G1 X91.451 Y113.047 E21.00374
G1 X91.022 Y112.537 E21.05029
G1 X90.645 Y112.008 E21.09566
G1 X90.348 Y111.465 E21.13889
G1 X90.314 Y111.393 E21.14445
G1 X90.073 Y110.789 E21.18987
G1 X89.953 Y110.369 E21.22038
G1 X89.819 Y109.81 E21.26053
G1 X89.787 Y109.667 E21.27076
G1 X89.402 Y107.836 E21.40145
G1 X89.307 Y107.262 E21.44209
G1 X89.203 Y106.409 E21.50211
G1 X89.16 Y105.96 E21.53361
G1 X89.14 Y105.402 E21.57261
G1 X89.155 Y104.812 E21.61383
G1 X89.204 Y104.101 E21.66361
G1 X89.283 Y103.366 E21.71524
G1 X89.46 Y101.872 E21.82032
G1 X89.543 Y101.335 E21.85828
G1 X89.64 Y100.85 E21.89282
G1 X89.806 Y100.222 E21.93819
G1 X90.048 Y99.619 E21.98358
G1 X90.453 Y98.913 E22.04043
G1 X90.798 Y98.421 E22.0824
G1 X90.824 Y98.387 E22.08539
G1 X91.331 Y97.815 E22.13877
G1 X92.273 Y96.896 E22.23069
G1 X94.194 Y94.969 E22.42074
G1 X95.024 Y94.076 E22.50589
G1 X95.196 Y93.912 E22.52249
G1 X96.054 Y93.009 E22.6095
M204 S3000
M205 X10 Y10
G0 F3000 X100.057 Y96.876
M204 S1800
M205 X8 Y8
;TYPE:SUPPORT
G1 F1800 X100.171 Y96.783 E22.61977
G1 X100.407 Y96.81 E22.63636
G1 X100.057 Y96.876 E22.66124
M204 S3000
M205 X10 Y10
G0 F3000 X102.297 Y96.577
M204 S1800
M205 X8 Y8
G1 F1800 X102.379 Y96.497 E22.66924
G1 X103.151 Y96.497 E22.72316
G1 X102.297 Y96.577 E22.78307
M204 S3000
M205 X10 Y10
G0 F3000 X102.749 Y101.533
M204 S1800
M205 X8 Y8
G1 F1800 X105.15 Y101.528 E22.95077
G1 X109.603 Y101.53 E23.2618
G1 X111.129 Y101.542 E23.36839
G1 X112.969 Y101.604 E23.49698
G1 X113.287 Y101.326 E23.52648
G1 X114.059 Y101.39 E23.58059
G1 X114.96 Y101.578 E23.64487
G1 X115.453 Y101.44 E23.68063
G1 X115.67 Y101.534 E23.69715
G1 X116.491 Y102.117 E23.76748
G1 X117.062 Y102.125 E23.80737
G1 X118.506 Y101.169 E23.92833
G1 X119.695 Y100.877 E24.01384
G1 X119.834 Y100.65 E24.03243
G1 X119.973 Y100.629 E24.04225
G1 X120.406 Y100.316 E24.07957
G1 X120.682 Y99.775 E24.12199
G1 X121.177 Y99.748 E24.15661
G1 X121.839 Y99.331 E24.21126
G1 X122.272 Y99.192 E24.24302
G1 X122.006 Y99.69 E24.28246
G1 X121.302 Y100.441 E24.35436
G1 X121.302 Y100.772 E24.37748
G1 X120.943 Y100.841 E24.40301
G1 X120.529 Y101.201 E24.44133
G1 X120.465 Y101.39 E24.45527
G1 X119.281 Y101.983 E24.54776
G1 X117.929 Y103.052 E24.66814
G1 X116.538 Y103.801 E24.77849
G1 X116.258 Y104.282 E24.81736
G1 X116.279 Y105.481 E24.90112
G1 X116.179 Y106.343 E24.96173
G1 X116.173 Y106.42 E24.96713
G1 X116.014 Y107.203 E25.02293
G1 X115.583 Y109.108 E25.15935
G1 X115.485 Y109.233 E25.17045
G1 X115.246 Y109.389 E25.19038
G1 X115.058 Y109.458 E25.20437
G1 X114.628 Y109.328 E25.23574
G1 X113.463 Y109.551 E25.31859
G1 X112.983 Y109.252 E25.35809
G1 X111.198 Y109.383 E25.4831
G1 X109.882 Y109.406 E25.57503
G1 X107.493 Y109.42 E25.7419
G1 X105.136 Y109.422 E25.90653
G1 X103.005 Y109.419 E26.05537
G1 X100.743 Y109.402 E26.21337
G1 X99.824 Y109.381 E26.27757
G1 X97.954 Y109.277 E26.40839
G1 X97.51 Y109.556 E26.44501
G1 X97.486 Y109.553 E26.4467
G1 X96.342 Y109.33 E26.52811
G1 X95.897 Y109.46 E26.56049
G1 X95.699 Y109.384 E26.5753
G1 X95.491 Y109.245 E26.59278
G1 X95.336 Y109.045 E26.61045
G1 X95.192 Y108.389 E26.65736
G1 X95.157 Y108.122 E26.67617
G1 X94.952 Y107.231 E26.74003
G1 X94.786 Y106.428 E26.7973
G1 X94.689 Y105.477 E26.86407
G1 X94.733 Y104.524 E26.9307
G1 X94.805 Y104.019 E26.96633
G1 X94.906 Y103.145 E27.02778
G1 X94.93 Y103.093 E27.03178
G1 X95.009 Y102.249 E27.09099
G1 X95.065 Y101.993 E27.1093
G1 X95.211 Y101.786 E27.12699
G1 X95.414 Y101.629 E27.14491
G1 X95.621 Y101.541 E27.16062
G1 X96.128 Y101.649 E27.19683
G1 X97.094 Y101.424 E27.26611
G1 X97.818 Y101.344 E27.31698
G1 X98.126 Y101.61 E27.34541
G1 X99.927 Y101.552 E27.47127
G1 X101.39 Y101.539 E27.57346
G1 X102.749 Y101.533 E27.66838
M204 S3000
M205 X10 Y10
G0 F3000 X120 Y101.378
M204 S1800
M205 X8 Y8
G1 F1800 X120 Y100.848 E27.7054
M204 S3000
M205 X10 Y10
G0 F3000 X108.577 Y96.524
M204 S1800
M205 X8 Y8
G1 F1800 X108.242 Y96.497 E27.72887
G1 X108.551 Y96.497 E27.75045
G1 X108.577 Y96.524 E27.75307
M204 S3000
M205 X10 Y10
G0 F600 X108.577 Y96.524 Z0.6
G0 F3000 X100.02 Y96.782
;TIME_ELAPSED:16.227200
;LAYER:1
M106 S255
M204 S1800
M205 X8 Y8
;TYPE:SUPPORT
G1 F1067.7 X100.146 Y96.704 E27.76047
G1 X100.322 Y96.702 E27.76925
G1 X100.754 Y96.827 E27.79168
G1 X100.083 Y96.953 E27.82574
G1 X99.892 Y96.993 E27.83548
G1 X100.02 Y96.782 E27.84779
M204 S3000
M205 X10 Y10
G0 F4500 X102.079 Y96.68
M204 S1800
M205 X8 Y8
G1 F1067.7 X102.346 Y96.417 E27.86649
G1 X103.65 Y96.417 E27.93155
G1 X103.697 Y96.468 E27.93501
G1 X103.529 Y96.542 E27.94417
G1 X102.131 Y96.672 E28.01421
G1 X102.079 Y96.68 E28.01684
M204 S3000
M205 X10 Y10
G0 F4500 X107.293 Y96.5
M204 S1800
M205 X8 Y8
G1 F1067.7 X107.374 Y96.417 E28.02262
G1 X108.585 Y96.417 E28.08304
G1 X108.78 Y96.621 E28.09712
G1 X107.293 Y96.5 E28.17155
M204 S3000
M205 X10 Y10
G0 F4500 X110.18 Y96.789
M204 S1800
M205 X8 Y8
G1 F1067.7 X110.36 Y96.706 E28.18144
G1 X110.458 Y96.705 E28.18633
G1 X110.596 Y96.79 E28.19442
G1 X110.653 Y96.887 E28.20003
G1 X110.18 Y96.789 E28.22413
M204 S3000
M205 X10 Y10
G0 F4500 X109.61 Y101.45
M204 S1800
M205 X8 Y8
G1 F1067.7 X111.135 Y101.462 E28.30021
G1 X112.949 Y101.521 E28.39076
G1 X113.265 Y101.244 E28.41173
G1 X114.07 Y101.311 E28.45203
G1 X114.962 Y101.497 E28.49749
G1 X115.447 Y101.352 E28.52274
G1 X115.721 Y101.47 E28.53763
G1 X116.528 Y102.032 E28.58669
G1 X117.048 Y102.038 E28.61263
G1 X118.476 Y101.092 E28.69809
G1 X119.643 Y100.808 E28.75801
G1 X119.784 Y100.575 E28.7716
G1 X119.941 Y100.552 E28.77952
G1 X120.344 Y100.262 E28.80429
G1 X120.635 Y99.689 E28.83635
G1 X120.651 Y99.697 E28.83724
G1 X121.152 Y99.668 E28.86228
G1 X121.809 Y99.255 E28.90099
G1 X122.346 Y99.083 E28.92913
G1 X122.421 Y99.077 E28.93288
G1 X122.173 Y99.56 E28.95997
