;FLAVOR:Marlin
;TIME:1060
;Filament used: 1.89722m
;Layer height: 0.3
;MINX:78.6
;MINY:89.06
;MINZ:0.3
;MAXX:131.4
;MAXY:120.94
;MAXZ:14.4
;Generated with Cura_SteamEngine 4.11.0
M140 S60
M105
M190 S60
M104 S200
M105
M109 S200
M82 ;absolute extrusion mode
G21 ;metric values
G90 ;absolute positioning
M82 ;set extruder to absolute mode
M107 ;start with the fan off
G28 X0 Y0 ;move X/Y to min endstops
G28 Z0 ;move Z to min endstops
G1 Z15.0 F100 ;move the platform down 15mm
G92 E0 ;zero the extruded length
G1 F200 E3 ;extrude 3mm of feed stock
G92 E0 ;zero the extruded length again
G1 F100
G0 Y20 F100
M117 Printing...
G5
G92 E0
G92 E0
G1 F2400 E-6
;LAYER_COUNT:49
;LAYER:0
M107
M204 S3000
M205 X10 Y10
G1 F600 Z0.375
G0 F3000 X80.533 Y90.895 Z0.375
M204 S1800
M205 X8 Y8
;TYPE:SKIRT
G1 F600 Z0.3
G1 F2400 E0
G1 X81.071 Y90.424 E0.04994
G1 X81.659 Y90.016 E0.09993
G1 X82.288 Y89.676 E0.14987
G1 X82.952 Y89.409 E0.19986
G1 X83.641 Y89.217 E0.24982
G1 X84.347 Y89.103 E0.29977
G1 X85.151 Y89.063 E0.35599
G1 X85.33 Y89.06 E0.3685
G1 X124.293 Y89.06 E3.08992
G1 X125.083 Y89.071 E3.1451
G1 X125.796 Y89.121 E3.19502
G1 X126.5 Y89.25 E3.24501
G1 X127.184 Y89.458 E3.29495
G1 X127.841 Y89.74 E3.34489
G1 X128.463 Y90.094 E3.39487
G1 X129.041 Y90.515 E3.44482
G1 X129.569 Y90.998 E3.4948
G1 X130.039 Y91.536 E3.5447
G1 X130.447 Y92.124 E3.59469
G1 X130.786 Y92.754 E3.64466
G1 X131.053 Y93.417 E3.69458
G1 X131.244 Y94.107 E3.74458
G1 X131.357 Y94.813 E3.79452
G1 X131.397 Y95.61 E3.85026
G1 X131.4 Y95.79 E3.86283
G1 X131.4 Y113.883 E5.12656
G1 X131.391 Y114.61 E5.17735
G1 X131.342 Y115.324 E5.22733
G1 X131.214 Y116.028 E5.27731
G1 X131.008 Y116.713 E5.32727
G1 X130.727 Y117.37 E5.37718
G1 X130.374 Y117.993 E5.4272
G1 X129.954 Y118.572 E5.47716
G1 X129.472 Y119.1 E5.52709
G1 X128.935 Y119.572 E5.57703
G1 X128.347 Y119.98 E5.62702
G1 X127.718 Y120.321 E5.67699
G1 X127.055 Y120.589 E5.72694
G1 X126.366 Y120.781 E5.7769
G1 X125.66 Y120.896 E5.82686
G1 X124.849 Y120.937 E5.88358
G1 X124.67 Y120.94 E5.89608
G1 X85.624 Y120.939 E8.6233
G1 X84.926 Y120.93 E8.67205
G1 X84.213 Y120.881 E8.72197
G1 X83.509 Y120.753 E8.77195
G1 X82.824 Y120.547 E8.82191
G1 X82.167 Y120.265 E8.87185
G1 X81.545 Y119.912 E8.9218
G1 X80.966 Y119.492 E8.97176
G1 X80.437 Y119.01 E9.02175
G1 X79.966 Y118.472 E9.07169
G1 X79.558 Y117.885 E9.12162
G1 X79.218 Y117.255 E9.17162
G1 X78.95 Y116.592 E9.22157
G1 X78.758 Y115.903 E9.27153
G1 X78.644 Y115.197 E9.32148
G1 X78.602 Y114.371 E9.37925
G1 X78.6 Y114.198 E9.39133
G1 X78.601 Y96.047 E10.65911
G1 X78.61 Y95.382 E10.70556
G1 X78.659 Y94.669 E10.75548
G1 X78.788 Y93.965 E10.80547
G1 X78.995 Y93.281 E10.85539
G1 X79.277 Y92.623 E10.90539
G1 X79.63 Y92.001 E10.95534
G1 X80.05 Y91.423 E11.00525
G1 X80.533 Y90.895 E11.05523
M204 S3000
M205 X10 Y10
G0 F3000 X81.08 Y91.148
M204 S1800
M205 X8 Y8
G1 F2400 X81.612 Y90.719 E11.10296
G1 X82.19 Y90.354 E11.15071
G1 X82.807 Y90.06 E11.19845
G1 X83.453 Y89.84 E11.24611
G1 X84.121 Y89.697 E11.29383
G1 X84.845 Y89.631 E11.34461
G1 X85.33 Y89.62 E11.37849
G1 X124.293 Y89.62 E14.09991
G1 X125.075 Y89.631 E14.15454
G1 X125.756 Y89.68 E14.20222
G1 X126.427 Y89.809 E14.24995
G1 X127.078 Y90.016 E14.29766
G1 X127.701 Y90.297 E14.3454
G1 X128.287 Y90.649 E14.39314
G1 X128.827 Y91.067 E14.44084
G1 X129.315 Y91.545 E14.48855
G1 X129.744 Y92.077 E14.53629
G1 X130.108 Y92.655 E14.584
G1 X130.402 Y93.272 E14.63173
G1 X130.621 Y93.919 E14.67944
G1 X130.764 Y94.587 E14.72716
G1 X130.829 Y95.306 E14.77758
G1 X130.84 Y95.79 E14.8114
G1 X130.84 Y113.876 E16.07464
G1 X130.831 Y114.603 E16.12542
G1 X130.782 Y115.285 E16.17318
G1 X130.654 Y115.956 E16.22089
G1 X130.449 Y116.608 E16.26863
G1 X130.169 Y117.231 E16.31633
G1 X129.819 Y117.817 E16.36401
G1 X129.402 Y118.359 E16.41177
G1 X128.925 Y118.848 E16.45949
G1 X128.394 Y119.277 E16.50717
G1 X127.816 Y119.642 E16.55491
G1 X127.2 Y119.937 E16.60262
G1 X126.553 Y120.158 E16.65037
G1 X125.885 Y120.302 E16.6981
G1 X125.155 Y120.369 E16.7493
G1 X124.67 Y120.38 E16.78319
G1 X85.632 Y120.38 E19.50985
G1 X84.934 Y120.371 E19.5586
G1 X84.252 Y120.322 E19.60636
G1 X83.581 Y120.194 E19.65407
G1 X82.93 Y119.988 E19.70176
G1 X82.306 Y119.708 E19.74954
G1 X81.72 Y119.357 E19.79725
G1 X81.179 Y118.94 E19.84496
G1 X80.69 Y118.462 E19.89272
G1 X80.261 Y117.931 E19.9404
G1 X79.896 Y117.353 E19.98814
G1 X79.602 Y116.737 E20.03582
G1 X79.381 Y116.09 E20.08357
G1 X79.237 Y115.422 E20.1313
G1 X79.171 Y114.689 E20.18271
G1 X79.16 Y114.198 E20.21701
G1 X79.161 Y96.055 E21.48423
G1 X79.17 Y95.39 E21.53068
G1 X79.219 Y94.709 E21.57837
G1 X79.347 Y94.037 E21.62615
G1 X79.553 Y93.386 E21.67384
G1 X79.834 Y92.763 E21.72158
G1 X80.185 Y92.177 E21.76929
G1 X80.603 Y91.636 E21.81704
G1 X81.08 Y91.148 E21.86471
M204 S3000
M205 X10 Y10
G0 F3000 X81.154 Y91.861
M204 S1800
M205 X8 Y8
G1 F2400 X81.626 Y91.415 E21.91006
G1 X82.149 Y91.031 E21.95538
G1 X82.716 Y90.713 E22.00079
G1 X83.317 Y90.467 E22.04614
G1 X83.944 Y90.297 E22.09152
G1 X84.861 Y90.191 E22.156
G1 X85.33 Y90.18 E22.18876
G1 X124.293 Y90.18 E24.91018
G1 X125.067 Y90.191 E24.96425
G1 X125.714 Y90.24 E25.00957
G1 X126.351 Y90.368 E25.05495
G1 X126.967 Y90.574 E25.10032
G1 X127.554 Y90.854 E25.14574
G1 X128.101 Y91.203 E25.19106
G1 X128.602 Y91.617 E25.23646
G1 X129.047 Y92.09 E25.28182
G1 X129.432 Y92.614 E25.32723
G1 X129.749 Y93.181 E25.37261
G1 X129.994 Y93.782 E25.41794
G1 X130.163 Y94.409 E25.46329
G1 X130.269 Y95.322 E25.52749
G1 X130.28 Y95.79 E25.56019
G1 X130.28 Y113.869 E26.82294
G1 X130.271 Y114.596 E26.87372
G1 X130.223 Y115.244 E26.91911
G1 X130.095 Y115.881 E26.96449
G1 X129.891 Y116.498 E27.00988
G1 X129.612 Y117.085 E27.05527
G1 X129.264 Y117.633 E27.10061
G1 X128.851 Y118.134 E27.14596
G1 X128.379 Y118.581 E27.19137
G1 X127.856 Y118.966 E27.23673
G1 X127.29 Y119.284 E27.28208
G1 X126.688 Y119.531 E27.32752
G1 X126.062 Y119.701 E27.37283
G1 X125.139 Y119.809 E27.43774
G1 X124.67 Y119.82 E27.47051
G1 X85.639 Y119.82 E30.19668
G1 X84.941 Y119.811 E30.24543
G1 X84.293 Y119.762 E30.29082
G1 X83.656 Y119.635 E30.33619
G1 X83.04 Y119.43 E30.38154
G1 X82.453 Y119.151 E30.42693
G1 X81.905 Y118.802 E30.47231
G1 X81.404 Y118.389 E30.51766
G1 X80.957 Y117.917 E30.56307
G1 X80.572 Y117.394 E30.60843
G1 X80.254 Y116.827 E30.65383
G1 X80.008 Y116.226 E30.69919
G1 X79.838 Y115.599 E30.74456
G1 X79.731 Y114.674 E30.8096
G1 X79.72 Y114.198 E30.84286
G1 X79.72 Y96.063 E32.10952
G1 X79.729 Y95.398 E32.15597
G1 X79.778 Y94.75 E32.20136
G1 X79.906 Y94.113 E32.24674
G1 X80.111 Y93.496 E32.29216
G1 X80.391 Y92.91 E32.33752
G1 X80.74 Y92.362 E32.3829
G1 X81.154 Y91.861 E32.42829
M204 S3000
M205 X10 Y10
G1 F2400 E26.42829
;MESH:kakeru1.stl
G0 F3000 X84.335 Y96.314
G0 X85.854 Y96.314
G0 X123.6 Y113.14
M204 S1800
M205 X8 Y8
;TYPE:WALL-INNER
G1 F2400 E32.42829
G1 F1800 X86.4 Y113.14 E35.02657
G1 X86.4 Y96.86 E36.16367
G1 X123.6 Y96.86 E38.76195
G1 X123.6 Y113.14 E39.89905
M204 S3000
M205 X10 Y10
G0 F3000 X124.16 Y113.7
M204 S1800
M205 X8 Y8
G1 F1800 X85.84 Y113.7 E42.57556
G1 X85.84 Y96.3 E43.79088
G1 X124.16 Y96.3 E46.46739
G1 X124.16 Y113.7 E47.68272
M204 S3000
M205 X10 Y10
G0 F3000 X124.72 Y114.26
M204 S1800
M205 X8 Y8
;TYPE:WALL-OUTER
G1 F1800 X85.28 Y114.26 E50.43746
G1 X85.28 Y95.74 E51.73101
G1 X124.72 Y95.74 E54.48575
G1 X124.72 Y114.26 E55.7793
M204 S3000
M205 X10 Y10
G0 F3000 X124.52 Y114.26
G0 X124.09 Y113.63
G0 X123.05 Y112.59
M204 S1800
M205 X8 Y8
;TYPE:SKIN
G1 F1800 X86.95 Y112.59 E58.30075
G1 X86.95 Y97.41 E59.36102
G1 X123.05 Y97.41 E61.88247
G1 X123.05 Y112.59 E62.94274
M204 S3000
M205 X10 Y10
G0 F3000 X122.789 Y98.238
M204 S1800
M205 X8 Y8
G1 F1800 X122.22 Y97.669 E62.99894
M204 S3000
M205 X10 Y10
G0 F3000 X121.428 Y97.669
M204 S1800
M205 X8 Y8
G1 F1800 X122.789 Y99.03 E63.13338
M204 S3000
M205 X10 Y10
G0 F3000 X122.789 Y99.822
M204 S1800
M205 X8 Y8
G1 F1800 X120.636 Y97.669 E63.34604
M204 S3000
M205 X10 Y10
G0 F3000 X119.844 Y97.669
M204 S1800
M205 X8 Y8
G1 F1800 X122.789 Y100.614 E63.63694
M204 S3000
M205 X10 Y10
G0 F3000 X122.789 Y101.406
M204 S1800
M205 X8 Y8
G1 F1800 X119.052 Y97.669 E64.00608
M204 S3000
M205 X10 Y10
G0 F3000 X118.26 Y97.669
M204 S1800
M205 X8 Y8
G1 F1800 X122.789 Y102.198 E64.45344
M204 S3000
M205 X10 Y10
G0 F3000 X122.789 Y102.99
M204 S1800
M205 X8 Y8
G1 F1800 X117.468 Y97.669 E64.97904
M204 S3000
M205 X10 Y10
G0 F3000 X116.676 Y97.669
M204 S1800
M205 X8 Y8
G1 F1800 X122.789 Y103.782 E65.58286
M204 S3000
M205 X10 Y10
G0 F3000 X122.789 Y104.574
M204 S1800
M205 X8 Y8
G1 F1800 X115.884 Y97.669 E66.26492
M204 S3000
M205 X10 Y10
G0 F3000 X115.092 Y97.669
M204 S1800
M205 X8 Y8
G1 F1800 X122.789 Y105.365 E67.02516
M204 S3000
M205 X10 Y10
G0 F3000 X122.789 Y106.157
M204 S1800
M205 X8 Y8
G1 F1800 X114.3 Y97.669 E67.86364
M204 S3000
M205 X10 Y10
G0 F3000 X113.509 Y97.669
M204 S1800
M205 X8 Y8
G1 F1800 X122.789 Y106.949 E68.78029
M204 S3000
M205 X10 Y10
G0 F3000 X122.789 Y107.741
M204 S1800
M205 X8 Y8
G1 F1800 X112.717 Y97.669 E69.77518
M204 S3000
M205 X10 Y10
G0 F3000 X111.925 Y97.669
M204 S1800
M205 X8 Y8
G1 F1800 X122.789 Y108.533 E70.8483
M204 S3000
M205 X10 Y10
G0 F3000 X122.789 Y109.325
M204 S1800
M205 X8 Y8
G1 F1800 X111.133 Y97.669 E71.99965
M204 S3000
M205 X10 Y10
G0 F3000 X110.341 Y97.669
M204 S1800
M205 X8 Y8
G1 F1800 X122.789 Y110.117 E73.22923
M204 S3000
M205 X10 Y10
G0 F3000 X122.789 Y110.909
M204 S1800
M205 X8 Y8
G1 F1800 X109.549 Y97.669 E74.53705
M204 S3000
M205 X10 Y10
G0 F3000 X108.757 Y97.669
M204 S1800
M205 X8 Y8
G1 F1800 X122.789 Y111.701 E75.92309
M204 S3000
M205 X10 Y10
G0 F3000 X122.625 Y112.329
M204 S1800
M205 X8 Y8
G1 F1800 X107.965 Y97.669 E77.37117
M204 S3000
M205 X10 Y10
G0 F3000 X107.173 Y97.669
M204 S1800
M205 X8 Y8
G1 F1800 X121.833 Y112.329 E78.81925
M204 S3000
M205 X10 Y10
G0 F3000 X121.041 Y112.329
M204 S1800
M205 X8 Y8
G1 F1800 X106.381 Y97.669 E80.26733
M204 S3000
M205 X10 Y10
G0 F3000 X105.589 Y97.669
M204 S1800
M205 X8 Y8
G1 F1800 X120.249 Y112.329 E81.71541
M204 S3000
M205 X10 Y10
G0 F3000 X119.457 Y112.329
M204 S1800
M205 X8 Y8
G1 F1800 X104.797 Y97.669 E83.16349
M204 S3000
M205 X10 Y10
G0 F3000 X104.005 Y97.669
M204 S1800
M205 X8 Y8
G1 F1800 X118.665 Y112.329 E84.61157
M204 S3000
M205 X10 Y10
G0 F3000 X117.873 Y112.329
M204 S1800
M205 X8 Y8
G1 F1800 X103.213 Y97.669 E86.05965
M204 S3000
M205 X10 Y10
G0 F3000 X102.421 Y97.669
M204 S1800
M205 X8 Y8
G1 F1800 X117.081 Y112.329 E87.50773
M204 S3000
M205 X10 Y10
G0 F3000 X116.289 Y112.329
M204 S1800
M205 X8 Y8
G1 F1800 X101.629 Y97.669 E88.95581
M204 S3000
M205 X10 Y10
G0 F3000 X100.837 Y97.669
M204 S1800
M205 X8 Y8
G1 F1800 X115.497 Y112.329 E90.40389
M204 S3000
M205 X10 Y10
G0 F3000 X114.705 Y112.329
M204 S1800
M205 X8 Y8
G1 F1800 X100.045 Y97.669 E91.85196
M204 S3000
M205 X10 Y10
G0 F3000 X99.253 Y97.669
M204 S1800
M205 X8 Y8
G1 F1800 X113.913 Y112.329 E93.30004
M204 S3000
M205 X10 Y10
G0 F3000 X113.121 Y112.329
M204 S1800
M205 X8 Y8
G1 F1800 X98.461 Y97.669 E94.74812
M204 S3000
M205 X10 Y10
G0 F3000 X97.669 Y97.669
M204 S1800
M205 X8 Y8
G1 F1800 X112.329 Y112.329 E96.1962
M204 S3000
M205 X10 Y10
G0 F3000 X111.537 Y112.329
M204 S1800
M205 X8 Y8
G1 F1800 X96.877 Y97.669 E97.64428
M204 S3000
M205 X10 Y10
G0 F3000 X96.085 Y97.669
M204 S1800
M205 X8 Y8
G1 F1800 X110.745 Y112.329 E99.09236
M204 S3000
M205 X10 Y10
G0 F3000 X109.953 Y112.329
M204 S1800
M205 X8 Y8
G1 F1800 X95.293 Y97.669 E100.54044
M204 S3000
M205 X10 Y10
G0 F3000 X94.501 Y97.669
M204 S1800
M205 X8 Y8
G1 F1800 X109.161 Y112.329 E101.98852
M204 S3000
M205 X10 Y10
G0 F3000 X108.369 Y112.329
M204 S1800
M205 X8 Y8
G1 F1800 X93.71 Y97.669 E103.43655
M204 S3000
M205 X10 Y10
G0 F3000 X92.918 Y97.669
M204 S1800
M205 X8 Y8
G1 F1800 X107.577 Y112.329 E104.88458
M204 S3000
M205 X10 Y10
G0 F3000 X106.785 Y112.329
M204 S1800
M205 X8 Y8
G1 F1800 X92.126 Y97.669 E106.33261
M204 S3000
M205 X10 Y10
G0 F3000 X91.334 Y97.669
M204 S1800
M205 X8 Y8
G1 F1800 X105.993 Y112.329 E107.78064
M204 S3000
M205 X10 Y10
G0 F3000 X105.201 Y112.329
M204 S1800
M205 X8 Y8
G1 F1800 X90.542 Y97.669 E109.22867
M204 S3000
M205 X10 Y10
G0 F3000 X89.75 Y97.669
M204 S1800
M205 X8 Y8
G1 F1800 X104.409 Y112.329 E110.6767
M204 S3000
M205 X10 Y10
G0 F3000 X103.618 Y112.329
M204 S1800
M205 X8 Y8
G1 F1800 X88.958 Y97.669 E112.12477
M204 S3000
M205 X10 Y10
G0 F3000 X88.166 Y97.669
M204 S1800
M205 X8 Y8
G1 F1800 X102.826 Y112.329 E113.57285
M204 S3000
M205 X10 Y10
G0 F3000 X102.034 Y112.329
M204 S1800
M205 X8 Y8
G1 F1800 X87.374 Y97.669 E115.02093
M204 S3000
M205 X10 Y10
G0 F3000 X87.209 Y98.297
M204 S1800
M205 X8 Y8
G1 F1800 X101.242 Y112.329 E116.40703
M204 S3000
M205 X10 Y10
G0 F3000 X100.45 Y112.329
M204 S1800
M205 X8 Y8
G1 F1800 X87.209 Y99.088 E117.71494
M204 S3000
M205 X10 Y10
G0 F3000 X87.209 Y99.88
M204 S1800
M205 X8 Y8
G1 F1800 X99.658 Y112.329 E118.94462
M204 S3000
M205 X10 Y10
G0 F3000 X98.866 Y112.329
M204 S1800
M205 X8 Y8
G1 F1800 X87.209 Y100.672 E120.09607
M204 S3000
M205 X10 Y10
G0 F3000 X87.209 Y101.464
M204 S1800
M205 X8 Y8
G1 F1800 X98.074 Y112.329 E121.16929
M204 S3000
M205 X10 Y10
G0 F3000 X97.282 Y112.329
M204 S1800
M205 X8 Y8
G1 F1800 X87.209 Y102.256 E122.16428
M204 S3000
M205 X10 Y10
G0 F3000 X87.209 Y103.048
M204 S1800
M205 X8 Y8
G1 F1800 X96.49 Y112.329 E123.08103
M204 S3000
M205 X10 Y10
G0 F3000 X95.698 Y112.329
M204 S1800
M205 X8 Y8
G1 F1800 X87.209 Y103.84 E123.91956
M204 S3000
M205 X10 Y10
G0 F3000 X87.209 Y104.632
M204 S1800
M205 X8 Y8
G1 F1800 X94.906 Y112.329 E124.67985
M204 S3000
M205 X10 Y10
G0 F3000 X94.114 Y112.329
M204 S1800
M205 X8 Y8
G1 F1800 X87.209 Y105.424 E125.36191
M204 S3000
M205 X10 Y10
G0 F3000 X87.209 Y106.216
M204 S1800
M205 X8 Y8
G1 F1800 X93.322 Y112.329 E125.96573
M204 S3000
M205 X10 Y10
G0 F3000 X92.53 Y112.329
M204 S1800
M205 X8 Y8
G1 F1800 X87.209 Y107.008 E126.49133
M204 S3000
M205 X10 Y10
G0 F3000 X87.209 Y107.8
M204 S1800
M205 X8 Y8
G1 F1800 X91.738 Y112.329 E126.93869
M204 S3000
M205 X10 Y10
G0 F3000 X90.946 Y112.329
M204 S1800
M205 X8 Y8
G1 F1800 X87.209 Y108.592 E127.30782
M204 S3000
M205 X10 Y10
G0 F3000 X87.209 Y109.384
M204 S1800
M205 X8 Y8
G1 F1800 X90.154 Y112.329 E127.59872
M204 S3000
M205 X10 Y10
G0 F3000 X89.362 Y112.329
M204 S1800
M205 X8 Y8
G1 F1800 X87.209 Y110.176 E127.81139
M204 S3000
M205 X10 Y10
G0 F3000 X87.209 Y110.968
M204 S1800
M205 X8 Y8
G1 F1800 X88.57 Y112.329 E127.94583
M204 S3000
M205 X10 Y10
G0 F3000 X87.778 Y112.329
M204 S1800
M205 X8 Y8
G1 F1800 X87.209 Y111.76 E128.00203
M204 S3000
M205 X10 Y10
;MESH:NONMESH
G0 F600 X87.209 Y111.76 Z0.6
G0 F3000 X124 Y113.54
;TIME_ELAPSED:66.307990
;LAYER:1
M106 S255
M204 S1800
M205 X8 Y8
;TYPE:WALL-INNER
;MESH:kakeru1.stl
G1 F2700 X86 Y113.54 E129.89786
G1 X86 Y96.46 E130.74999
G1 X124 Y96.46 E132.64581
G1 X124 Y113.54 E133.49794
M204 S3000
M205 X10 Y10
G0 F4500 X124.4 Y113.94
M204 S1800
M205 X8 Y8
G1 F2700 X85.6 Y113.94 E135.43368
G1 X85.6 Y96.06 E136.32571
G1 X124.4 Y96.06 E138.26145
G1 X124.4 Y113.94 E139.15349
M204 S3000
M205 X10 Y10
G0 F4500 X124.8 Y114.34
M204 S1800
M205 X8 Y8
;TYPE:WALL-OUTER
G1 F2700 X85.2 Y114.34 E141.12914
G1 X85.2 Y95.66 E142.06109
G1 X124.8 Y95.66 E144.03674
G1 X124.8 Y114.34 E144.96869
M204 S3000
M205 X10 Y10
G0 F4500 X124.6 Y114.34
G0 X124.33 Y113.87
G0 X123.61 Y113.15
M204 S1800
M205 X8 Y8
;TYPE:SKIN
G1 F1800 X86.39 Y113.15 E146.82561
G1 X86.39 Y96.85 E147.63882
G1 X123.61 Y96.85 E149.49573
G1 X123.61 Y113.15 E150.30894
M204 S3000
M205 X10 Y10
G0 F4500 X123.429 Y112.461
M204 S1800
M205 X8 Y8
G1 F1800 X122.92 Y112.97 E150.34485
M204 S3000
M205 X10 Y10
G0 F4500 X122.354 Y112.97
M204 S1800
M205 X8 Y8
G1 F1800 X123.429 Y111.896 E150.42067
M204 S3000
M205 X10 Y10
G0 F4500 X123.429 Y111.33
M204 S1800
M205 X8 Y8
G1 F1800 X121.789 Y112.97 E150.53638
M204 S3000
M205 X10 Y10
G0 F4500 X121.223 Y112.97
M204 S1800
M205 X8 Y8
G1 F1800 X123.429 Y110.764 E150.69202
M204 S3000
M205 X10 Y10
G0 F4500 X123.429 Y110.199
M204 S1800
M205 X8 Y8
G1 F1800 X120.657 Y112.97 E150.88757
M204 S3000
M205 X10 Y10
G0 F4500 X120.092 Y112.97
M204 S1800
M205 X8 Y8
G1 F1800 X123.429 Y109.633 E151.12301
M204 S3000
M205 X10 Y10
G0 F4500 X123.429 Y109.067
M204 S1800
M205 X8 Y8
