;FLAVOR:Marlin
;TIME:1531
;Filament used: 2.94516m
;Layer height: 0.3
;MINX:87.921
;MINY:53.073
;MINZ:0.3
;MAXX:122.08
;MAXY:117.243
;MAXZ:15
;Generated with Cura_SteamEngine 4.11.0
M140 S60
M105
M190 S60
M104 S200
M105
M109 S200
M82 ;absolute extrusion mode
G21 ;metric values
G90 ;absolute positioning
M82 ;set extruder to absolute mode
M107 ;start with the fan off
G28 X0 Y0 ;move X/Y to min endstops
G28 Z0 ;move Z to min endstops
G1 Z15.0 F100 ;move the platform down 15mm
G92 E0 ;zero the extruded length
G1 F200 E3 ;extrude 3mm of feed stock
G92 E0 ;zero the extruded length again
G1 F100
G0 Y20 F100
M117 Printing...
G5
G92 E0
G92 E0
G1 F2400 E-6
;LAYER_COUNT:50
;LAYER:0
M107
M204 S3000
M205 X10 Y10
G1 F600 Z0.375
G0 F3000 X89.412 Y56.724 Z0.375
M204 S1800
M205 X8 Y8
;TYPE:SKIRT
G1 F600 Z0.3
G1 F2400 E0
G1 X89.856 Y56.134 E0.05157
G1 X90.326 Y55.613 E0.10058
G1 X90.743 Y55.21 E0.14109
G1 X91.211 Y54.869 E0.18153
G1 X91.722 Y54.596 E0.222
G1 X92.266 Y54.395 E0.26251
G1 X92.831 Y54.271 E0.30291
G1 X92.993 Y54.258 E0.31426
G1 X93.709 Y53.922 E0.3695
G1 X94.255 Y53.713 E0.41034
G1 X94.632 Y53.588 E0.43808
G1 X95.449 Y53.361 E0.4973
G1 X95.757 Y53.288 E0.51941
G1 X96.474 Y53.146 E0.57047
G1 X97.049 Y53.073 E0.61095
G1 X97.628 Y53.08 E0.65139
G1 X98.201 Y53.166 E0.69186
G1 X98.756 Y53.33 E0.73229
G1 X99.284 Y53.57 E0.7728
G1 X99.774 Y53.879 E0.81326
G1 X100.216 Y54.253 E0.8537
G1 X100.603 Y54.684 E0.89416
G1 X100.916 Y55.147 E0.93319
G1 X101.02 Y55.325 E0.94759
G1 X101.277 Y55.844 E0.98804
G1 X101.461 Y56.394 E1.02855
G1 X101.49 Y56.553 E1.03984
G1 X101.969 Y56.503 E1.07348
G1 X102.902 Y56.45 E1.13875
G1 X103.07 Y56.444 E1.15049
G1 X105.053 Y56.412 E1.28901
G1 X106.94 Y56.444 E1.42083
G1 X107.108 Y56.45 E1.43257
G1 X108.044 Y56.504 E1.49806
G1 X108.548 Y56.558 E1.53346
G1 X108.67 Y56.105 E1.56623
G1 X108.897 Y55.572 E1.60669
G1 X109.195 Y55.072 E1.64735
G1 X109.333 Y54.874 E1.66421
G1 X109.697 Y54.423 E1.70469
G1 X110.118 Y54.026 E1.7451
G1 X110.591 Y53.691 E1.78559
G1 X111.105 Y53.424 E1.82604
G1 X111.651 Y53.23 E1.86652
G1 X112.218 Y53.114 E1.90694
G1 X112.797 Y53.076 E1.94747
G1 X113.608 Y53.159 E2.00441
G1 X114.244 Y53.287 E2.04972
G1 X114.544 Y53.359 E2.07127
G1 X115.375 Y53.591 E2.13153
G1 X115.733 Y53.708 E2.15784
G1 X116.582 Y54.03 E2.22126
G1 X116.92 Y54.057 E2.24494
G1 X117.485 Y54.184 E2.28539
G1 X118.028 Y54.386 E2.32586
G1 X118.537 Y54.662 E2.3663
G1 X119.073 Y55.065 E2.41314
G1 X119.551 Y55.488 E2.45772
G1 X120.052 Y56.015 E2.50851
G1 X120.394 Y56.444 E2.54683
G1 X120.781 Y57.022 E2.59541
G1 X121.13 Y57.65 E2.64559
G1 X121.378 Y58.18 E2.68647
G1 X121.62 Y58.808 E2.73347
G1 X121.757 Y59.228 E2.76433
G1 X121.936 Y59.894 E2.8125
G1 X122.047 Y60.462 E2.85292
G1 X122.08 Y61.041 E2.89343
G1 X122.032 Y61.618 E2.93387
G1 X121.905 Y62.183 E2.97432
G1 X121.822 Y62.405 E2.99087
G1 X121.876 Y63.69 E3.0807
G1 X121.888 Y64.629 E3.14629
G1 X121.885 Y66.267 E3.2607
G1 X121.869 Y67.199 E3.32581
G1 X121.834 Y67.986 E3.38083
G1 X121.822 Y68.167 E3.3935
G1 X121.762 Y68.849 E3.44132
G1 X121.731 Y69.206 E3.46635
G1 X121.851 Y69.772 E3.50676
G1 X121.893 Y70.35 E3.54724
G1 X121.855 Y70.928 E3.5877
G1 X121.702 Y71.614 E3.63679
G1 X121.603 Y71.931 E3.65998
G1 X121.411 Y72.431 E3.69739
G1 X121.148 Y73.004 E3.74143
G1 X120.907 Y73.454 E3.77709
G1 X120.617 Y73.925 E3.81572
G1 X120.136 Y74.562 E3.87147
G1 X119.647 Y75.095 E3.92199
G1 X119.227 Y75.494 E3.96245
G1 X118.756 Y75.831 E4.00291
G1 X118.243 Y76.101 E4.0434
G1 X117.698 Y76.297 E4.08385
G1 X117.131 Y76.416 E4.12432
G1 X117.001 Y76.425 E4.13342
G1 X116.424 Y76.699 E4.17803
G1 X115.798 Y76.95 E4.22514
G1 X115.358 Y77.099 E4.25759
G1 X114.691 Y77.284 E4.30593
G1 X114.476 Y77.338 E4.32142
G1 X113.961 Y77.452 E4.35826
G1 X113.624 Y77.517 E4.38223
G1 X113.048 Y77.585 E4.42274
G1 X112.469 Y77.573 E4.46319
G1 X111.897 Y77.481 E4.50366
G1 X111.343 Y77.312 E4.54411
G1 X110.818 Y77.068 E4.58455
G1 X110.331 Y76.754 E4.62502
G1 X109.892 Y76.376 E4.66548
G1 X109.509 Y75.941 E4.70596
G1 X109.195 Y75.48 E4.74492
G1 X108.912 Y74.975 E4.78536
G1 X108.701 Y74.435 E4.82585
G1 X108.625 Y74.116 E4.84875
G1 X108.031 Y74.181 E4.89049
G1 X107.098 Y74.234 E4.95576
G1 X106.93 Y74.24 E4.9675
G1 X104.947 Y74.272 E5.10603
G1 X103.06 Y74.24 E5.23785
G1 X102.892 Y74.234 E5.24959
G1 X101.956 Y74.18 E5.31507
G1 X101.378 Y74.117 E5.35568
G1 X101.218 Y74.652 E5.39469
G1 X100.976 Y75.179 E5.43519
G1 X100.704 Y75.615 E5.47108
G1 X100.556 Y75.822 E5.48886
G1 X100.187 Y76.269 E5.52934
G1 X99.76 Y76.661 E5.56983
G1 X99.284 Y76.99 E5.61024
G1 X98.767 Y77.251 E5.65069
G1 X98.218 Y77.438 E5.6912
G1 X97.649 Y77.548 E5.73168
G1 X97.071 Y77.578 E5.77211
G1 X96.329 Y77.5 E5.82422
G1 X95.749 Y77.386 E5.86551
G1 X95.466 Y77.32 E5.8858
G1 X94.672 Y77.106 E5.94324
G1 X94.2 Y76.949 E5.97798
G1 X93.5 Y76.668 E6.03067
G1 X93.062 Y76.462 E6.06447
G1 X92.512 Y76.164 E6.10817
G1 X92.344 Y76.14 E6.12002
G1 X91.787 Y75.981 E6.16048
G1 X91.257 Y75.747 E6.20094
G1 X90.765 Y75.442 E6.24138
G1 X90.319 Y75.072 E6.28185
G1 X89.873 Y74.574 E6.32855
G1 X89.464 Y74.036 E6.37575
G1 X89.08 Y73.429 E6.42592
G1 X88.796 Y72.882 E6.46897
G1 X88.604 Y72.455 E6.50167
G1 X88.379 Y71.87 E6.54544
G1 X88.249 Y71.475 E6.57449
G1 X88.074 Y70.838 E6.62063
G1 X87.959 Y70.27 E6.66111
G1 X87.924 Y69.692 E6.70155
G1 X87.969 Y69.114 E6.74205
G1 X88.092 Y68.548 E6.7825
G1 X88.204 Y68.245 E6.80506
G1 X88.169 Y67.998 E6.82249
G1 X88.136 Y67.231 E6.87611
G1 X88.119 Y66.328 E6.93919
G1 X88.116 Y65.865 E6.97153
G1 X88.119 Y64.328 E7.07889
G1 X88.132 Y63.548 E7.13337
G1 X88.136 Y63.414 E7.14274
G1 X88.173 Y62.654 E7.19588
G1 X88.182 Y62.514 E7.20568
G1 X88.235 Y61.869 E7.25088
G1 X88.302 Y61.319 E7.28958
G1 X88.193 Y60.826 E7.32485
G1 X88.146 Y60.249 E7.36528
G1 X88.18 Y59.67 E7.4058
G1 X88.362 Y58.873 E7.4629
G1 X88.565 Y58.324 E7.50378
G1 X88.826 Y57.738 E7.54859
G1 X89.1 Y57.224 E7.58927
G1 X89.412 Y56.724 E7.63043
M204 S3000
M205 X10 Y10
G0 F3000 X89.887 Y57.02
M204 S1800
M205 X8 Y8
G1 F2400 X90.272 Y56.509 E7.67512
G1 X90.742 Y55.988 E7.72413
G1 X91.132 Y55.615 E7.76182
G1 X91.573 Y55.304 E7.79951
G1 X92.055 Y55.062 E7.83718
G1 X92.567 Y54.894 E7.87482
G1 X93.098 Y54.803 E7.91245
G1 X93.568 Y54.595 E7.94835
G1 X93.909 Y54.445 E7.97437
G1 X94.455 Y54.236 E8.0152
G1 X94.782 Y54.128 E8.03926
G1 X95.599 Y53.901 E8.09848
G1 X95.866 Y53.837 E8.11766
G1 X96.583 Y53.695 E8.16871
G1 X97.118 Y53.63 E8.20636
G1 X97.657 Y53.645 E8.24402
G1 X98.188 Y53.739 E8.28168
G1 X98.699 Y53.91 E8.31932
G1 X99.18 Y54.155 E8.35702
G1 X99.619 Y54.468 E8.39468
G1 X100.006 Y54.843 E8.43232
G1 X100.433 Y55.43 E8.48302
G1 X100.537 Y55.608 E8.49742
G1 X100.774 Y56.092 E8.53506
G1 X100.936 Y56.606 E8.5727
G1 X101.021 Y57.139 E8.6104
G1 X101.021 Y57.176 E8.61298
G1 X101.755 Y57.084 E8.66465
G1 X102.001 Y57.062 E8.6819
G1 X102.934 Y57.009 E8.74718
G1 X103.079 Y57.004 E8.75731
G1 X105.046 Y56.972 E8.89471
G1 X106.93 Y57.004 E9.02632
G1 X107.076 Y57.009 E9.03653
G1 X108.012 Y57.063 E9.10201
G1 X108.256 Y57.085 E9.11912
G1 X109.023 Y57.181 E9.17311
G1 X109.036 Y56.974 E9.1876
G1 X109.149 Y56.447 E9.22525
G1 X109.339 Y55.942 E9.26293
G1 X109.655 Y55.393 E9.30718
G1 X109.793 Y55.195 E9.32403
G1 X110.133 Y54.776 E9.36172
G1 X110.531 Y54.413 E9.39935
G1 X110.979 Y54.112 E9.43705
G1 X111.466 Y53.881 E9.47469
G1 X111.982 Y53.724 E9.51236
G1 X112.516 Y53.646 E9.55006
G1 X113.055 Y53.646 E9.58771
G1 X113.497 Y53.708 E9.61888
G1 X114.133 Y53.836 E9.66419
G1 X114.394 Y53.898 E9.68293
G1 X115.225 Y54.13 E9.74319
G1 X115.535 Y54.232 E9.76599
G1 X116.45 Y54.578 E9.83431
G1 X116.909 Y54.623 E9.86653
G1 X117.432 Y54.754 E9.90418
G1 X117.931 Y54.961 E9.94192
G1 X118.393 Y55.239 E9.97958
G1 X118.702 Y55.484 E10.00712
G1 X119.18 Y55.907 E10.0517
G1 X119.614 Y56.364 E10.09572
G1 X119.956 Y56.793 E10.13404
G1 X120.292 Y57.294 E10.17618
G1 X120.641 Y57.922 E10.22636
G1 X120.856 Y58.381 E10.26176
G1 X121.098 Y59.009 E10.30877
G1 X121.216 Y59.373 E10.3355
G1 X121.395 Y60.039 E10.38366
G1 X121.496 Y60.569 E10.42135
G1 X121.518 Y61.108 E10.45903
G1 X121.46 Y61.644 E10.49668
G1 X121.323 Y62.165 E10.53431
G1 X121.258 Y62.316 E10.54579
G1 X121.313 Y63.591 E10.63493
G1 X121.328 Y64.574 E10.7036
G1 X121.326 Y66.258 E10.82122
G1 X121.313 Y67.07 E10.87794
G1 X121.274 Y67.961 E10.94023
G1 X121.264 Y68.118 E10.95122
G1 X121.204 Y68.8 E10.99904
G1 X121.15 Y69.254 E11.03097
G1 X121.247 Y69.577 E11.05453
G1 X121.324 Y70.11 E11.09214
G1 X121.322 Y70.65 E11.12986
G1 X121.239 Y71.183 E11.16754
G1 X121.069 Y71.764 E11.20982
G1 X120.902 Y72.197 E11.24223
G1 X120.639 Y72.77 E11.28627
G1 X120.431 Y73.16 E11.31714
G1 X120.141 Y73.631 E11.35578
G1 X119.723 Y74.184 E11.40419
G1 X119.234 Y74.717 E11.45472
G1 X118.841 Y75.086 E11.49237
G1 X118.398 Y75.393 E11.53001
G1 X117.914 Y75.631 E11.56769
G1 X117.401 Y75.796 E11.60533
G1 X116.868 Y75.882 E11.64304
G1 X116.216 Y76.18 E11.69311
G1 X115.59 Y76.431 E11.74021
G1 X115.208 Y76.56 E11.76838
G1 X114.541 Y76.745 E11.81672
G1 X114.355 Y76.791 E11.8301
G1 X113.84 Y76.905 E11.86695
G1 X113.52 Y76.967 E11.88971
G1 X112.984 Y77.027 E11.92738
G1 X112.445 Y77.008 E11.96505
G1 X111.915 Y76.909 E12.00271
G1 X111.405 Y76.733 E12.0404
G1 X110.927 Y76.483 E12.07807
G1 X110.491 Y76.166 E12.11572
G1 X110.107 Y75.788 E12.15336
G1 X109.799 Y75.382 E12.18895
G1 X109.663 Y75.174 E12.20631
G1 X109.403 Y74.702 E12.24395
G1 X109.214 Y74.197 E12.28161
G1 X109.103 Y73.669 E12.3193
G1 X109.092 Y73.494 E12.33154
G1 X108.245 Y73.6 E12.39117
G1 X107.999 Y73.622 E12.40842
G1 X107.066 Y73.675 E12.47369
G1 X106.921 Y73.68 E12.48382
G1 X104.954 Y73.712 E12.62123
G1 X103.07 Y73.68 E12.75284
G1 X102.924 Y73.675 E12.76304
G1 X101.988 Y73.621 E12.82853
G1 X101.744 Y73.599 E12.84564
G1 X100.903 Y73.493 E12.90484
G1 X100.877 Y73.774 E12.92455
G1 X100.749 Y74.297 E12.96216
G1 X100.544 Y74.796 E12.99984
G1 X100.248 Y75.289 E13.04
G1 X100.1 Y75.496 E13.05778
G1 X99.755 Y75.91 E13.09542
G1 X99.352 Y76.269 E13.13312
G1 X98.901 Y76.564 E13.17076
G1 X98.411 Y76.79 E13.20845
G1 X97.893 Y76.94 E13.24611
G1 X97.359 Y77.012 E13.28375
G1 X96.819 Y77.005 E13.32147
G1 X96.437 Y76.951 E13.34842
G1 X95.857 Y76.837 E13.3897
G1 X95.612 Y76.78 E13.40727
G1 X94.818 Y76.566 E13.46471
G1 X94.409 Y76.429 E13.49483
G1 X93.709 Y76.148 E13.54752
G1 X93.329 Y75.969 E13.57686
G1 X92.694 Y75.624 E13.62733
G1 X92.424 Y75.585 E13.64639
G1 X91.908 Y75.428 E13.68406
G1 X91.421 Y75.198 E13.72168
G1 X90.973 Y74.898 E13.75934
G1 X90.574 Y74.535 E13.79701
G1 X90.319 Y74.235 E13.82451
G1 X89.91 Y73.697 E13.87172
G1 X89.577 Y73.171 E13.9152
G1 X89.293 Y72.624 E13.95825
G1 X89.127 Y72.254 E13.98657
G1 X88.902 Y71.669 E14.03035
G1 X88.789 Y71.326 E14.05557
G1 X88.614 Y70.689 E14.10172
G1 X88.51 Y70.16 E14.13937
G1 X88.485 Y69.621 E14.17706
G1 X88.541 Y69.085 E14.2147
G1 X88.675 Y68.563 E14.25234
G1 X88.777 Y68.32 E14.27075
G1 X88.728 Y67.973 E14.29523
G1 X88.695 Y67.206 E14.34885
G1 X88.679 Y66.324 E14.41046
G1 X88.676 Y65.866 E14.44245
G1 X88.679 Y64.337 E14.54925
G1 X88.695 Y63.441 E14.61184
G1 X88.732 Y62.681 E14.66499
G1 X88.74 Y62.56 E14.67346
G1 X88.793 Y61.915 E14.71866
G1 X88.875 Y61.262 E14.76463
G1 X88.799 Y61.017 E14.78254
G1 X88.717 Y60.484 E14.82021
G1 X88.715 Y59.944 E14.85793
G1 X88.793 Y59.411 E14.89555
G1 X88.949 Y58.882 E14.93407
G1 X89.077 Y58.552 E14.9588
G1 X89.338 Y57.966 E15.0036
G1 X89.575 Y57.52 E15.03888
G1 X89.887 Y57.02 E15.08004
M204 S3000
M205 X10 Y10
G0 F3000 X90.362 Y57.316
M204 S1800
M205 X8 Y8
G1 F2400 X90.688 Y56.884 E15.11784
G1 X91.158 Y56.363 E15.16685
G1 X91.519 Y56.023 E15.20149
G1 X91.93 Y55.745 E15.23615
G1 X92.38 Y55.536 E15.2708
G1 X92.857 Y55.403 E15.30539
G1 X93.314 Y55.351 E15.33752
G1 X93.821 Y55.095 E15.37719
G1 X94.109 Y54.968 E15.39917
G1 X94.655 Y54.759 E15.44001
G1 X94.931 Y54.667 E15.46033
G1 X95.748 Y54.44 E15.51955
G1 X95.975 Y54.387 E15.53583
G1 X96.692 Y54.245 E15.58689
G1 X97.184 Y54.188 E15.62148
G1 X97.68 Y54.211 E15.65616
G1 X98.165 Y54.313 E15.69078
G1 X98.628 Y54.492 E15.72545
G1 X99.056 Y54.742 E15.76007
G1 X99.438 Y55.059 E15.79474
G1 X99.764 Y55.432 E15.82934
G1 X100.053 Y55.89 E15.86717
G1 X100.268 Y56.337 E15.90181
G1 X100.409 Y56.813 E15.93649
G1 X100.471 Y57.305 E15.97112
G1 X100.445 Y57.841 E16.00861
G1 X100.914 Y57.754 E16.04192
G1 X101.825 Y57.64 E16.10605
G1 X102.032 Y57.621 E16.12057
G1 X102.965 Y57.568 E16.18584
G1 X103.089 Y57.563 E16.19451
G1 X105.04 Y57.532 E16.33079
G1 X105.393 Y57.536 E16.35545
G1 X106.92 Y57.563 E16.46212
G1 X107.043 Y57.568 E16.47072
G1 X107.979 Y57.622 E16.53621
G1 X108.186 Y57.641 E16.55073
G1 X109.101 Y57.756 E16.61514
G1 X109.591 Y57.848 E16.64996
G1 X109.571 Y57.228 E16.69329
G1 X109.65 Y56.738 E16.72795
G1 X109.807 Y56.268 E16.76256
G1 X110.114 Y55.713 E16.80686
G1 X110.568 Y55.132 E16.85837
G1 X110.94 Y54.805 E16.89296
G1 X111.361 Y54.542 E16.92763
G1 X111.818 Y54.35 E16.96225
G1 X112.3 Y54.233 E16.9969
G1 X112.795 Y54.196 E17.03157
G1 X113.387 Y54.257 E17.07314
G1 X114.023 Y54.385 E17.11845
G1 X114.243 Y54.437 E17.13424
G1 X115.074 Y54.669 E17.1945
G1 X115.337 Y54.756 E17.21385
G1 X116.337 Y55.135 E17.28854
G1 X116.892 Y55.189 E17.32749
G1 X117.369 Y55.325 E17.36214
G1 X117.818 Y55.536 E17.39679
G1 X118.331 Y55.903 E17.44084
G1 X118.809 Y56.326 E17.48542
G1 X119.176 Y56.713 E17.52268
G1 X119.518 Y57.142 E17.561
G1 X119.802 Y57.566 E17.59664
G1 X120.151 Y58.194 E17.64682
G1 X120.333 Y58.583 E17.67682
G1 X120.575 Y59.211 E17.72383
G1 X120.675 Y59.519 E17.74645
G1 X120.854 Y60.185 E17.79461
G1 X120.944 Y60.672 E17.82921
G1 X120.954 Y61.168 E17.86386
G1 X120.885 Y61.659 E17.89849
G1 X120.693 Y62.222 E17.94004
G1 X120.756 Y63.705 E18.04371
G1 X120.768 Y64.628 E18.10818
G1 X120.766 Y66.249 E18.22141
G1 X120.753 Y67.061 E18.27813
G1 X120.715 Y67.936 E18.3393
G1 X120.706 Y68.069 E18.34861
G1 X120.646 Y68.751 E18.39643
G1 X120.577 Y69.307 E18.43556
G1 X120.743 Y69.933 E18.4808
G1 X120.772 Y70.428 E18.51543
G1 X120.722 Y70.921 E18.55004
G1 X120.534 Y71.597 E18.59905
G1 X120.393 Y71.964 E18.62651
G1 X120.13 Y72.537 E18.67055
G1 X119.954 Y72.867 E18.69667
G1 X119.664 Y73.338 E18.7353
G1 X119.311 Y73.805 E18.77619
G1 X118.822 Y74.338 E18.82671
G1 X118.458 Y74.675 E18.86136
G1 X118.045 Y74.95 E18.89602
G1 X117.593 Y75.155 E18.93068
G1 X117.114 Y75.284 E18.96533
G1 X116.688 Y75.328 E18.99524
G1 X116.007 Y75.66 E19.04816
G1 X115.381 Y75.911 E19.09527
G1 X115.058 Y76.02 E19.11908
G1 X114.391 Y76.205 E19.16742
G1 X114.234 Y76.244 E19.17872
G1 X113.623 Y76.378 E19.22241
G1 X112.923 Y76.469 E19.27172
G1 X112.428 Y76.441 E19.30635
G1 X111.943 Y76.335 E19.34102
G1 X111.482 Y76.152 E19.37567
G1 X111.057 Y75.897 E19.41028
G1 X110.678 Y75.577 E19.44493
G1 X110.268 Y75.076 E19.49015
G1 X109.895 Y74.432 E19.54213
G1 X109.731 Y73.964 E19.57676
G1 X109.644 Y73.476 E19.61139
G1 X109.66 Y72.822 E19.65708
G1 X109.086 Y72.93 E19.69787
G1 X108.175 Y73.044 E19.762
G1 X107.968 Y73.063 E19.77652
G1 X107.035 Y73.116 E19.84179
G1 X106.911 Y73.121 E19.85046
G1 X104.96 Y73.152 E19.98675
G1 X104.607 Y73.148 E20.0114
G1 X103.08 Y73.121 E20.11808
G1 X102.957 Y73.116 E20.12667
G1 X102.021 Y73.062 E20.19216
G1 X101.814 Y73.043 E20.20668
G1 X100.899 Y72.928 E20.27109
G1 X100.338 Y72.821 E20.31098
G1 X100.349 Y73.505 E20.35876
G1 X100.256 Y73.992 E20.39339
G1 X100.086 Y74.458 E20.42804
G1 X99.792 Y74.963 E20.46885
G1 X99.324 Y75.549 E20.52123
G1 X98.948 Y75.872 E20.55585
G1 X98.524 Y76.13 E20.59052
G1 X98.065 Y76.317 E20.62514
G1 X97.581 Y76.427 E20.65981
G1 X97.086 Y76.459 E20.69445
G1 X96.545 Y76.401 E20.73246
G1 X95.965 Y76.287 E20.77374
G1 X95.757 Y76.239 E20.78865
G1 X94.963 Y76.025 E20.84609
G1 X94.618 Y75.909 E20.87151
G1 X93.918 Y75.628 E20.9242
G1 X93.596 Y75.477 E20.94904
G1 X92.874 Y75.085 E21.00642
G1 X92.507 Y75.029 E21.03235
G1 X92.035 Y74.876 E21.06701
G1 X91.594 Y74.65 E21.10162
G1 X91.195 Y74.355 E21.13628
G1 X90.765 Y73.896 E21.18021
G1 X90.356 Y73.358 E21.22741
G1 X90.074 Y72.913 E21.26421
G1 X89.79 Y72.366 E21.30725
G1 X89.649 Y72.053 E21.33123
G1 X89.424 Y71.468 E21.37501
G1 X89.329 Y71.178 E21.39633
G1 X89.154 Y70.541 E21.44247
G1 X89.062 Y70.054 E21.47708
