;FLAVOR:Marlin
;TIME:1905
;Filament used: 2.91618m
;Layer height: 0.3
;MINX:83.24
;MINY:89.819
;MINZ:0.3
;MAXX:128.836
;MAXY:117.649
;MAXZ:58.8
;Generated with Cura_SteamEngine 4.11.0
M140 S60
M105
M190 S60
M104 S200
M105
M109 S200
M82 ;absolute extrusion mode
G21 ;metric values
G90 ;absolute positioning
M82 ;set extruder to absolute mode
M107 ;start with the fan off
G28 X0 Y0 ;move X/Y to min endstops
G28 Z0 ;move Z to min endstops
G1 Z15.0 F100 ;move the platform down 15mm
G92 E0 ;zero the extruded length
G1 F200 E3 ;extrude 3mm of feed stock
G92 E0 ;zero the extruded length again
G1 F100
G0 Y20 F100
M117 Printing...
G5
G92 E0
G92 E0
G1 F2400 E-6
;LAYER_COUNT:196
;LAYER:0
M107
M204 S3000
M205 X10 Y10
G1 F600 Z0.375
G0 F3000 X88.173 Y95.787 Z0.375
M204 S1800
M205 X8 Y8
;TYPE:SKIRT
G1 F600 Z0.3
G1 F2400 E0
G1 X88.505 Y95.505 E0.03043
G1 X88.925 Y95.172 E0.06786
G1 X89.509 Y94.76 E0.11778
G1 X90.343 Y94.32 E0.18364
G1 X91.703 Y93.728 E0.28724
G1 X92.343 Y93.457 E0.33579
G1 X94.737 Y92.362 E0.51966
G1 X97.207 Y91.148 E0.71189
G1 X98.413 Y90.532 E0.80648
G1 X99.067 Y90.242 E0.85645
G1 X99.749 Y90.028 E0.90637
G1 X100.451 Y89.891 E0.95633
G1 X101.213 Y89.832 E1.00971
G1 X101.962 Y89.819 E1.06204
G1 X102.164 Y89.819 E1.07614
G1 X103.353 Y89.836 E1.1592
G1 X106.193 Y89.835 E1.35756
G1 X107.285 Y89.819 E1.43384
G1 X107.477 Y89.819 E1.44725
G1 X108.13 Y89.829 E1.49287
G1 X108.843 Y89.88 E1.5428
G1 X109.547 Y90.01 E1.5928
G1 X110.231 Y90.218 E1.64274
G1 X110.755 Y90.436 E1.68238
G1 X111.479 Y90.776 E1.73824
G1 X113.915 Y91.876 E1.92493
G1 X116.402 Y92.918 E2.11327
G1 X118.415 Y93.686 E2.26376
G1 X118.975 Y93.909 E2.30586
G1 X119.724 Y94.253 E2.36342
G1 X120.299 Y94.566 E2.40915
G1 X120.445 Y94.653 E2.42102
G1 X121.092 Y95.094 E2.47571
G1 X121.901 Y95.721 E2.5472
G1 X124.972 Y98.006 E2.81456
G1 X125.805 Y98.599 E2.88598
G1 X126.364 Y99.046 E2.93597
G1 X126.869 Y99.553 E2.98595
G1 X127.314 Y100.112 E3.03586
G1 X127.768 Y100.826 E3.09496
G1 X128.016 Y101.262 E3.12999
G1 X128.325 Y101.907 E3.17994
G1 X128.56 Y102.582 E3.22987
G1 X128.698 Y103.167 E3.27185
G1 X128.731 Y103.343 E3.28436
G1 X128.824 Y104.052 E3.3343
G1 X128.836 Y104.767 E3.38425
G1 X128.714 Y105.79 E3.45621
G1 X128.655 Y106.082 E3.47701
G1 X128.475 Y106.774 E3.52696
G1 X128.218 Y107.441 E3.57688
G1 X127.888 Y108.076 E3.62687
G1 X127.508 Y108.646 E3.67471
G1 X127.345 Y108.864 E3.69373
G1 X126.848 Y109.452 E3.7475
G1 X126.517 Y109.793 E3.78069
G1 X125.839 Y110.46 E3.84712
G1 X123.918 Y112.404 E4.03802
G1 X122.583 Y113.853 E4.17563
G1 X121.622 Y114.877 E4.27372
G1 X121.251 Y115.241 E4.31002
G1 X120.654 Y115.748 E4.36472
G1 X120.074 Y116.167 E4.4147
G1 X119.494 Y116.497 E4.46131
G1 X119.291 Y116.599 E4.47718
G1 X118.635 Y116.884 E4.52713
G1 X117.952 Y117.094 E4.57704
G1 X117.358 Y117.211 E4.61933
G1 X115.87 Y117.432 E4.7244
G1 X115.174 Y117.496 E4.77322
G1 X114.307 Y117.529 E4.83382
G1 X111.75 Y117.605 E5.01249
G1 X110.788 Y117.641 E5.07973
G1 X110.11 Y117.649 E5.12709
G1 X109.598 Y117.632 E5.16287
G1 X109.361 Y117.615 E5.17947
G1 X106.625 Y117.453 E5.3709
G1 X103.979 Y117.371 E5.55581
G1 X101.337 Y117.364 E5.74034
G1 X98.703 Y117.431 E5.92437
G1 X97.279 Y117.511 E6.02399
G1 X96.2 Y117.56 E6.09943
G1 X95.44 Y117.55 E6.15252
G1 X94.204 Y117.459 E6.23909
G1 X93.303 Y117.399 E6.30216
G1 X92.824 Y117.35 E6.33579
G1 X92.12 Y117.221 E6.38578
G1 X91.107 Y116.884 E6.46035
G1 X90.575 Y116.649 E6.50097
G1 X90.342 Y116.536 E6.51905
G1 X89.559 Y116.085 E6.58217
G1 X89.415 Y115.988 E6.59429
G1 X88.839 Y115.551 E6.64479
G1 X88.629 Y115.372 E6.66407
G1 X88.112 Y114.878 E6.71401
G1 X87.742 Y114.447 E6.75369
G1 X87.314 Y113.864 E6.8042
G1 X86.936 Y113.256 E6.85421
G1 X86.769 Y112.929 E6.87985
G1 X86.373 Y112.094 E6.9444
G1 X85.208 Y109.721 E7.12904
G1 X84.051 Y107.52 E7.30272
G1 X83.754 Y106.87 E7.35264
G1 X83.561 Y106.294 E7.39507
G1 X83.483 Y106.02 E7.41496
G1 X83.325 Y105.322 E7.46495
G1 X83.247 Y104.612 E7.51484
G1 X83.24 Y104.1 E7.5506
G1 X83.246 Y103.871 E7.5666
G1 X83.321 Y103.046 E7.62447
G1 X83.34 Y102.925 E7.63302
G1 X83.491 Y102.226 E7.68297
G1 X83.718 Y101.548 E7.73291
G1 X84.035 Y100.87 E7.78518
G1 X84.25 Y100.473 E7.81672
G1 X84.626 Y99.864 E7.86671
G1 X85.102 Y99.26 E7.92042
G1 X85.433 Y98.889 E7.95515
G1 X87.377 Y96.633 E8.16315
G1 X87.672 Y96.297 E8.19438
G1 X88.173 Y95.787 E8.24432
M204 S3000
M205 X10 Y10
G0 F3000 X88.572 Y96.181
M204 S1800
M205 X8 Y8
G1 F2400 X88.853 Y95.944 E8.26999
G1 X89.273 Y95.611 E8.30743
G1 X89.832 Y95.218 E8.35516
G1 X90.567 Y94.834 E8.41308
G1 X91.921 Y94.244 E8.51624
G1 X92.557 Y93.975 E8.56447
G1 X94.996 Y92.859 E8.75181
G1 X97.383 Y91.686 E8.93758
G1 X98.667 Y91.03 E9.03829
G1 X99.293 Y90.756 E9.08602
G1 X99.946 Y90.556 E9.13372
G1 X100.619 Y90.434 E9.18149
G1 X101.223 Y90.392 E9.22378
G1 X101.972 Y90.379 E9.2761
G1 X102.156 Y90.379 E9.28895
G1 X103.345 Y90.396 E9.37201
G1 X106.201 Y90.395 E9.57149
G1 X107.293 Y90.379 E9.64777
G1 X107.468 Y90.379 E9.65999
G1 X108.121 Y90.389 E9.70561
G1 X108.803 Y90.439 E9.75337
G1 X109.474 Y90.569 E9.80111
G1 X110.125 Y90.776 E9.84882
G1 X110.516 Y90.943 E9.87852
G1 X111.203 Y91.266 E9.93154
G1 X113.719 Y92.402 E10.12436
G1 X116.172 Y93.429 E10.3101
G1 X118.208 Y94.206 E10.46231
G1 X118.768 Y94.429 E10.50441
G1 X119.463 Y94.749 E10.55786
G1 X120.012 Y95.047 E10.60149
G1 X120.158 Y95.134 E10.61336
G1 X120.749 Y95.537 E10.66332
G1 X121.559 Y96.166 E10.73495
G1 X124.665 Y98.475 E11.00527
G1 X125.48 Y99.056 E11.07518
G1 X126.013 Y99.484 E11.12293
G1 X126.491 Y99.971 E11.17059
G1 X127.074 Y100.765 E11.23939
G1 X127.426 Y101.352 E11.2872
G1 X127.525 Y101.532 E11.30155
G1 X127.819 Y102.148 E11.34922
G1 X128.038 Y102.795 E11.39693
G1 X128.181 Y103.446 E11.44348
G1 X128.267 Y104.123 E11.49115
G1 X128.274 Y104.807 E11.53893
G1 X128.165 Y105.679 E11.60031
G1 X128.106 Y105.971 E11.62111
G1 X127.932 Y106.631 E11.66879
G1 X127.682 Y107.267 E11.71652
G1 X127.359 Y107.869 E11.76424
G1 X127.059 Y108.311 E11.80155
G1 X126.896 Y108.529 E11.82056
G1 X126.443 Y109.065 E11.86958
G1 X126.125 Y109.394 E11.90154
G1 X125.407 Y110.101 E11.97192
G1 X123.533 Y111.997 E12.15812
G1 X122.174 Y113.469 E12.29805
G1 X121.213 Y114.493 E12.39613
G1 X120.769 Y114.922 E12.43926
G1 X120.301 Y115.313 E12.48185
G1 X119.746 Y115.712 E12.52959
G1 X119.243 Y115.996 E12.56994
G1 X119.04 Y116.098 E12.58581
G1 X118.413 Y116.369 E12.63352
G1 X117.758 Y116.564 E12.68125
G1 X117.276 Y116.657 E12.71554
G1 X115.788 Y116.878 E12.82061
G1 X115.153 Y116.937 E12.86515
G1 X114.291 Y116.969 E12.9254
G1 X111.729 Y117.045 E13.10443
G1 X110.767 Y117.081 E13.17166
G1 X110.106 Y117.089 E13.21784
G1 X109.363 Y117.054 E13.26979
G1 X106.64 Y116.893 E13.46031
G1 X103.997 Y116.811 E13.64501
G1 X101.324 Y116.804 E13.83171
G1 X98.688 Y116.871 E14.01588
G1 X97.254 Y116.952 E14.1162
G1 X96.175 Y117.001 E14.19164
G1 X95.481 Y116.991 E14.24012
G1 X94.286 Y116.903 E14.32381
G1 X93.34 Y116.84 E14.39003
G1 X92.894 Y116.794 E14.42135
G1 X92.222 Y116.669 E14.46909
G1 X91.327 Y116.369 E14.53502
G1 X90.82 Y116.145 E14.57374
G1 X90.587 Y116.032 E14.59182
G1 X89.872 Y115.621 E14.64943
G1 X89.728 Y115.524 E14.66155
G1 X89.203 Y115.124 E14.70765
G1 X88.993 Y114.945 E14.72693
G1 X88.499 Y114.473 E14.77465
G1 X88.1 Y113.995 E14.81814
G1 X87.772 Y113.542 E14.8572
G1 X87.275 Y112.689 E14.92615
G1 X86.913 Y111.925 E14.9852
G1 X85.698 Y109.45 E15.17778
G1 X84.547 Y107.26 E15.35058
G1 X84.265 Y106.637 E15.39835
G1 X84.099 Y106.141 E15.43488
G1 X84.021 Y105.867 E15.45478
G1 X83.873 Y105.2 E15.5025
G1 X83.803 Y104.52 E15.55025
G1 X83.806 Y103.886 E15.59453
G1 X83.875 Y103.133 E15.64734
G1 X83.894 Y103.012 E15.6559
G1 X84.039 Y102.344 E15.70364
G1 X84.261 Y101.698 E15.75135
G1 X84.528 Y101.137 E15.79475
G1 X84.743 Y100.74 E15.82628
G1 X85.103 Y100.159 E15.87402
G1 X85.52 Y99.633 E15.92091
G1 X85.811 Y99.307 E15.95143
G1 X87.797 Y97.003 E16.16389
G1 X88.092 Y96.667 E16.19512
G1 X88.572 Y96.181 E16.24283
M204 S3000
M205 X10 Y10
G0 F3000 X89.201 Y96.383
M204 S1800
M205 X8 Y8
G1 F2400 X89.621 Y96.05 E16.28026
G1 X90.154 Y95.678 E16.32566
G1 X90.791 Y95.347 E16.3758
G1 X92.139 Y94.76 E16.4785
G1 X92.771 Y94.493 E16.52642
G1 X95.225 Y93.37 E16.71491
G1 X97.686 Y92.16 E16.90646
G1 X98.922 Y91.529 E17.00339
G1 X99.518 Y91.27 E17.04878
G1 X100.141 Y91.085 E17.09417
G1 X100.781 Y90.979 E17.13948
G1 X101.232 Y90.952 E17.17104
G1 X101.981 Y90.939 E17.22336
G1 X102.148 Y90.939 E17.23502
G1 X103.337 Y90.956 E17.31808
G1 X106.21 Y90.955 E17.51875
G1 X107.302 Y90.939 E17.59503
G1 X107.46 Y90.939 E17.60606
G1 X108.113 Y90.949 E17.65168
G1 X108.761 Y90.999 E17.69707
G1 X109.397 Y91.128 E17.7424
G1 X110.278 Y91.45 E17.80792
G1 X110.99 Y91.785 E17.86288
G1 X113.493 Y92.915 E18.05469
G1 X115.97 Y93.952 E18.24225
G1 X118 Y94.727 E18.39402
G1 X118.56 Y94.95 E18.43612
G1 X119.203 Y95.245 E18.48553
G1 X119.726 Y95.528 E18.52707
G1 X119.872 Y95.615 E18.53894
G1 X120.406 Y95.979 E18.58408
G1 X121.226 Y96.615 E18.65656
G1 X124.349 Y98.938 E18.92842
G1 X125.155 Y99.512 E18.99753
G1 X125.66 Y99.92 E19.04288
G1 X126.111 Y100.388 E19.08827
G1 X126.597 Y101.057 E19.14603
G1 X126.935 Y101.621 E19.19195
G1 X127.034 Y101.801 E19.2063
G1 X127.312 Y102.389 E19.25173
G1 X127.515 Y103.006 E19.2971
G1 X127.631 Y103.549 E19.33588
G1 X127.711 Y104.194 E19.38128
G1 X127.711 Y104.843 E19.42661
G1 X127.616 Y105.568 E19.47768
G1 X127.557 Y105.86 E19.49849
G1 X127.39 Y106.487 E19.54381
G1 X127.146 Y107.09 E19.58924
G1 X126.831 Y107.657 E19.63455
G1 X126.448 Y108.194 E19.68062
G1 X126.038 Y108.678 E19.72492
G1 X125.732 Y108.995 E19.75569
G1 X125.012 Y109.704 E19.82627
G1 X123.123 Y111.615 E20.01395
G1 X121.766 Y113.086 E20.15374
G1 X120.805 Y114.11 E20.25182
G1 X120.393 Y114.507 E20.29179
G1 X119.948 Y114.878 E20.33225
G1 X119.419 Y115.256 E20.37767
G1 X118.789 Y115.598 E20.42773
G1 X118.191 Y115.853 E20.47314
G1 X117.567 Y116.033 E20.5185
G1 X117.194 Y116.103 E20.54501
G1 X115.706 Y116.324 E20.65008
G1 X115.132 Y116.377 E20.69034
G1 X114.274 Y116.41 E20.75032
G1 X111.669 Y116.486 E20.93234
G1 X110.746 Y116.521 E20.99686
G1 X110.101 Y116.529 E21.04191
G1 X109.427 Y116.497 E21.08904
G1 X106.654 Y116.333 E21.28306
G1 X104.017 Y116.251 E21.46734
G1 X101.31 Y116.244 E21.65641
G1 X98.675 Y116.311 E21.84052
G1 X97.229 Y116.393 E21.94168
G1 X96.15 Y116.442 E22.01712
G1 X95.522 Y116.433 E22.06099
G1 X94.286 Y116.342 E22.14755
G1 X93.377 Y116.281 E22.21118
G1 X92.964 Y116.238 E22.24018
G1 X92.326 Y116.118 E22.28553
G1 X91.547 Y115.854 E22.34298
G1 X91.064 Y115.641 E22.37985
G1 X90.831 Y115.528 E22.39794
G1 X90.185 Y115.156 E22.45
G1 X90.041 Y115.059 E22.46213
G1 X89.566 Y114.698 E22.5038
G1 X89.356 Y114.519 E22.52307
G1 X88.888 Y114.068 E22.56847
G1 X88.541 Y113.65 E22.60641
G1 X88.23 Y113.22 E22.64348
G1 X87.781 Y112.45 E22.70574
G1 X87.385 Y111.615 E22.77029
G1 X86.196 Y109.193 E22.95874
G1 X85.043 Y106.999 E23.13185
G1 X84.776 Y106.407 E23.17721
G1 X84.56 Y105.714 E23.22791
G1 X84.421 Y105.079 E23.27332
G1 X84.36 Y104.13 E23.33974
G1 X84.366 Y103.901 E23.35574
G1 X84.428 Y103.22 E23.4035
G1 X84.447 Y103.099 E23.41205
G1 X84.587 Y102.465 E23.4574
G1 X84.804 Y101.852 E23.50282
G1 X85.235 Y101.007 E23.56908
G1 X85.579 Y100.455 E23.61451
G1 X85.938 Y100.006 E23.65466
G1 X86.228 Y99.681 E23.68508
G1 X88.218 Y97.372 E23.89799
G1 X88.513 Y97.036 E23.92922
G1 X89.201 Y96.383 E23.99547
M204 S3000
M205 X10 Y10
G0 F3000 X92.7 Y100.678
M204 S1800
M205 X8 Y8
;TYPE:SUPPORT
G1 F1800 X93.028 Y100.428 E24.02428
G1 X93.568 Y100.216 E24.0648
G1 X94.003 Y100.404 E24.0979
G1 X95.47 Y100.172 E24.20163
G1 X96.178 Y100.103 E24.25132
G1 X96.929 Y100.062 E24.30385
G1 X97.068 Y100.062 E24.31356
G1 X97.94 Y100.036 E24.37449
G1 X101.754 Y100.045 E24.64089
G1 X102.326 Y99.725 E24.68667
G1 X102.263 Y99.092 E24.7311
G1 X101.103 Y96.825 E24.90897
G1 X101.442 Y96.497 E24.94191
G1 X102.399 Y96.497 E25.00876
G1 X102.399 Y97.882 E25.10549
G1 X102.797 Y99.707 E25.23596
G1 X103.261 Y100.081 E25.27758
G1 X106.474 Y100.081 E25.502
G1 X106.75 Y99.962 E25.52299
G1 X107.095 Y99.565 E25.55973
G1 X107.1 Y99.545 E25.56117
G1 X107.398 Y99.969 E25.59737
G1 X107.675 Y100.077 E25.61813
G1 X110.808 Y100.109 E25.83697
G1 X111.202 Y100.122 E25.86451
G1 X112.595 Y100.176 E25.96188
G1 X114.324 Y100.303 E26.08297
G1 X114.761 Y100.003 E26.11999
G1 X116.153 Y100.271 E26.219
G1 X116.568 Y100.136 E26.24948
G1 X116.974 Y100.344 E26.28134
G1 X117.233 Y100.581 E26.30586
G1 X117.41 Y100.9 E26.33135
G1 X117.478 Y101.128 E26.34796
G1 X117.579 Y102.606 E26.45144
G1 X117.919 Y103.056 E26.49083
G1 X120.087 Y103.838 E26.65181
G1 X120.976 Y103.641 E26.71541
G1 X121.552 Y103.883 E26.75904
G1 X121.938 Y104.074 E26.78913
G1 X122.171 Y104.519 E26.82421
G1 X122.128 Y104.715 E26.83823
G1 X121.918 Y104.961 E26.86082
G1 X121.392 Y105.262 E26.90315
G1 X120.92 Y105.142 E26.93716
G1 X120.208 Y105.383 E26.98966
G1 X119.819 Y105.351 E27.01693
G1 X117.842 Y105.843 E27.15922
G1 X117.452 Y106.236 E27.1979
G1 X117.117 Y107.623 E27.29756
G1 X117.036 Y108.302 E27.34532
G1 X117.043 Y108.958 E27.39114
G1 X117.031 Y109.613 E27.4369
G1 X116.958 Y109.95 E27.46098
G1 X116.757 Y110.311 E27.48984
G1 X116.413 Y110.581 E27.52039
G1 X115.979 Y110.491 E27.55134
G1 X115.047 Y110.794 E27.6198
G1 X114.603 Y110.585 E27.65407
G1 X113.031 Y110.808 E27.76497
G1 X112.391 Y110.877 E27.80993
G1 X111.93 Y110.907 E27.8422
G1 X110.864 Y110.959 E27.91674
G1 X110.332 Y110.973 E27.95391
G1 X110.33 Y110.916 E27.9579
G1 X109.875 Y110.483 E28.00177
G1 X105.722 Y110.543 E28.29187
G1 X101.73 Y110.596 E28.57072
G1 X99.932 Y110.625 E28.69632
G1 X99.271 Y110.631 E28.74249
G1 X98.128 Y110.632 E28.82232
G1 X98.044 Y110.63 E28.82819
G1 X96.1 Y110.544 E28.96411
G1 X95.647 Y110.877 E29.00338
G1 X94.031 Y110.575 E29.1182
G1 X93.623 Y110.706 E29.14813
G1 X93.224 Y110.518 E29.17894
G1 X92.978 Y110.315 E29.20122
G1 X92.794 Y110.061 E29.22312
G1 X92.159 Y108.021 E29.37235
G1 X92.103 Y107.645 E29.3989
G1 X91.877 Y106.736 E29.46433
G1 X91.41 Y104.69 E29.61091
G1 X90.885 Y104.348 E29.65467
G1 X90.016 Y104.524 E29.7166
G1 X89.898 Y104.183 E29.7418
G1 X89.927 Y103.974 E29.75654
G1 X90.113 Y103.671 E29.78137
G1 X90.148 Y103.684 E29.78398
G1 X90.691 Y103.598 E29.82238
G1 X92.317 Y102.268 E29.96911
G1 X92.434 Y101.158 E30.04706
G1 X92.517 Y100.93 E30.06401
G1 X92.7 Y100.678 E30.08576
M204 S3000
M205 X10 Y10
G0 F3000 X97.724 Y103.555
M204 S1800
M205 X8 Y8
G1 F1800 X97.462 Y103.998 E30.12171
G1 X97.415 Y104.119 E30.13078
G1 X97.252 Y104.794 E30.17928
G1 X97.252 Y105.001 E30.19374
G1 X97.369 Y105.496 E30.22927
G1 X97.413 Y105.613 E30.238
G1 X97.728 Y106.166 E30.28245
G1 X97.804 Y106.264 E30.29111
G1 X98.196 Y106.647 E30.32939
G1 X98.371 Y106.751 E30.34361
G1 X98.912 Y106.927 E30.38334
G1 X99.034 Y106.944 E30.39195
G1 X99.68 Y106.967 E30.4371
G1 X99.848 Y106.94 E30.44898
G1 X100.418 Y106.733 E30.49134
G1 X100.555 Y106.651 E30.50249
G1 X101.022 Y106.251 E30.54544
G1 X101.447 Y105.697 E30.59421
G1 X101.275 Y105.533 E30.61081
G1 X101.432 Y105.551 E30.62184
G1 X101.578 Y104.787 E30.67617
G1 X101.573 Y104.536 E30.69371
G1 X101.431 Y104.182 E30.72035
G1 X101.495 Y104.127 E30.72624
G1 X101.303 Y103.858 E30.74933
G1 X101.207 Y103.611 E30.76783
G1 X101.143 Y103.637 E30.77266
G1 X100.923 Y103.35 E30.79792
G1 X100.402 Y102.927 E30.84479
G1 X100.177 Y102.83 E30.8619
G1 X99.404 Y102.728 E30.91636
G1 X98.889 Y102.792 E30.95261
G1 X98.387 Y102.988 E30.99025
G1 X98.258 Y103.063 E31.00067
G1 X97.816 Y103.445 E31.04148
G1 X97.724 Y103.555 E31.05149
M204 S3000
M205 X10 Y10
G1 F2400 E25.05149
G0 F3000 X98.75 Y103.519
G0 X107.421 Y103.495
M204 S1800
M205 X8 Y8
G1 F2400 E31.05149
G1 F1800 X107.467 Y103.541 E31.05604
G1 X107.247 Y103.96 E31.08909
G1 X107.175 Y104.291 E31.11275
G1 X107.014 Y104.48 E31.13009
G1 X107.137 Y105.097 E31.17404
G1 X107.16 Y105.176 E31.17978
G1 X107.376 Y105.71 E31.22002
G1 X107.443 Y105.821 E31.22907
G1 X107.856 Y106.332 E31.27496
G1 X108.012 Y106.456 E31.28888
G1 X108.326 Y106.604 E31.31313
G1 X108.317 Y106.67 E31.31778
G1 X108.793 Y106.759 E31.3516
G1 X108.81 Y106.876 E31.35986
G1 X109.188 Y106.834 E31.38643
G1 X109.578 Y106.907 E31.41414
