;FLAVOR:Marlin
;TIME:2963
;Filament used: 2.1108m
;Layer height: 0.2
;MINX:85.8
;MINY:85.8
;MINZ:0.2
;MAXX:124.2
;MAXY:124.2
;MAXZ:45.4
;Generated with Cura_SteamEngine 4.11.0
M140 S60
M105
M190 S60
M104 S200
M105
M109 S200
M82 ;absolute extrusion mode
G21 ;metric values
G90 ;absolute positioning
M82 ;set extruder to absolute mode
M107 ;start with the fan off
G28 X0 Y0 ;move X/Y to min endstops
G28 Z0 ;move Z to min endstops
G1 Z15.0 F100 ;move the platform down 15mm
G92 E0 ;zero the extruded length
G1 F200 E3 ;extrude 3mm of feed stock
G92 E0 ;zero the extruded length again
G1 F100
G0 Y20 F100
M117 Printing...
G5
G92 E0
G92 E0
G1 F2400 E-6
;LAYER_COUNT:227
;LAYER:0
M107
M204 S3000
M205 X10 Y10
G1 F600 Z0.275
G0 F3000 X87.194 Y87.03 Z0.275
M204 S1800
M205 X8 Y8
;TYPE:SKIRT
G1 F600 Z0.2
G1 F2400 E0
G1 X87.631 Y86.65 E0.02697
G1 X88.116 Y86.333 E0.05395
G1 X88.64 Y86.086 E0.08092
G1 X89.193 Y85.914 E0.10789
G1 X89.765 Y85.819 E0.13489
G1 X90.164 Y85.8 E0.15349
G1 X119.836 Y85.8 E1.53514
G1 X120.414 Y85.84 E1.56212
G1 X120.981 Y85.959 E1.58909
G1 X121.526 Y86.155 E1.61606
G1 X122.039 Y86.424 E1.64304
G1 X122.51 Y86.761 E1.67
G1 X122.97 Y87.194 E1.69942
G1 X123.35 Y87.631 E1.72639
G1 X123.667 Y88.116 E1.75336
G1 X123.914 Y88.64 E1.78034
G1 X124.086 Y89.193 E1.80731
G1 X124.181 Y89.765 E1.83431
G1 X124.2 Y90.164 E1.85291
G1 X124.2 Y119.836 E3.23456
G1 X124.16 Y120.414 E3.26154
G1 X124.041 Y120.981 E3.28851
G1 X123.845 Y121.526 E3.31548
G1 X123.576 Y122.039 E3.34246
G1 X123.239 Y122.51 E3.36942
G1 X122.806 Y122.97 E3.39884
G1 X122.369 Y123.35 E3.4258
G1 X121.884 Y123.667 E3.45278
G1 X121.36 Y123.914 E3.47976
G1 X120.807 Y124.086 E3.50673
G1 X120.235 Y124.181 E3.53373
G1 X119.836 Y124.2 E3.55233
G1 X90.164 Y124.2 E4.93398
G1 X89.586 Y124.16 E4.96096
G1 X89.019 Y124.041 E4.98793
G1 X88.474 Y123.845 E5.0149
G1 X87.961 Y123.576 E5.04187
G1 X87.49 Y123.239 E5.06884
G1 X87.03 Y122.806 E5.09826
G1 X86.65 Y122.369 E5.12522
G1 X86.333 Y121.884 E5.1522
G1 X86.086 Y121.36 E5.17918
G1 X85.914 Y120.807 E5.20614
G1 X85.819 Y120.235 E5.23314
G1 X85.8 Y119.836 E5.25174
G1 X85.8 Y90.164 E6.6334
G1 X85.84 Y89.586 E6.66038
G1 X85.959 Y89.019 E6.68735
G1 X86.155 Y88.474 E6.71432
G1 X86.424 Y87.961 E6.74129
G1 X86.761 Y87.49 E6.76826
G1 X87.194 Y87.03 E6.79768
M204 S3000
M205 X10 Y10
G0 F3000 X87.59 Y87.426
M204 S1800
M205 X8 Y8
G1 F2400 X87.999 Y87.074 E6.8228
G1 X88.455 Y86.786 E6.84792
G1 X88.948 Y86.569 E6.873
G1 X89.468 Y86.427 E6.8981
G1 X90.164 Y86.36 E6.93066
G1 X119.836 Y86.36 E8.31231
G1 X120.374 Y86.4 E8.33743
G1 X120.9 Y86.519 E8.36254
G1 X121.402 Y86.714 E8.38762
G1 X121.871 Y86.982 E8.41277
G1 X122.41 Y87.426 E8.44529
G1 X122.574 Y87.59 E8.45609
G1 X122.926 Y87.999 E8.48122
G1 X123.214 Y88.455 E8.50633
G1 X123.431 Y88.948 E8.53141
G1 X123.573 Y89.468 E8.55651
G1 X123.64 Y90.164 E8.58907
G1 X123.64 Y119.836 E9.97072
G1 X123.6 Y120.374 E9.99584
G1 X123.481 Y120.9 E10.02095
G1 X123.286 Y121.402 E10.04603
G1 X123.018 Y121.871 E10.07118
G1 X122.574 Y122.41 E10.1037
G1 X122.41 Y122.574 E10.1145
G1 X122.001 Y122.926 E10.13963
G1 X121.545 Y123.214 E10.16474
G1 X121.052 Y123.431 E10.18982
G1 X120.532 Y123.573 E10.21492
G1 X119.836 Y123.64 E10.24748
G1 X90.164 Y123.64 E11.62913
G1 X89.626 Y123.6 E11.65425
G1 X89.1 Y123.481 E11.67937
G1 X88.598 Y123.286 E11.70444
G1 X88.129 Y123.018 E11.7296
G1 X87.59 Y122.574 E11.76211
G1 X87.426 Y122.41 E11.77291
G1 X87.074 Y122.001 E11.79804
G1 X86.786 Y121.545 E11.82315
G1 X86.569 Y121.052 E11.84823
G1 X86.427 Y120.532 E11.87333
G1 X86.36 Y119.836 E11.90589
G1 X86.36 Y90.164 E13.28754
G1 X86.4 Y89.626 E13.31267
G1 X86.519 Y89.1 E13.33778
G1 X86.714 Y88.598 E13.36285
G1 X86.982 Y88.129 E13.38801
G1 X87.426 Y87.59 E13.42052
G1 X87.59 Y87.426 E13.43132
M204 S3000
M205 X10 Y10
G0 F3000 X87.986 Y87.822
M204 S1800
M205 X8 Y8
G1 F2400 X88.364 Y87.501 E13.45441
G1 X88.788 Y87.244 E13.4775
G1 X89.249 Y87.059 E13.50063
G1 X89.732 Y86.95 E13.52369
G1 X90.164 Y86.92 E13.54385
G1 X119.836 Y86.92 E14.9255
G1 X120.33 Y86.96 E14.94858
G1 X120.812 Y87.079 E14.9717
G1 X121.268 Y87.273 E14.99478
G1 X121.687 Y87.538 E15.01786
G1 X122.178 Y87.986 E15.04881
G1 X122.499 Y88.364 E15.0719
G1 X122.756 Y88.788 E15.09499
G1 X122.941 Y89.249 E15.11812
G1 X123.05 Y89.732 E15.14117
G1 X123.08 Y90.164 E15.16134
G1 X123.08 Y119.836 E16.54299
G1 X123.04 Y120.33 E16.56607
G1 X122.921 Y120.812 E16.58919
G1 X122.727 Y121.268 E16.61226
G1 X122.462 Y121.687 E16.63535
G1 X122.014 Y122.178 E16.6663
G1 X121.636 Y122.499 E16.68939
G1 X121.212 Y122.756 E16.71248
G1 X120.751 Y122.941 E16.73561
G1 X120.268 Y123.05 E16.75866
G1 X119.836 Y123.08 E16.77883
G1 X90.164 Y123.08 E18.16048
G1 X89.67 Y123.04 E18.18356
G1 X89.188 Y122.921 E18.20667
G1 X88.732 Y122.727 E18.22975
G1 X88.313 Y122.462 E18.25283
G1 X87.822 Y122.014 E18.28378
G1 X87.501 Y121.636 E18.30688
G1 X87.244 Y121.212 E18.32996
G1 X87.059 Y120.751 E18.35309
G1 X86.95 Y120.268 E18.37615
G1 X86.92 Y119.836 E18.39631
G1 X86.92 Y90.164 E19.77797
G1 X86.96 Y89.67 E19.80104
G1 X87.079 Y89.188 E19.82416
G1 X87.273 Y88.732 E19.84724
G1 X87.538 Y88.313 E19.87032
G1 X87.986 Y87.822 E19.90127
M204 S3000
M205 X10 Y10
G0 F3000 X88.218 Y88.382
M204 S1800
M205 X8 Y8
G1 F2400 X88.726 Y87.93 E19.93293
G1 X89.116 Y87.708 E19.95383
G1 X89.539 Y87.559 E19.97471
G1 X90.164 Y87.48 E20.00405
G1 X119.836 Y87.48 E21.3857
G1 X120.283 Y87.52 E21.4066
G1 X120.715 Y87.638 E21.42745
G1 X121.12 Y87.832 E21.44836
G1 X121.618 Y88.218 E21.4777
G1 X122.07 Y88.726 E21.50936
G1 X122.292 Y89.116 E21.53026
G1 X122.441 Y89.539 E21.55114
G1 X122.52 Y90.164 E21.58048
G1 X122.52 Y119.836 E22.96213
G1 X122.48 Y120.283 E22.98303
G1 X122.362 Y120.715 E23.00388
G1 X122.168 Y121.12 E23.02479
G1 X121.782 Y121.618 E23.05413
G1 X121.274 Y122.07 E23.08579
G1 X120.884 Y122.292 E23.10669
G1 X120.461 Y122.441 E23.12757
G1 X119.836 Y122.52 E23.1569
G1 X90.164 Y122.52 E24.53856
G1 X89.717 Y122.48 E24.55945
G1 X89.285 Y122.362 E24.58031
G1 X88.88 Y122.168 E24.60122
G1 X88.382 Y121.782 E24.63056
G1 X87.93 Y121.274 E24.66222
G1 X87.708 Y120.884 E24.68311
G1 X87.559 Y120.461 E24.704
G1 X87.48 Y119.836 E24.73333
G1 X87.48 Y90.164 E26.11498
G1 X87.52 Y89.717 E26.13588
G1 X87.638 Y89.285 E26.15673
G1 X87.832 Y88.88 E26.17764
G1 X88.218 Y88.382 E26.20698
M204 S3000
M205 X10 Y10
G0 F3000 X88.778 Y88.614
M204 S1800
M205 X8 Y8
G1 F2400 X89.084 Y88.364 E26.22538
G1 X89.435 Y88.181 E26.24381
G1 X89.815 Y88.071 E26.26224
G1 X90.164 Y88.04 E26.27855
G1 X119.836 Y88.04 E27.6602
G1 X120.229 Y88.08 E27.6786
G1 X120.607 Y88.198 E27.69704
G1 X120.953 Y88.389 E27.71544
G1 X121.386 Y88.778 E27.74254
G1 X121.636 Y89.084 E27.76094
G1 X121.819 Y89.435 E27.77937
G1 X121.929 Y89.815 E27.79779
G1 X121.96 Y90.164 E27.81411
G1 X121.96 Y119.836 E29.19576
G1 X121.92 Y120.229 E29.21416
G1 X121.802 Y120.607 E29.2326
G1 X121.611 Y120.953 E29.251
G1 X121.222 Y121.386 E29.2781
G1 X120.916 Y121.636 E29.2965
G1 X120.565 Y121.819 E29.31493
G1 X120.185 Y121.929 E29.33335
G1 X119.836 Y121.96 E29.34967
G1 X90.164 Y121.96 E30.73132
G1 X89.771 Y121.92 E30.74972
G1 X89.393 Y121.802 E30.76816
G1 X89.047 Y121.611 E30.78656
G1 X88.614 Y121.222 E30.81366
G1 X88.364 Y120.916 E30.83206
G1 X88.181 Y120.565 E30.85049
G1 X88.071 Y120.185 E30.86891
G1 X88.04 Y119.836 E30.88523
G1 X88.04 Y90.164 E32.26688
G1 X88.08 Y89.771 E32.28528
G1 X88.198 Y89.393 E32.30372
G1 X88.389 Y89.047 E32.32212
G1 X88.778 Y88.614 E32.34922
M204 S3000
M205 X10 Y10
G0 F3000 X89.174 Y89.01
M204 S1800
M205 X8 Y8
G1 F2400 X89.437 Y88.804 E32.36478
G1 X89.741 Y88.665 E32.38034
G1 X90.164 Y88.6 E32.40027
G1 X119.836 Y88.6 E33.78192
G1 X120.168 Y88.64 E33.79749
G1 X120.48 Y88.757 E33.81301
G1 X120.99 Y89.174 E33.84369
G1 X121.196 Y89.437 E33.85924
G1 X121.335 Y89.741 E33.87481
G1 X121.4 Y90.164 E33.89473
G1 X121.4 Y119.836 E35.27639
G1 X121.36 Y120.168 E35.29196
G1 X121.243 Y120.48 E35.30747
G1 X120.826 Y120.99 E35.33815
G1 X120.563 Y121.196 E35.35371
G1 X120.259 Y121.335 E35.36927
G1 X119.836 Y121.4 E35.3892
G1 X90.164 Y121.4 E36.77085
G1 X89.832 Y121.36 E36.78642
G1 X89.52 Y121.243 E36.80194
G1 X89.01 Y120.826 E36.83261
G1 X88.804 Y120.563 E36.84817
G1 X88.665 Y120.259 E36.86373
G1 X88.6 Y119.836 E36.88366
G1 X88.6 Y90.164 E38.26532
G1 X88.64 Y89.832 E38.28089
G1 X88.757 Y89.52 E38.2964
G1 X89.174 Y89.01 E38.32708
M204 S3000
M205 X10 Y10
G0 F3000 X89.406 Y89.57
M204 S1800
M205 X8 Y8
G1 F2400 X89.779 Y89.254 E38.34984
G1 X90.164 Y89.16 E38.36829
G1 X119.836 Y89.16 E39.74995
G1 X120.091 Y89.2 E39.76197
G1 X120.43 Y89.406 E39.78044
G1 X120.746 Y89.779 E39.8032
G1 X120.84 Y90.164 E39.82165
G1 X120.84 Y119.836 E41.20331
G1 X120.8 Y120.091 E41.21533
G1 X120.594 Y120.43 E41.2338
G1 X120.221 Y120.746 E41.25656
G1 X119.836 Y120.84 E41.27501
G1 X90.164 Y120.84 E42.65667
G1 X89.909 Y120.8 E42.66869
G1 X89.57 Y120.594 E42.68716
G1 X89.254 Y120.221 E42.70992
G1 X89.16 Y119.836 E42.72838
G1 X89.16 Y90.164 E44.11003
G1 X89.2 Y89.909 E44.12205
G1 X89.406 Y89.57 E44.14052
M204 S3000
M205 X10 Y10
G0 F3000 X89.966 Y89.802
M204 S1800
M205 X8 Y8
G1 F2400 X90.164 Y89.72 E44.1505
G1 X119.836 Y89.72 E45.53215
G1 X120.034 Y89.802 E45.54213
G1 X120.198 Y89.966 E45.55293
G1 X120.28 Y90.164 E45.56291
G1 X120.28 Y119.836 E46.94456
G1 X120.198 Y120.034 E46.95454
G1 X120.034 Y120.198 E46.96534
G1 X119.836 Y120.28 E46.97532
G1 X90.164 Y120.28 E48.35697
G1 X89.966 Y120.198 E48.36695
G1 X89.802 Y120.034 E48.37775
G1 X89.72 Y119.836 E48.38773
G1 X89.72 Y90.164 E49.76938
G1 X89.802 Y89.966 E49.77936
G1 X89.966 Y89.802 E49.79016
M204 S3000
M205 X10 Y10
G1 F2400 E43.79016
;MESH:tennshi.stl
G0 F3000 X90.854 Y90.854
G0 X119.09 Y119.09
G1 F2400 E49.79016
G0 F3000 X119.72 Y119.72
M204 S1800
M205 X8 Y8
;TYPE:WALL-OUTER
G1 F1500 X90.28 Y119.72 E51.16101
G1 X90.28 Y90.28 E52.53186
G1 X119.72 Y90.28 E53.90271
G1 X119.72 Y119.72 E55.27356
M204 S3000
M205 X10 Y10
G0 F3000 X119.52 Y119.72
G0 X119.16 Y119.16
M204 S1800
M205 X8 Y8
;TYPE:WALL-INNER
G1 F1500 X90.84 Y119.16 E56.59226
G1 X90.84 Y90.84 E57.91095
G1 X119.16 Y90.84 E59.22965
G1 X119.16 Y119.16 E60.54835
M204 S3000
M205 X10 Y10
G0 F3000 X118.6 Y118.6
M204 S1800
M205 X8 Y8
G1 F1500 X91.4 Y118.6 E61.8149
G1 X91.4 Y91.4 E63.08144
G1 X118.6 Y91.4 E64.34799
G1 X118.6 Y118.6 E65.61453
M204 S3000
M205 X10 Y10
G0 F3000 X118.05 Y118.05
M204 S1800
M205 X8 Y8
;TYPE:SKIN
G1 F1500 X91.95 Y118.05 E66.82986
G1 X91.95 Y91.95 E68.04518
G1 X118.05 Y91.95 E69.26051
G1 X118.05 Y118.05 E70.47584
M204 S3000
M205 X10 Y10
G0 F3000 X117.789 Y92.447
M204 S1800
M205 X8 Y8
G1 F1500 X117.552 Y92.21 E70.49144
M204 S3000
M205 X10 Y10
G0 F3000 X116.761 Y92.21
M204 S1800
M205 X8 Y8
G1 F1500 X117.789 Y93.239 E70.55917
M204 S3000
M205 X10 Y10
G0 F3000 X117.789 Y94.031
M204 S1800
M205 X8 Y8
G1 F1500 X115.969 Y92.21 E70.67905
M204 S3000
M205 X10 Y10
G0 F3000 X115.177 Y92.21
M204 S1800
M205 X8 Y8
G1 F1500 X117.789 Y94.823 E70.85109
M204 S3000
M205 X10 Y10
G0 F3000 X117.789 Y95.614
M204 S1800
M205 X8 Y8
G1 F1500 X114.385 Y92.21 E71.07525
M204 S3000
M205 X10 Y10
G0 F3000 X113.593 Y92.21
M204 S1800
M205 X8 Y8
G1 F1500 X117.789 Y96.406 E71.35156
M204 S3000
M205 X10 Y10
G0 F3000 X117.789 Y97.198
M204 S1800
M205 X8 Y8
G1 F1500 X112.801 Y92.21 E71.68003
M204 S3000
M205 X10 Y10
G0 F3000 X112.009 Y92.21
M204 S1800
M205 X8 Y8
G1 F1500 X117.789 Y97.99 E72.06066
M204 S3000
M205 X10 Y10
G0 F3000 X117.789 Y98.782
M204 S1800
M205 X8 Y8
G1 F1500 X111.217 Y92.21 E72.49343
M204 S3000
M205 X10 Y10
G0 F3000 X110.425 Y92.21
M204 S1800
M205 X8 Y8
G1 F1500 X117.789 Y99.574 E72.97836
M204 S3000
M205 X10 Y10
G0 F3000 X117.789 Y100.366
M204 S1800
M205 X8 Y8
G1 F1500 X109.633 Y92.21 E73.51545
M204 S3000
M205 X10 Y10
G0 F3000 X108.841 Y92.21
M204 S1800
M205 X8 Y8
G1 F1500 X117.789 Y101.158 E74.10469
M204 S3000
M205 X10 Y10
G0 F3000 X117.789 Y101.95
M204 S1800
M205 X8 Y8
G1 F1500 X108.049 Y92.21 E74.74609
M204 S3000
M205 X10 Y10
G0 F3000 X107.257 Y92.21
M204 S1800
M205 X8 Y8
G1 F1500 X117.789 Y102.742 E75.43964
M204 S3000
M205 X10 Y10
G0 F3000 X117.789 Y103.534
M204 S1800
M205 X8 Y8
G1 F1500 X106.465 Y92.21 E76.18534
M204 S3000
M205 X10 Y10
G0 F3000 X105.673 Y92.21
M204 S1800
M205 X8 Y8
G1 F1500 X117.789 Y104.326 E76.9832
M204 S3000
M205 X10 Y10
G0 F3000 X117.789 Y105.118
M204 S1800
M205 X8 Y8
G1 F1500 X104.881 Y92.21 E77.83322
M204 S3000
M205 X10 Y10
G0 F3000 X104.089 Y92.21
M204 S1800
M205 X8 Y8
G1 F1500 X117.789 Y105.91 E78.73538
M204 S3000
M205 X10 Y10
G0 F3000 X117.789 Y106.702
M204 S1800
M205 X8 Y8
G1 F1500 X103.297 Y92.21 E79.68971
M204 S3000
M205 X10 Y10
G0 F3000 X102.505 Y92.21
M204 S1800
M205 X8 Y8
G1 F1500 X117.789 Y107.494 E80.69618
M204 S3000
M205 X10 Y10
G0 F3000 X117.789 Y108.286
M204 S1800
M205 X8 Y8
G1 F1500 X101.713 Y92.21 E81.75482
M204 S3000
M205 X10 Y10
G0 F3000 X100.921 Y92.21
M204 S1800
M205 X8 Y8
G1 F1500 X117.789 Y109.078 E82.8656
M204 S3000
M205 X10 Y10
G0 F3000 X117.789 Y109.87
M204 S1800
M205 X8 Y8
G1 F1500 X100.129 Y92.21 E84.02854
M204 S3000
M205 X10 Y10
G0 F3000 X99.337 Y92.21
M204 S1800
M205 X8 Y8
G1 F1500 X117.789 Y110.662 E85.24364
M204 S3000
M205 X10 Y10
G0 F3000 X117.789 Y111.454
M204 S1800
M205 X8 Y8
G1 F1500 X98.545 Y92.21 E86.51089
M204 S3000
M205 X10 Y10
G0 F3000 X97.753 Y92.21
M204 S1800
M205 X8 Y8
G1 F1500 X117.789 Y112.246 E87.8303
M204 S3000
M205 X10 Y10
G0 F3000 X117.789 Y113.038
M204 S1800
M205 X8 Y8
G1 F1500 X96.962 Y92.21 E89.20182
M204 S3000
M205 X10 Y10
G0 F3000 X96.17 Y92.21
M204 S1800
M205 X8 Y8
G1 F1500 X117.789 Y113.83 E90.6255
M204 S3000
M205 X10 Y10
G0 F3000 X117.789 Y114.622
M204 S1800
M205 X8 Y8
G1 F1500 X95.378 Y92.21 E92.10134
M204 S3000
M205 X10 Y10
G0 F3000 X94.586 Y92.21
M204 S1800
M205 X8 Y8
G1 F1500 X117.789 Y115.413 E93.6293
M204 S3000
M205 X10 Y10
G0 F3000 X117.789 Y116.205
M204 S1800
M205 X8 Y8
G1 F1500 X93.794 Y92.21 E95.20941
M204 S3000
M205 X10 Y10
G0 F3000 X93.002 Y92.21
M204 S1800
M205 X8 Y8
G1 F1500 X117.789 Y116.997 E96.84167
M204 S3000
M205 X10 Y10
G0 F3000 X117.789 Y117.789
M204 S1800
M205 X8 Y8
G1 F1500 X92.209 Y92.209 E98.52616
M204 S3000
M205 X10 Y10
G0 F3000 X92.209 Y93.001
M204 S1800
M205 X8 Y8
G1 F1500 X116.997 Y117.789 E100.15849
M204 S3000
M205 X10 Y10
G0 F3000 X116.205 Y117.789
M204 S1800
M205 X8 Y8
G1 F1500 X92.209 Y93.793 E101.73867
M204 S3000
M205 X10 Y10
G0 F3000 X92.209 Y94.585
M204 S1800
M205 X8 Y8
G1 F1500 X115.413 Y117.789 E103.26669
M204 S3000
M205 X10 Y10
G0 F3000 X114.621 Y117.789
M204 S1800
M205 X8 Y8
G1 F1500 X92.209 Y95.377 E104.74256
M204 S3000
M205 X10 Y10
G0 F3000 X92.209 Y96.169
M204 S1800
M205 X8 Y8
G1 F1500 X113.829 Y117.789 E106.16628
M204 S3000
M205 X10 Y10
G0 F3000 X113.037 Y117.789
M204 S1800
M205 X8 Y8
G1 F1500 X92.209 Y96.961 E107.53783
M204 S3000
M205 X10 Y10
G0 F3000 X92.209 Y97.753
M204 S1800
M205 X8 Y8
G1 F1500 X112.245 Y117.789 E108.85724
M204 S3000
M205 X10 Y10
G0 F3000 X111.453 Y117.789
M204 S1800
M205 X8 Y8
G1 F1500 X92.209 Y98.545 E110.12449
M204 S3000
M205 X10 Y10
G0 F3000 X92.209 Y99.337
M204 S1800
M205 X8 Y8
G1 F1500 X110.661 Y117.789 E111.33959
M204 S3000
M205 X10 Y10
G0 F3000 X109.869 Y117.789
M204 S1800
M205 X8 Y8
G1 F1500 X92.209 Y100.129 E112.50253
M204 S3000
M205 X10 Y10
G0 F3000 X92.209 Y100.921
M204 S1800
M205 X8 Y8
G1 F1500 X109.077 Y117.789 E113.61331
M204 S3000
M205 X10 Y10
G0 F3000 X108.285 Y117.789
M204 S1800
M205 X8 Y8
G1 F1500 X92.209 Y101.713 E114.67195
M204 S3000
M205 X10 Y10
G0 F3000 X92.209 Y102.505
M204 S1800
M205 X8 Y8
G1 F1500 X107.493 Y117.789 E115.67842
M204 S3000
M205 X10 Y10
G0 F3000 X106.701 Y117.789
M204 S1800
M205 X8 Y8
G1 F1500 X92.209 Y103.296 E116.63278
M204 S3000
M205 X10 Y10
G0 F3000 X92.209 Y104.088
M204 S1800
M205 X8 Y8
G1 F1500 X105.909 Y117.789 E117.53498
M204 S3000
M205 X10 Y10
G0 F3000 X105.117 Y117.789
M204 S1800
M205 X8 Y8
G1 F1500 X92.209 Y104.88 E118.38503
M204 S3000
M205 X10 Y10
G0 F3000 X92.209 Y105.672
M204 S1800
M205 X8 Y8
G1 F1500 X104.325 Y117.789 E119.18292
M204 S3000
M205 X10 Y10
G0 F3000 X103.533 Y117.789
M204 S1800
M205 X8 Y8
G1 F1500 X92.209 Y106.464 E119.92866
M204 S3000
M205 X10 Y10
G0 F3000 X92.209 Y107.256
M204 S1800
M205 X8 Y8
G1 F1500 X102.741 Y117.789 E120.62224
M204 S3000
