;FLAVOR:Marlin
;TIME:9439
;Filament used: 7.70628m
;Layer height: 0.2
;MINX:64.176
;MINY:62.3
;MINZ:0.2
;MAXX:141.302
;MAXY:147.638
;MAXZ:35
;Generated with Cura_SteamEngine 4.11.0
M140 S60
M105
M190 S60
M104 S200
M105
M109 S200
M82 ;absolute extrusion mode
G21 ;metric values
G90 ;absolute positioning
M82 ;set extruder to absolute mode
M107 ;start with the fan off
G28 X0 Y0 ;move X/Y to min endstops
G28 Z0 ;move Z to min endstops
G1 Z15.0 F100 ;move the platform down 15mm
G92 E0 ;zero the extruded length
G1 F200 E3 ;extrude 3mm of feed stock
G92 E0 ;zero the extruded length again
G1 F100
G0 Y20 F100
M117 Printing...
G5
G92 E0
G92 E0
G1 F2400 E-6
;LAYER_COUNT:175
;LAYER:0
M107
M204 S3000
M205 X10 Y10
G1 F600 Z0.275
G0 F3000 X65.57 Y63.63 Z0.275
M204 S1800
M205 X8 Y8
;TYPE:SKIRT
G1 F600 Z0.2
G1 F2400 E0
G1 X66.007 Y63.25 E0.02697
G1 X66.492 Y62.933 E0.05395
G1 X67.016 Y62.686 E0.08092
G1 X67.569 Y62.514 E0.10789
G1 X68.141 Y62.419 E0.13489
G1 X68.54 Y62.4 E0.15349
G1 X78.088 Y62.4 E0.59808
G1 X78.666 Y62.44 E0.62506
G1 X79.233 Y62.559 E0.65204
G1 X79.778 Y62.755 E0.67901
G1 X80.291 Y63.024 E0.70598
G1 X80.333 Y63.054 E0.70838
G1 X80.603 Y62.87 E0.7236
G1 X81.122 Y62.614 E0.75054
G1 X81.672 Y62.432 E0.77752
G1 X82.242 Y62.327 E0.80451
G1 X82.716 Y62.3 E0.82661
G1 X83.259 Y62.3 E0.8519
G1 X83.837 Y62.34 E0.87888
G1 X84.404 Y62.459 E0.90585
G1 X84.949 Y62.655 E0.93282
G1 X85.462 Y62.924 E0.95979
G1 X85.933 Y63.261 E0.98676
G1 X86.346 Y63.647 E1.01308
G1 X86.726 Y64.084 E1.04005
G1 X87.043 Y64.569 E1.06703
G1 X87.29 Y65.093 E1.094
G1 X87.462 Y65.646 E1.12097
G1 X87.557 Y66.218 E1.14797
G1 X87.576 Y66.617 E1.16657
G1 X87.576 Y102.3 E2.82812
G1 X114.176 Y102.3 E4.06673
G1 X114.176 Y101.617 E4.09853
G1 X114.216 Y101.039 E4.12551
G1 X114.335 Y100.472 E4.15249
G1 X114.531 Y99.927 E4.17946
G1 X114.8 Y99.414 E4.20643
G1 X115.137 Y98.943 E4.2334
G1 X115.523 Y98.53 E4.25972
G1 X115.96 Y98.15 E4.28668
G1 X116.445 Y97.833 E4.31366
G1 X116.969 Y97.586 E4.34064
G1 X117.522 Y97.414 E4.36761
G1 X118.094 Y97.319 E4.39461
G1 X118.493 Y97.3 E4.41321
G1 X131.191 Y97.3 E5.00448
G1 X131.769 Y97.34 E5.03146
G1 X132.336 Y97.459 E5.05843
G1 X132.881 Y97.655 E5.0854
G1 X133.394 Y97.924 E5.11237
G1 X133.865 Y98.261 E5.13934
G1 X134.278 Y98.647 E5.16566
G1 X134.658 Y99.084 E5.19263
G1 X134.975 Y99.569 E5.21961
G1 X135.222 Y100.093 E5.24658
G1 X135.394 Y100.646 E5.27355
G1 X135.489 Y101.218 E5.30055
G1 X135.508 Y101.617 E5.31915
G1 X135.508 Y126.383 E6.47236
G1 X135.468 Y126.961 E6.49934
G1 X135.349 Y127.528 E6.52632
G1 X135.153 Y128.073 E6.55328
G1 X134.884 Y128.586 E6.58026
G1 X134.547 Y129.057 E6.60722
G1 X134.161 Y129.47 E6.63355
G1 X133.724 Y129.85 E6.66051
G1 X133.239 Y130.167 E6.68749
G1 X132.715 Y130.414 E6.71447
G1 X132.162 Y130.586 E6.74143
G1 X131.59 Y130.681 E6.76843
G1 X131.191 Y130.7 E6.78703
G1 X113.493 Y130.7 E7.61113
G1 X112.915 Y130.66 E7.6381
G1 X112.348 Y130.541 E7.66508
G1 X111.803 Y130.345 E7.69205
G1 X111.29 Y130.076 E7.71902
G1 X110.819 Y129.739 E7.74599
G1 X110.406 Y129.353 E7.77231
G1 X110.026 Y128.916 E7.79928
G1 X109.709 Y128.431 E7.82626
G1 X109.462 Y127.907 E7.85323
G1 X109.29 Y127.354 E7.8802
G1 X109.195 Y126.782 E7.9072
G1 X109.176 Y126.383 E7.9258
G1 X109.176 Y125.7 E7.9576
G1 X82.732 Y125.7 E9.18895
G1 X82.452 Y125.681 E9.20201
G1 X82.452 Y143.274 E10.02122
G1 X82.412 Y143.852 E10.0482
G1 X82.293 Y144.419 E10.07517
G1 X82.097 Y144.964 E10.10214
G1 X81.828 Y145.477 E10.12911
G1 X81.491 Y145.948 E10.15608
G1 X81.058 Y146.408 E10.1855
G1 X80.621 Y146.788 E10.21246
G1 X80.136 Y147.105 E10.23944
G1 X79.612 Y147.352 E10.26642
G1 X79.059 Y147.524 E10.29338
G1 X78.487 Y147.619 E10.32038
G1 X78.088 Y147.638 E10.33898
G1 X68.54 Y147.638 E10.78358
G1 X67.962 Y147.598 E10.81056
G1 X67.395 Y147.479 E10.83753
G1 X66.85 Y147.283 E10.8645
G1 X66.337 Y147.014 E10.89148
G1 X65.866 Y146.677 E10.91844
G1 X65.406 Y146.244 E10.94786
G1 X65.026 Y145.807 E10.97483
G1 X64.709 Y145.322 E11.0018
G1 X64.462 Y144.798 E11.02878
G1 X64.29 Y144.245 E11.05575
G1 X64.195 Y143.673 E11.08275
G1 X64.176 Y143.274 E11.10135
G1 X64.176 Y66.764 E14.66397
G1 X64.216 Y66.186 E14.69095
G1 X64.335 Y65.619 E14.71793
G1 X64.531 Y65.074 E14.7449
G1 X64.8 Y64.561 E14.77187
G1 X65.137 Y64.09 E14.79884
G1 X65.57 Y63.63 E14.82825
M204 S3000
M205 X10 Y10
G0 F3000 X65.966 Y64.026
M204 S1800
M205 X8 Y8
G1 F2400 X66.375 Y63.674 E14.85338
G1 X66.831 Y63.386 E14.87849
G1 X67.324 Y63.169 E14.90357
G1 X67.844 Y63.027 E14.92867
G1 X68.54 Y62.96 E14.96123
G1 X78.088 Y62.96 E15.40583
G1 X78.626 Y63 E15.43095
G1 X79.152 Y63.119 E15.45606
G1 X79.654 Y63.314 E15.48114
G1 X80.123 Y63.582 E15.50629
G1 X80.334 Y63.756 E15.51902
G1 X80.68 Y63.483 E15.53955
G1 X81.148 Y63.215 E15.56466
G1 X81.651 Y63.019 E15.5898
G1 X82.177 Y62.9 E15.61491
G1 X82.716 Y62.86 E15.64007
G1 X83.259 Y62.86 E15.66536
G1 X83.797 Y62.9 E15.69048
G1 X84.323 Y63.019 E15.71559
G1 X84.825 Y63.214 E15.74067
G1 X85.294 Y63.482 E15.76582
G1 X85.833 Y63.926 E15.79834
G1 X85.95 Y64.043 E15.80604
G1 X86.302 Y64.452 E15.83117
G1 X86.59 Y64.908 E15.85628
G1 X86.807 Y65.401 E15.88136
G1 X86.949 Y65.921 E15.90646
G1 X87.016 Y66.617 E15.93902
G1 X87.016 Y102.86 E17.62665
G1 X114.736 Y102.86 E18.91741
G1 X114.736 Y101.617 E18.97529
G1 X114.776 Y101.079 E19.00041
G1 X114.895 Y100.553 E19.02552
G1 X115.09 Y100.051 E19.0506
G1 X115.358 Y99.582 E19.07575
G1 X115.802 Y99.043 E19.10827
G1 X115.919 Y98.926 E19.11597
G1 X116.328 Y98.574 E19.1411
G1 X116.784 Y98.286 E19.16621
G1 X117.277 Y98.069 E19.19129
G1 X117.797 Y97.927 E19.21639
G1 X118.493 Y97.86 E19.24895
G1 X131.191 Y97.86 E19.84022
G1 X131.729 Y97.9 E19.86534
G1 X132.255 Y98.019 E19.89046
G1 X132.757 Y98.214 E19.91553
G1 X133.226 Y98.482 E19.94069
G1 X133.765 Y98.926 E19.9732
G1 X133.882 Y99.043 E19.98091
G1 X134.234 Y99.452 E20.00603
G1 X134.522 Y99.908 E20.03115
G1 X134.739 Y100.401 E20.05623
G1 X134.881 Y100.921 E20.08133
G1 X134.948 Y101.617 E20.11389
G1 X134.948 Y126.383 E21.2671
G1 X134.908 Y126.921 E21.29222
G1 X134.789 Y127.447 E21.31733
G1 X134.594 Y127.949 E21.34241
G1 X134.326 Y128.418 E21.36756
G1 X133.882 Y128.957 E21.40007
G1 X133.765 Y129.074 E21.40778
G1 X133.356 Y129.426 E21.43291
G1 X132.9 Y129.714 E21.45802
G1 X132.407 Y129.931 E21.4831
G1 X131.887 Y130.073 E21.5082
G1 X131.191 Y130.14 E21.54076
G1 X113.493 Y130.14 E22.36485
G1 X112.955 Y130.1 E22.38997
G1 X112.429 Y129.981 E22.41509
G1 X111.927 Y129.786 E22.44016
G1 X111.458 Y129.518 E22.46531
G1 X110.919 Y129.074 E22.49783
G1 X110.802 Y128.957 E22.50554
G1 X110.45 Y128.548 E22.53066
G1 X110.162 Y128.092 E22.55578
G1 X109.945 Y127.599 E22.58086
G1 X109.803 Y127.079 E22.60596
G1 X109.736 Y126.383 E22.63852
G1 X109.736 Y125.14 E22.6964
G1 X82.732 Y125.14 E23.95382
G1 X82.194 Y125.1 E23.97894
G1 X81.892 Y125.032 E23.99335
G1 X81.892 Y143.274 E24.84277
G1 X81.852 Y143.812 E24.86789
G1 X81.733 Y144.338 E24.89301
G1 X81.538 Y144.84 E24.91808
G1 X81.27 Y145.309 E24.94324
G1 X80.826 Y145.848 E24.97575
G1 X80.662 Y146.012 E24.98655
G1 X80.253 Y146.364 E25.01168
G1 X79.797 Y146.652 E25.03679
G1 X79.304 Y146.869 E25.06187
G1 X78.784 Y147.011 E25.08697
G1 X78.088 Y147.078 E25.11953
G1 X68.54 Y147.078 E25.56413
G1 X68.002 Y147.038 E25.58925
G1 X67.476 Y146.919 E25.61436
G1 X66.974 Y146.724 E25.63944
G1 X66.505 Y146.456 E25.66459
G1 X65.966 Y146.012 E25.69711
G1 X65.802 Y145.848 E25.70791
G1 X65.45 Y145.439 E25.73303
G1 X65.162 Y144.983 E25.75815
G1 X64.945 Y144.49 E25.78323
G1 X64.803 Y143.97 E25.80833
G1 X64.736 Y143.274 E25.84089
G1 X64.736 Y66.764 E29.40351
G1 X64.776 Y66.226 E29.42863
G1 X64.895 Y65.7 E29.45375
G1 X65.09 Y65.198 E29.47882
G1 X65.358 Y64.729 E29.50397
G1 X65.802 Y64.19 E29.53649
G1 X65.966 Y64.026 E29.54729
M204 S3000
M205 X10 Y10
G0 F3000 X66.362 Y64.422
M204 S1800
M205 X8 Y8
G1 F2400 X66.74 Y64.101 E29.57038
G1 X67.164 Y63.844 E29.59347
G1 X67.625 Y63.659 E29.6166
G1 X68.108 Y63.55 E29.63966
G1 X68.54 Y63.52 E29.65982
G1 X78.088 Y63.52 E30.10442
G1 X78.582 Y63.56 E30.12749
G1 X79.064 Y63.679 E30.15061
G1 X79.52 Y63.873 E30.17369
G1 X79.939 Y64.138 E30.19677
G1 X80.366 Y64.522 E30.22351
G1 X80.817 Y64.075 E30.25308
G1 X81.231 Y63.802 E30.27617
G1 X81.683 Y63.598 E30.29926
G1 X82.163 Y63.47 E30.32239
G1 X82.716 Y63.42 E30.34825
G1 X83.259 Y63.42 E30.37353
G1 X83.753 Y63.46 E30.39661
G1 X84.235 Y63.579 E30.41973
G1 X84.691 Y63.773 E30.4428
G1 X85.11 Y64.038 E30.46589
G1 X85.554 Y64.439 E30.49375
G1 X85.875 Y64.817 E30.51684
G1 X86.132 Y65.241 E30.53993
G1 X86.317 Y65.702 E30.56306
G1 X86.426 Y66.185 E30.58611
G1 X86.456 Y66.617 E30.60628
G1 X86.456 Y103.42 E32.31998
G1 X115.296 Y103.42 E33.66289
G1 X115.296 Y101.617 E33.74684
G1 X115.336 Y101.123 E33.76992
G1 X115.455 Y100.641 E33.79304
G1 X115.649 Y100.185 E33.81612
G1 X115.914 Y99.766 E33.8392
G1 X116.315 Y99.322 E33.86706
G1 X116.693 Y99.001 E33.89015
G1 X117.117 Y98.744 E33.91324
G1 X117.578 Y98.559 E33.93637
G1 X118.061 Y98.45 E33.95942
G1 X118.493 Y98.42 E33.97959
G1 X131.191 Y98.42 E34.57086
G1 X131.685 Y98.46 E34.59394
G1 X132.167 Y98.579 E34.61706
G1 X132.623 Y98.773 E34.64013
G1 X133.042 Y99.038 E34.66322
G1 X133.486 Y99.439 E34.69107
G1 X133.807 Y99.817 E34.71417
G1 X134.064 Y100.241 E34.73725
G1 X134.249 Y100.702 E34.76038
G1 X134.358 Y101.185 E34.78344
G1 X134.388 Y101.617 E34.8036
G1 X134.388 Y126.383 E35.95681
G1 X134.348 Y126.877 E35.97989
G1 X134.229 Y127.359 E36.00301
G1 X134.035 Y127.815 E36.02608
G1 X133.77 Y128.234 E36.04917
G1 X133.369 Y128.678 E36.07703
G1 X132.991 Y128.999 E36.10012
G1 X132.567 Y129.256 E36.1232
G1 X132.106 Y129.441 E36.14633
G1 X131.623 Y129.55 E36.16939
G1 X131.191 Y129.58 E36.18955
G1 X113.493 Y129.58 E37.01365
G1 X112.999 Y129.54 E37.03673
G1 X112.517 Y129.421 E37.05984
G1 X112.061 Y129.227 E37.08292
G1 X111.642 Y128.962 E37.106
G1 X111.198 Y128.561 E37.13386
G1 X110.877 Y128.183 E37.15695
G1 X110.62 Y127.759 E37.18004
G1 X110.435 Y127.298 E37.20317
G1 X110.326 Y126.815 E37.22623
G1 X110.296 Y126.383 E37.24639
G1 X110.296 Y124.58 E37.33035
G1 X82.732 Y124.58 E38.61384
G1 X82.238 Y124.54 E38.63692
G1 X81.756 Y124.421 E38.66004
G1 X81.332 Y124.241 E38.68149
G1 X81.332 Y143.274 E39.56774
G1 X81.292 Y143.768 E39.59082
G1 X81.173 Y144.25 E39.61394
G1 X80.979 Y144.706 E39.63701
G1 X80.714 Y145.125 E39.6601
G1 X80.266 Y145.616 E39.69105
G1 X79.888 Y145.937 E39.71414
G1 X79.464 Y146.194 E39.73723
G1 X79.003 Y146.379 E39.76036
G1 X78.52 Y146.488 E39.78341
G1 X78.088 Y146.518 E39.80358
G1 X68.54 Y146.518 E40.24817
G1 X68.046 Y146.478 E40.27125
G1 X67.564 Y146.359 E40.29437
G1 X67.108 Y146.165 E40.31744
G1 X66.689 Y145.9 E40.34053
G1 X66.198 Y145.452 E40.37148
G1 X65.877 Y145.074 E40.39457
G1 X65.62 Y144.65 E40.41765
G1 X65.435 Y144.189 E40.44078
G1 X65.326 Y143.706 E40.46384
G1 X65.296 Y143.274 E40.48401
G1 X65.296 Y66.764 E44.04663
G1 X65.336 Y66.27 E44.06971
G1 X65.455 Y65.788 E44.09283
G1 X65.649 Y65.332 E44.1159
G1 X65.914 Y64.913 E44.13899
G1 X66.362 Y64.422 E44.16994
M204 S3000
M205 X10 Y10
G0 F3000 X66.594 Y64.982
M204 S1800
M205 X8 Y8
G1 F2400 X67.102 Y64.53 E44.2016
G1 X67.492 Y64.308 E44.2225
G1 X67.915 Y64.159 E44.24338
G1 X68.54 Y64.08 E44.27271
G1 X78.088 Y64.08 E44.71731
G1 X78.535 Y64.12 E44.7382
G1 X78.967 Y64.238 E44.75906
G1 X79.372 Y64.432 E44.77997
G1 X79.87 Y64.818 E44.80931
G1 X80.322 Y65.326 E44.84097
G1 X80.416 Y65.492 E44.84985
G1 X80.713 Y64.971 E44.87778
G1 X81.016 Y64.64 E44.89867
G1 X81.373 Y64.368 E44.91957
G1 X81.772 Y64.163 E44.94046
G1 X82.201 Y64.033 E44.96133
G1 X82.716 Y63.98 E44.98544
G1 X83.259 Y63.98 E45.01072
G1 X83.706 Y64.02 E45.03162
G1 X84.138 Y64.138 E45.05247
G1 X84.543 Y64.332 E45.07338
G1 X85.041 Y64.718 E45.10272
G1 X85.446 Y65.179 E45.1313
G1 X85.668 Y65.569 E45.15219
G1 X85.817 Y65.992 E45.17308
G1 X85.896 Y66.617 E45.20241
G1 X85.896 Y103.98 E46.94219
G1 X115.856 Y103.98 E48.33725
G1 X115.856 Y101.617 E48.44728
G1 X115.896 Y101.17 E48.46818
G1 X116.014 Y100.738 E48.48903
G1 X116.208 Y100.333 E48.50994
G1 X116.594 Y99.835 E48.53928
G1 X117.055 Y99.43 E48.56785
G1 X117.445 Y99.208 E48.58875
G1 X117.868 Y99.059 E48.60963
G1 X118.493 Y98.98 E48.63897
G1 X131.191 Y98.98 E49.23024
G1 X131.638 Y99.02 E49.25114
G1 X132.07 Y99.138 E49.27199
G1 X132.475 Y99.332 E49.2929
G1 X132.973 Y99.718 E49.32224
G1 X133.378 Y100.179 E49.35081
G1 X133.6 Y100.569 E49.37171
G1 X133.749 Y100.992 E49.39259
G1 X133.828 Y101.617 E49.42193
G1 X133.828 Y126.383 E50.57513
G1 X133.788 Y126.83 E50.59603
G1 X133.67 Y127.262 E50.61688
G1 X133.476 Y127.667 E50.6378
G1 X133.09 Y128.165 E50.66713
G1 X132.629 Y128.57 E50.69571
G1 X132.239 Y128.792 E50.7166
G1 X131.816 Y128.941 E50.73749
G1 X131.191 Y129.02 E50.76682
G1 X113.493 Y129.02 E51.59091
G1 X113.046 Y128.98 E51.61181
G1 X112.614 Y128.862 E51.63266
G1 X112.209 Y128.668 E51.65357
G1 X111.711 Y128.282 E51.68291
G1 X111.306 Y127.821 E51.71149
G1 X111.084 Y127.431 E51.73238
G1 X110.935 Y127.008 E51.75327
G1 X110.856 Y126.383 E51.7826
G1 X110.856 Y124.02 E51.89263
G1 X82.732 Y124.02 E53.2022
G1 X82.285 Y123.98 E53.2231
G1 X81.853 Y123.862 E53.24395
G1 X81.448 Y123.668 E53.26486
G1 X81.084 Y123.406 E53.28575
G1 X80.772 Y123.084 E53.30662
G1 X80.772 Y143.274 E54.24675
G1 X80.732 Y143.721 E54.26765
G1 X80.614 Y144.153 E54.2885
G1 X80.42 Y144.558 E54.30942
G1 X80.034 Y145.056 E54.33875
G1 X79.526 Y145.508 E54.37042
G1 X79.136 Y145.73 E54.39131
G1 X78.713 Y145.879 E54.4122
G1 X78.088 Y145.958 E54.44153
G1 X68.54 Y145.958 E54.88613
G1 X68.093 Y145.918 E54.90702
G1 X67.661 Y145.8 E54.92788
G1 X67.256 Y145.606 E54.94879
G1 X66.758 Y145.22 E54.97812
G1 X66.306 Y144.712 E55.00979
G1 X66.084 Y144.322 E55.03068
G1 X65.935 Y143.899 E55.05157
G1 X65.856 Y143.274 E55.0809
G1 X65.856 Y66.764 E58.64353
G1 X65.896 Y66.317 E58.66442
G1 X66.014 Y65.885 E58.68528
G1 X66.208 Y65.48 E58.70619
G1 X66.594 Y64.982 E58.73553
M204 S3000
M205 X10 Y10
G0 F3000 X67.154 Y65.214
M204 S1800
M205 X8 Y8
G1 F2400 X67.46 Y64.964 E58.75393
G1 X67.811 Y64.781 E58.77236
G1 X68.191 Y64.671 E58.79078
G1 X68.54 Y64.64 E58.80709
G1 X78.088 Y64.64 E59.25169
G1 X78.481 Y64.68 E59.27008
G1 X78.859 Y64.798 E59.28852
G1 X79.205 Y64.989 E59.30692
G1 X79.638 Y65.378 E59.33403
G1 X79.888 Y65.684 E59.35243
G1 X80.071 Y66.035 E59.37086
G1 X80.181 Y66.415 E59.38928
G1 X80.212 Y66.764 E59.4056
G1 X80.212 Y143.274 E62.96822
G1 X80.172 Y143.667 E62.98662
G1 X80.054 Y144.045 E63.00505
G1 X79.863 Y144.391 E63.02346
G1 X79.474 Y144.824 E63.05056
G1 X79.168 Y145.074 E63.06896
G1 X78.817 Y145.257 E63.08739
G1 X78.437 Y145.367 E63.10581
G1 X78.088 Y145.398 E63.12213
G1 X68.54 Y145.398 E63.56672
G1 X68.147 Y145.358 E63.58512
G1 X67.769 Y145.24 E63.60356
G1 X67.423 Y145.049 E63.62196
G1 X66.99 Y144.66 E63.64906
G1 X66.74 Y144.354 E63.66746
G1 X66.557 Y144.003 E63.68589
G1 X66.447 Y143.623 E63.70432
G1 X66.416 Y143.274 E63.72063
G1 X66.416 Y66.764 E67.28326
G1 X66.456 Y66.371 E67.30165
G1 X66.574 Y65.993 E67.32009
G1 X66.765 Y65.647 E67.33849
G1 X67.154 Y65.214 E67.3656
M204 S3000
M205 X10 Y10
G0 F3000 X67.55 Y65.61
M204 S1800
M205 X8 Y8
G1 F2400 X67.813 Y65.404 E67.38115
G1 X68.117 Y65.265 E67.39672
G1 X68.54 Y65.2 E67.41665
G1 X78.088 Y65.2 E67.86124
G1 X78.42 Y65.24 E67.87681
G1 X78.732 Y65.357 E67.89233
G1 X79.242 Y65.774 E67.923
G1 X79.448 Y66.037 E67.93856
G1 X79.587 Y66.341 E67.95412
G1 X79.652 Y66.764 E67.97405
G1 X79.652 Y143.274 E71.53668
G1 X79.612 Y143.606 E71.55225
G1 X79.495 Y143.918 E71.56776
G1 X79.078 Y144.428 E71.59844
G1 X78.815 Y144.634 E71.614
G1 X78.511 Y144.773 E71.62956
G1 X78.088 Y144.838 E71.64949
G1 X68.54 Y144.838 E72.09408
G1 X68.208 Y144.798 E72.10965
G1 X67.896 Y144.681 E72.12517
G1 X67.386 Y144.264 E72.15585
G1 X67.18 Y144.001 E72.1714
G1 X67.041 Y143.697 E72.18697
G1 X66.976 Y143.274 E72.20689
G1 X66.976 Y66.764 E75.76952
G1 X67.016 Y66.432 E75.78509
G1 X67.133 Y66.12 E75.80061
G1 X67.55 Y65.61 E75.83128
M204 S3000
M205 X10 Y10
G0 F3000 X67.782 Y66.17
M204 S1800
M205 X8 Y8
G1 F2400 X68.155 Y65.854 E75.85405
G1 X68.54 Y65.76 E75.8725
G1 X78.088 Y65.76 E76.3171
G1 X78.343 Y65.8 E76.32911
G1 X78.682 Y66.006 E76.34759
G1 X78.998 Y66.379 E76.37035
