;FLAVOR:Marlin
;TIME:704
;Filament used: 1.0862m
;Layer height: 0.3
;MINX:50.091
;MINY:71
;MINZ:0.3
;MAXX:159.908
;MAXY:138.99
;MAXZ:6
;Generated with Cura_SteamEngine 4.11.0
M140 S60
M105
M190 S60
M104 S200
M105
M109 S200
M82 ;absolute extrusion mode
G21 ;metric values
G90 ;absolute positioning
M82 ;set extruder to absolute mode
M107 ;start with the fan off
G28 X0 Y0 ;move X/Y to min endstops
G28 Z0 ;move Z to min endstops
G1 Z15.0 F100 ;move the platform down 15mm
G92 E0 ;zero the extruded length
G1 F200 E3 ;extrude 3mm of feed stock
G92 E0 ;zero the extruded length again
G1 F100
G0 Y20 F100
M117 Printing...
G5
G92 E0
G92 E0
G1 F2400 E-6
;LAYER_COUNT:20
;LAYER:0
M107
M204 S3000
M205 X10 Y10
G1 F600 Z0.375
G0 F3000 X59.187 Y75.626 Z0.375
M204 S1800
M205 X8 Y8
;TYPE:SKIRT
G1 F600 Z0.3
G1 F2400 E0
G1 X59.74 Y75.192 E0.0491
G1 X60.107 Y74.92 E0.08101
G1 X61.187 Y74.161 E0.17321
G1 X61.425 Y74.001 E0.19324
G1 X62.052 Y73.601 E0.24518
G1 X62.248 Y73.481 E0.26123
G1 X63.006 Y73.035 E0.32266
G1 X63.189 Y72.932 E0.33733
G1 X64.143 Y72.412 E0.41322
G1 X64.331 Y72.313 E0.42806
G1 X64.912 Y72.021 E0.47348
G1 X65.333 Y71.817 E0.50615
G1 X65.842 Y71.585 E0.54522
G1 X66.508 Y71.326 E0.59513
G1 X67.199 Y71.142 E0.64508
G1 X67.907 Y71.036 E0.69508
G1 X68.471 Y71.006 E0.73453
G1 X68.914 Y71 E0.76548
G1 X91.874 Y71.001 E2.36915
G1 X92.572 Y71.011 E2.4179
G1 X93.267 Y71.055 E2.46654
G1 X93.415 Y71.07 E2.47694
G1 X95.722 Y71.333 E2.63911
G1 X98.348 Y71.557 E2.8232
G1 X101.02 Y71.708 E3.01012
G1 X103.63 Y71.783 E3.1925
G1 X106.274 Y71.783 E3.37717
G1 X108.947 Y71.708 E3.56394
G1 X111.593 Y71.558 E3.74905
G1 X114.23 Y71.335 E3.9339
G1 X116.062 Y71.134 E4.06262
G1 X116.711 Y71.057 E4.10827
G1 X117.244 Y71.016 E4.14561
G1 X117.933 Y71 E4.19375
G1 X140.872 Y71.001 E5.79595
G1 X141.572 Y71.011 E5.84485
G1 X142.286 Y71.061 E5.89484
G1 X142.989 Y71.19 E5.94476
G1 X143.674 Y71.397 E5.99474
G1 X144.546 Y71.791 E6.06158
G1 X144.903 Y71.996 E6.09033
G1 X145.445 Y72.329 E6.13476
G1 X145.876 Y72.604 E6.17047
G1 X146.567 Y73.061 E6.22834
G1 X147.026 Y73.38 E6.26738
G1 X147.511 Y73.73 E6.30915
G1 X148.196 Y74.245 E6.36901
G1 X148.377 Y74.386 E6.38504
G1 X148.823 Y74.747 E6.42511
G1 X148.985 Y74.884 E6.43993
G1 X149.902 Y75.678 E6.52465
G1 X150.059 Y75.818 E6.53935
G1 X150.552 Y76.274 E6.58625
G1 X151.045 Y76.757 E6.63446
G1 X151.187 Y76.903 E6.64868
G1 X152.167 Y77.938 E6.74824
G1 X152.477 Y78.285 E6.78074
G1 X152.936 Y78.825 E6.83024
G1 X153.284 Y79.253 E6.86877
G1 X153.587 Y79.644 E6.90332
G1 X153.938 Y80.115 E6.94435
G1 X154.056 Y80.279 E6.95846
G1 X154.588 Y81.042 E7.02343
G1 X154.947 Y81.583 E7.06878
G1 X155.063 Y81.766 E7.08391
G1 X155.573 Y82.602 E7.15231
G1 X155.704 Y82.827 E7.17049
G1 X156.049 Y83.448 E7.22011
G1 X156.364 Y84.046 E7.26732
G1 X156.502 Y84.325 E7.28906
G1 X157.191 Y85.812 E7.40353
G1 X157.339 Y86.159 E7.42988
G1 X157.77 Y87.254 E7.51207
G1 X157.844 Y87.45 E7.52671
G1 X158.092 Y88.146 E7.57831
G1 X158.261 Y88.659 E7.61604
G1 X158.316 Y88.841 E7.62932
G1 X158.74 Y90.299 E7.73537
G1 X158.817 Y90.589 E7.75633
G1 X159.054 Y91.574 E7.82709
G1 X159.19 Y92.211 E7.87259
G1 X159.367 Y93.144 E7.93892
G1 X159.473 Y93.783 E7.98416
G1 X159.518 Y94.086 E8.00555
G1 X159.641 Y94.977 E8.06838
G1 X159.71 Y95.586 E8.11118
G1 X159.729 Y95.796 E8.12591
G1 X159.861 Y97.552 E8.24891
G1 X159.877 Y97.887 E8.27233
G1 X159.906 Y99.17 E8.36197
G1 X159.908 Y99.358 E8.3751
G1 X159.904 Y99.956 E8.41687
G1 X159.88 Y100.801 E8.47591
G1 X159.872 Y100.979 E8.48836
G1 X159.808 Y102.077 E8.56518
G1 X159.767 Y102.587 E8.60092
G1 X159.751 Y102.753 E8.61257
G1 X159.601 Y104.109 E8.70785
G1 X159.535 Y104.587 E8.74156
G1 X159.274 Y106.183 E8.85451
G1 X159.211 Y106.514 E8.87805
G1 X158.812 Y108.343 E9.0088
G1 X158.721 Y108.72 E9.03589
G1 X158.473 Y109.666 E9.1042
G1 X158.342 Y110.127 E9.13767
G1 X158.131 Y110.832 E9.18907
G1 X157.865 Y111.682 E9.25128
G1 X157.689 Y112.207 E9.28995
G1 X157.437 Y112.924 E9.34304
G1 X157.07 Y113.929 E9.41777
G1 X156.997 Y114.118 E9.43192
G1 X156.666 Y114.94 E9.49381
G1 X155.898 Y116.732 E9.62999
G1 X155.687 Y117.198 E9.66572
G1 X154.947 Y118.729 E9.78449
G1 X154.542 Y119.529 E9.84712
G1 X154.475 Y119.656 E9.85714
G1 X153.811 Y120.878 E9.95428
G1 X153.559 Y121.327 E9.99025
G1 X153.193 Y121.961 E10.04138
G1 X152.519 Y123.073 E10.1322
G1 X152.323 Y123.385 E10.15794
G1 X151.852 Y124.12 E10.21891
G1 X151.762 Y124.256 E10.2303
G1 X151.08 Y125.261 E10.31513
G1 X150.595 Y125.951 E10.37404
G1 X150.498 Y126.086 E10.38565
G1 X149.922 Y126.862 E10.45315
G1 X149.296 Y127.668 E10.52443
G1 X148.698 Y128.413 E10.59116
G1 X148.166 Y129.047 E10.64897
G1 X147.945 Y129.302 E10.67253
G1 X147.333 Y129.984 E10.73654
G1 X146.928 Y130.42 E10.7781
G1 X146.51 Y130.856 E10.82029
G1 X145.924 Y131.443 E10.87822
G1 X145.534 Y131.819 E10.91606
G1 X144.821 Y132.481 E10.98402
G1 X144.616 Y132.663 E11.00316
G1 X143.745 Y133.405 E11.08308
G1 X143.53 Y133.581 E11.10249
G1 X142.741 Y134.196 E11.17236
G1 X142.503 Y134.372 E11.19304
G1 X141.576 Y135.028 E11.27236
G1 X141.314 Y135.204 E11.2944
G1 X140.476 Y135.737 E11.36377
G1 X140.18 Y135.914 E11.38786
G1 X139.274 Y136.424 E11.46047
G1 X138.966 Y136.587 E11.48481
G1 X137.997 Y137.065 E11.56028
G1 X137.689 Y137.207 E11.58397
G1 X137.083 Y137.467 E11.63003
G1 X136.498 Y137.694 E11.67386
G1 X135.805 Y137.941 E11.72524
G1 X135.266 Y138.114 E11.76478
G1 X135.102 Y138.163 E11.77674
G1 X134.529 Y138.325 E11.81833
G1 X133.937 Y138.467 E11.86085
G1 X132.901 Y138.678 E11.9347
G1 X132.453 Y138.753 E11.96642
G1 X131.511 Y138.876 E12.03278
G1 X131.04 Y138.92 E12.06582
G1 X130.059 Y138.975 E12.13444
G1 X129.49 Y138.989 E12.1742
G1 X128.753 Y138.977 E12.22568
G1 X128.18 Y138.943 E12.26577
G1 X127.647 Y138.9 E12.30312
G1 X126.999 Y138.82 E12.34873
G1 X125.861 Y138.635 E12.42926
G1 X125.642 Y138.596 E12.44479
G1 X125.006 Y138.468 E12.49011
G1 X123.924 Y138.229 E12.5675
G1 X121.337 Y137.733 E12.75148
G1 X118.723 Y137.309 E12.93645
G1 X116.105 Y136.959 E13.12093
G1 X113.47 Y136.683 E13.30599
G1 X110.848 Y136.483 E13.48965
G1 X108.183 Y136.355 E13.67601
G1 X105.538 Y136.303 E13.86079
G1 X102.898 Y136.326 E14.04519
G1 X100.217 Y136.426 E14.23258
G1 X97.615 Y136.595 E14.4147
G1 X94.957 Y136.844 E14.60116
G1 X92.355 Y137.164 E14.78427
G1 X89.712 Y137.563 E14.97097
G1 X87.129 Y138.029 E15.1543
G1 X85.487 Y138.363 E15.27133
G1 X84.497 Y138.573 E15.34202
G1 X83.868 Y138.694 E15.38676
G1 X83.316 Y138.784 E15.42582
G1 X82.646 Y138.871 E15.47301
G1 X82.115 Y138.923 E15.51028
G1 X81.515 Y138.964 E15.55228
G1 X81.031 Y138.982 E15.58611
G1 X80.48 Y138.99 E15.6246
G1 X79.778 Y138.977 E15.67364
G1 X79.119 Y138.941 E15.71974
G1 X78.473 Y138.883 E15.76504
G1 X77.864 Y138.807 E15.80791
G1 X77.347 Y138.73 E15.84442
G1 X76.463 Y138.562 E15.90726
G1 X75.953 Y138.448 E15.94377
G1 X75.09 Y138.221 E16.00609
G1 X74.558 Y138.061 E16.0449
G1 X74.356 Y137.996 E16.05972
G1 X73.744 Y137.786 E16.10491
G1 X73.15 Y137.562 E16.14925
G1 X72.954 Y137.484 E16.16398
G1 X72.311 Y137.213 E16.21272
G1 X71.763 Y136.96 E16.25488
G1 X71.009 Y136.589 E16.31357
G1 X70.715 Y136.435 E16.33675
G1 X69.925 Y135.994 E16.39995
G1 X69.598 Y135.798 E16.42658
G1 X68.378 Y135.018 E16.52772
G1 X68.139 Y134.858 E16.54781
G1 X67.574 Y134.46 E16.59608
G1 X67.361 Y134.303 E16.61456
G1 X66.645 Y133.753 E16.67762
G1 X66.397 Y133.552 E16.69992
G1 X65.284 Y132.605 E16.80199
G1 X65.096 Y132.44 E16.81946
G1 X64.328 Y131.733 E16.89237
G1 X64.149 Y131.561 E16.90971
G1 X63.327 Y130.743 E16.99071
G1 X63.169 Y130.581 E17.00651
G1 X62.418 Y129.779 E17.08325
G1 X62.275 Y129.62 E17.09819
G1 X61.55 Y128.792 E17.17506
G1 X61.429 Y128.649 E17.18814
G1 X60.943 Y128.06 E17.24148
G1 X60.819 Y127.906 E17.25529
G1 X59.945 Y126.776 E17.35507
G1 X59.519 Y126.207 E17.40472
G1 X59.418 Y126.068 E17.41672
G1 X59.02 Y125.504 E17.46493
G1 X58.475 Y124.71 E17.5322
G1 X58.026 Y124.037 E17.5887
G1 X57.936 Y123.898 E17.60027
G1 X57.594 Y123.354 E17.64515
G1 X57.089 Y122.527 E17.71283
G1 X56.625 Y121.745 E17.77634
G1 X56.349 Y121.256 E17.81556
G1 X55.832 Y120.308 E17.89098
G1 X55.333 Y119.353 E17.96624
G1 X55.252 Y119.193 E17.97877
G1 X54.721 Y118.1 E18.06364
G1 X54.308 Y117.211 E18.13211
G1 X54.234 Y117.046 E18.14474
G1 X53.912 Y116.298 E18.20162
G1 X53.844 Y116.135 E18.21396
G1 X53.09 Y114.242 E18.35628
G1 X52.99 Y113.972 E18.37639
G1 X52.363 Y112.161 E18.51025
G1 X52.259 Y111.837 E18.53401
G1 X51.786 Y110.24 E18.65035
G1 X51.663 Y109.787 E18.68313
G1 X51.284 Y108.26 E18.79303
G1 X51.174 Y107.772 E18.82797
G1 X51.145 Y107.637 E18.83761
G1 X50.871 Y106.268 E18.93513
G1 X50.749 Y105.581 E18.98386
G1 X50.603 Y104.651 E19.04961
G1 X50.486 Y103.807 E19.10913
G1 X50.467 Y103.66 E19.11948
G1 X50.354 Y102.671 E19.18901
G1 X50.272 Y101.81 E19.24942
G1 X50.209 Y101.003 E19.30596
G1 X50.151 Y100.024 E19.37445
G1 X50.112 Y99.015 E19.44498
G1 X50.093 Y98.183 E19.50311
G1 X50.091 Y97.548 E19.54746
G1 X50.109 Y96.231 E19.63946
G1 X50.119 Y95.957 E19.65861
G1 X50.19 Y94.561 E19.75624
G1 X50.209 Y94.296 E19.7748
G1 X50.353 Y92.741 E19.88387
G1 X50.382 Y92.488 E19.90166
G1 X50.518 Y91.465 E19.97374
G1 X50.609 Y90.891 E20.01433
G1 X50.766 Y90.022 E20.07601
G1 X50.8 Y89.849 E20.08833
G1 X50.931 Y89.227 E20.13272
G1 X50.975 Y89.036 E20.14641
G1 X51.17 Y88.233 E20.20413
G1 X51.347 Y87.579 E20.25145
G1 X51.387 Y87.439 E20.26162
G1 X51.577 Y86.812 E20.30738
G1 X51.766 Y86.233 E20.34992
G1 X51.878 Y85.917 E20.37334
G1 X52.176 Y85.144 E20.43121
G1 X52.268 Y84.918 E20.44825
G1 X52.707 Y83.897 E20.52587
G1 X52.971 Y83.334 E20.56931
G1 X53.362 Y82.582 E20.62851
G1 X54.046 Y81.411 E20.72323
G1 X54.367 Y80.9 E20.76538
G1 X54.626 Y80.517 E20.79767
G1 X54.997 Y79.995 E20.8424
G1 X55.173 Y79.759 E20.86296
G1 X55.493 Y79.35 E20.89924
G1 X55.597 Y79.221 E20.91081
G1 X56.059 Y78.661 E20.96152
G1 X56.387 Y78.283 E20.99647
G1 X56.745 Y77.895 E21.03335
G1 X56.854 Y77.781 E21.04436
G1 X57.265 Y77.361 E21.08541
G1 X57.476 Y77.155 E21.106
G1 X58.358 Y76.333 E21.19021
G1 X58.579 Y76.136 E21.21089
G1 X58.996 Y75.782 E21.2491
G1 X59.187 Y75.626 E21.26632
M204 S3000
M205 X10 Y10
G0 F3000 X59.532 Y76.067
M204 S1800
M205 X8 Y8
G1 F2400 X60.085 Y75.633 E21.31542
G1 X60.429 Y75.378 E21.34533
G1 X61.509 Y74.619 E21.43753
G1 X61.726 Y74.474 E21.45576
G1 X62.353 Y74.074 E21.50771
G1 X62.532 Y73.964 E21.52238
G1 X63.29 Y73.518 E21.58381
G1 X63.457 Y73.423 E21.59723
G1 X64.411 Y72.903 E21.67312
G1 X64.582 Y72.813 E21.68661
G1 X65.159 Y72.524 E21.73169
G1 X65.565 Y72.327 E21.76321
G1 X66.074 Y72.095 E21.80228
G1 X66.711 Y71.848 E21.85
G1 X67.373 Y71.678 E21.89774
G1 X68.306 Y71.572 E21.96332
G1 X68.919 Y71.56 E22.00615
G1 X91.782 Y71.56 E23.60304
G1 X92.564 Y71.571 E23.65767
G1 X93.216 Y71.613 E23.7033
G1 X93.352 Y71.627 E23.71285
G1 X95.646 Y71.889 E23.87412
G1 X98.306 Y72.115 E24.06058
G1 X100.972 Y72.266 E24.24709
G1 X103.649 Y72.343 E24.43414
G1 X106.29 Y72.343 E24.61861
G1 X108.959 Y72.268 E24.8051
G1 X111.634 Y72.117 E24.99224
G1 X114.298 Y71.891 E25.17898
G1 X116.107 Y71.693 E25.30608
G1 X116.778 Y71.613 E25.35328
G1 X117.52 Y71.567 E25.40521
G1 X117.939 Y71.56 E25.43448
G1 X140.864 Y71.561 E27.0357
G1 X141.564 Y71.571 E27.0846
G1 X142.246 Y71.62 E27.13236
G1 X142.917 Y71.749 E27.18008
G1 X143.568 Y71.956 E27.2278
G1 X144.277 Y72.283 E27.28233
G1 X144.61 Y72.473 E27.30911
G1 X145.146 Y72.802 E27.35304
G1 X145.568 Y73.071 E27.38799
G1 X146.259 Y73.528 E27.44586
G1 X146.704 Y73.838 E27.48374
G1 X147.174 Y74.178 E27.52425
G1 X147.859 Y74.693 E27.58411
G1 X148.024 Y74.822 E27.59874
G1 X148.47 Y75.183 E27.63882
G1 X148.619 Y75.307 E27.65236
G1 X149.536 Y76.101 E27.73708
G1 X149.678 Y76.229 E27.75043
G1 X150.171 Y76.685 E27.79734
G1 X150.651 Y77.155 E27.84426
G1 X150.781 Y77.288 E27.85725
G1 X151.761 Y78.323 E27.9568
G1 X152.051 Y78.648 E27.98723
G1 X152.51 Y79.188 E28.03673
G1 X152.848 Y79.604 E28.07417
G1 X153.138 Y79.978 E28.10722
G1 X153.489 Y80.449 E28.14825
G1 X153.597 Y80.599 E28.16116
G1 X154.129 Y81.362 E28.22613
G1 X154.479 Y81.891 E28.27043
G1 X154.585 Y82.058 E28.28425
G1 X155.095 Y82.894 E28.35265
G1 X155.214 Y83.099 E28.3692
G1 X155.559 Y83.72 E28.41882
G1 X155.868 Y84.306 E28.46509
G1 X155.994 Y84.561 E28.48496
G1 X156.683 Y86.048 E28.59943
G1 X156.818 Y86.364 E28.62343
G1 X157.249 Y87.459 E28.70562
G1 X157.316 Y87.638 E28.71897
G1 X157.564 Y88.334 E28.77058
G1 X157.728 Y88.831 E28.80713
G1 X157.779 Y88.997 E28.81926
G1 X158.203 Y90.455 E28.92532
G1 X158.273 Y90.72 E28.94446
G1 X158.51 Y91.705 E29.01522
G1 X158.641 Y92.325 E29.05949
G1 X158.816 Y93.248 E29.1251
G1 X158.919 Y93.866 E29.16886
G1 X158.963 Y94.162 E29.18976
G1 X159.086 Y95.053 E29.25259
G1 X159.153 Y95.646 E29.29427
G1 X159.171 Y95.838 E29.30774
G1 X159.303 Y97.594 E29.43073
G1 X159.318 Y97.9 E29.45213
G1 X159.347 Y99.183 E29.54177
G1 X159.348 Y99.354 E29.55371
G1 X159.344 Y99.952 E29.59548
G1 X159.32 Y100.784 E29.65362
G1 X159.313 Y100.947 E29.66501
G1 X159.249 Y102.045 E29.74184
G1 X159.195 Y102.691 E29.78711
G1 X159.045 Y104.047 E29.8824
G1 X158.982 Y104.497 E29.91414
G1 X158.721 Y106.093 E30.0271
G1 X158.664 Y106.395 E30.04856
G1 X158.265 Y108.224 E30.17931
G1 X158.179 Y108.578 E30.20476
G1 X157.894 Y109.659 E30.28284
G1 X157.805 Y109.967 E30.30524
G1 X157.596 Y110.665 E30.35613
G1 X157.289 Y111.644 E30.42779
G1 X157.16 Y112.022 E30.45569
G1 X156.911 Y112.732 E30.50824
G1 X156.544 Y113.737 E30.58297
G1 X156.478 Y113.91 E30.5959
G1 X156.203 Y114.595 E30.64746
G1 X155.383 Y116.511 E30.79302
G1 X155.12 Y117.087 E30.83725
G1 X154.403 Y118.566 E30.95205
G1 X154.044 Y119.273 E31.00744
G1 X153.323 Y120.604 E31.11316
G1 X153.074 Y121.047 E31.14866
G1 X152.714 Y121.671 E31.19898
G1 X152.044 Y122.775 E31.28918
G1 X151.851 Y123.083 E31.31456
G1 X151.38 Y123.818 E31.37554
G1 X151.298 Y123.942 E31.38592
G1 X150.622 Y124.939 E31.47005
G1 X150.137 Y125.629 E31.52896
G1 X150.048 Y125.752 E31.53957
G1 X149.39 Y126.636 E31.61654
G1 X148.804 Y127.387 E31.68307
G1 X148.268 Y128.054 E31.74284
G1 X147.742 Y128.682 E31.80005
G1 X147.527 Y128.929 E31.82293
G1 X146.923 Y129.604 E31.88619
G1 X146.524 Y130.033 E31.92711
G1 X146.02 Y130.557 E31.97789
G1 X145.534 Y131.041 E32.0258
G1 X145.153 Y131.409 E32.0628
G1 X144.44 Y132.071 E32.13076
G1 X144.253 Y132.237 E32.14822
G1 X143.382 Y132.979 E32.22814
G1 X143.185 Y133.139 E32.24587
G1 X142.396 Y133.754 E32.31574
G1 X142.179 Y133.915 E32.33461
G1 X141.252 Y134.571 E32.41393
G1 X141.013 Y134.732 E32.43406
G1 X140.175 Y135.265 E32.50343
G1 X139.906 Y135.426 E32.52532
G1 X139 Y135.936 E32.59794
G1 X138.719 Y136.084 E32.62012
G1 X137.75 Y136.562 E32.69559
G1 X137.469 Y136.692 E32.71722
G1 X136.863 Y136.952 E32.76327
G1 X136.31 Y137.166 E32.80469
G1 X135.617 Y137.413 E32.85608
G1 X135.1 Y137.579 E32.894
G1 X134.95 Y137.624 E32.90494
G1 X134.377 Y137.786 E32.94653
G1 X133.825 Y137.919 E32.98619
G1 X132.789 Y138.13 E33.06004
G1 X132.38 Y138.198 E33.089
G1 X131.438 Y138.321 E33.15535
G1 X131.009 Y138.361 E33.18544
G1 X130.028 Y138.416 E33.25407
G1 X129.494 Y138.429 E33.29138
G1 X128.783 Y138.417 E33.34105
G1 X128.225 Y138.385 E33.38009
G1 X127.692 Y138.342 E33.41743
G1 X127.089 Y138.267 E33.45988
G1 X125.951 Y138.082 E33.5404
G1 X125.751 Y138.046 E33.5546
G1 X125.127 Y137.921 E33.59905
G1 X124.041 Y137.681 E33.67673
G1 X121.463 Y137.187 E33.86007
G1 X118.778 Y136.751 E34.05007
G1 X116.172 Y136.403 E34.2337
G1 X113.534 Y136.127 E34.41896
G1 X110.85 Y135.921 E34.60698
G1 X108.22 Y135.796 E34.79088
G1 X105.544 Y135.743 E34.97783
G1 X102.873 Y135.766 E35.16439
G1 X100.229 Y135.865 E35.3492
G1 X97.563 Y136.038 E35.5358
G1 X94.906 Y136.287 E35.72219
G1 X92.237 Y136.615 E35.91002
G1 X89.638 Y137.008 E36.09361
G1 X87.011 Y137.482 E36.28006
G1 X85.426 Y137.804 E36.39303
G1 X84.381 Y138.026 E36.46764
G1 X83.775 Y138.141 E36.51073
G1 X83.238 Y138.229 E36.54873
G1 X82.582 Y138.315 E36.59495
G1 X82.061 Y138.366 E36.63151
G1 X81.491 Y138.405 E36.67142
G1 X81.023 Y138.422 E36.70413
G1 X80.472 Y138.43 E36.74261
G1 X79.793 Y138.417 E36.79005
G1 X79.164 Y138.383 E36.83405
G1 X78.531 Y138.326 E36.87844
G1 X77.934 Y138.252 E36.92046
G1 X77.171 Y138.131 E36.97441
G1 X76.573 Y138.013 E37.01699
