;FLAVOR:Marlin
;TIME:4717
;Filament used: 8.43061m
;Layer height: 0.3
;MINX:74.593
;MINY:71
;MINZ:0.3
;MAXX:135.404
;MAXY:138.987
;MAXZ:50.1
;Generated with Cura_SteamEngine 4.11.0
M140 S60
M105
M190 S60
M104 S200
M105
M109 S200
M82 ;absolute extrusion mode
G21 ;metric values
G90 ;absolute positioning
M82 ;set extruder to absolute mode
M107 ;start with the fan off
G28 X0 Y0 ;move X/Y to min endstops
G28 Z0 ;move Z to min endstops
G1 Z15.0 F100 ;move the platform down 15mm
G92 E0 ;zero the extruded length
G1 F200 E3 ;extrude 3mm of feed stock
G92 E0 ;zero the extruded length again
G1 F100
G0 Y20 F100
M117 Printing...
G5
G92 E0
G92 E0
G1 F2400 E-6
;LAYER_COUNT:167
;LAYER:0
M107
M204 S3000
M205 X10 Y10
G1 F600 Z0.375
G0 F3000 X81.4 Y77.727 Z0.375
M204 S1800
M205 X8 Y8
;TYPE:SKIRT
G1 F600 Z0.3
G1 F2400 E0
G1 X81.771 Y77.348 E0.03704
G1 X82.175 Y76.955 E0.07641
G1 X82.284 Y76.852 E0.08688
G1 X82.825 Y76.355 E0.1382
G1 X83.206 Y76.024 E0.17345
G1 X83.897 Y75.453 E0.23606
G1 X84.14 Y75.263 E0.2576
G1 X84.849 Y74.732 E0.31947
G1 X85.165 Y74.507 E0.34657
G1 X85.861 Y74.033 E0.40538
G1 X86.255 Y73.779 E0.43813
G1 X87.001 Y73.322 E0.49923
G1 X87.257 Y73.173 E0.51992
G1 X88.454 Y72.514 E0.61536
G1 X88.681 Y72.395 E0.63326
G1 X89.78 Y71.846 E0.71907
G1 X90.328 Y71.591 E0.76128
G1 X90.994 Y71.33 E0.81124
G1 X91.686 Y71.146 E0.86126
G1 X92.712 Y71.018 E0.93348
G1 X93.471 Y71 E0.9865
G1 X116.281 Y71 E2.5797
G1 X117.085 Y71.012 E2.63586
G1 X117.798 Y71.063 E2.68579
G1 X118.502 Y71.193 E2.73579
G1 X119.186 Y71.401 E2.78573
G1 X119.843 Y71.685 E2.83572
G1 X120.387 Y71.984 E2.87908
G1 X120.66 Y72.15 E2.90139
G1 X121.71 Y72.824 E2.98854
G1 X121.903 Y72.953 E3.00475
G1 X122.884 Y73.634 E3.08817
G1 X123.092 Y73.785 E3.10612
G1 X123.738 Y74.275 E3.16275
G1 X124.143 Y74.596 E3.19885
G1 X124.569 Y74.95 E3.23753
G1 X125.569 Y75.821 E3.33016
G1 X125.775 Y76.008 E3.34959
G1 X126.159 Y76.373 E3.3866
G1 X126.321 Y76.533 E3.4025
G1 X127.055 Y77.282 E3.47575
G1 X127.226 Y77.463 E3.49314
G1 X127.883 Y78.188 E3.56148
G1 X128.043 Y78.372 E3.57851
G1 X128.539 Y78.963 E3.6324
G1 X128.702 Y79.165 E3.65053
G1 X129.282 Y79.916 E3.7168
G1 X129.443 Y80.133 E3.73568
G1 X130.003 Y80.925 E3.80343
G1 X130.14 Y81.127 E3.82047
G1 X130.581 Y81.804 E3.87691
G1 X130.717 Y82.022 E3.89485
G1 X131.166 Y82.776 E3.95615
G1 X131.288 Y82.991 E3.97341
G1 X131.754 Y83.847 E4.04149
G1 X131.866 Y84.063 E4.05848
G1 X132.176 Y84.688 E4.10721
G1 X132.286 Y84.921 E4.12521
G1 X132.739 Y85.935 E4.20278
G1 X132.828 Y86.143 E4.21858
G1 X133.148 Y86.933 E4.27811
G1 X133.229 Y87.145 E4.29396
G1 X133.491 Y87.864 E4.34741
G1 X133.565 Y88.077 E4.36316
G1 X133.877 Y89.037 E4.43367
G1 X133.939 Y89.242 E4.44863
G1 X134.159 Y90.005 E4.50409
G1 X134.217 Y90.218 E4.51951
G1 X134.455 Y91.165 E4.58771
G1 X134.501 Y91.362 E4.60184
G1 X134.69 Y92.229 E4.66382
G1 X134.732 Y92.439 E4.67878
G1 X134.911 Y93.416 E4.74815
G1 X134.945 Y93.616 E4.76232
G1 X135.067 Y94.426 E4.81954
G1 X135.093 Y94.623 E4.83342
G1 X135.203 Y95.548 E4.89848
G1 X135.224 Y95.751 E4.91273
G1 X135.306 Y96.696 E4.97899
G1 X135.32 Y96.889 E4.9925
G1 X135.373 Y97.829 E5.05826
G1 X135.381 Y98.032 E5.07245
G1 X135.402 Y98.889 E5.13233
G1 X135.404 Y99.083 E5.14588
G1 X135.398 Y100.117 E5.2181
G1 X135.393 Y100.336 E5.2334
G1 X135.354 Y101.311 E5.30156
G1 X135.342 Y101.515 E5.31583
G1 X135.269 Y102.527 E5.3867
G1 X135.251 Y102.735 E5.40128
G1 X135.152 Y103.679 E5.46758
G1 X135.127 Y103.885 E5.48207
G1 X134.981 Y104.944 E5.55674
G1 X134.95 Y105.143 E5.5708
G1 X134.778 Y106.154 E5.64243
G1 X134.739 Y106.362 E5.65722
G1 X134.512 Y107.473 E5.73642
G1 X134.472 Y107.659 E5.74971
G1 X134.241 Y108.64 E5.8201
G1 X134.191 Y108.837 E5.8343
G1 X133.886 Y109.97 E5.91625
G1 X133.833 Y110.155 E5.92969
G1 X133.489 Y111.295 E6.01286
G1 X133.43 Y111.48 E6.02642
G1 X133.067 Y112.563 E6.1062
G1 X133.005 Y112.739 E6.11924
G1 X132.545 Y113.989 E6.21227
G1 X132.478 Y114.164 E6.22536
G1 X132.025 Y115.292 E6.31026
G1 X131.954 Y115.462 E6.32313
G1 X131.407 Y116.718 E6.41881
G1 X131.335 Y116.878 E6.43107
G1 X130.77 Y118.084 E6.52409
G1 X130.689 Y118.251 E6.53705
G1 X130.099 Y119.421 E6.62857
G1 X130.017 Y119.578 E6.64095
G1 X129.361 Y120.794 E6.73745
G1 X129.267 Y120.96 E6.75077
G1 X128.546 Y122.206 E6.85132
G1 X128.45 Y122.368 E6.86448
G1 X127.704 Y123.574 E6.96352
G1 X127.595 Y123.744 E6.97763
G1 X126.808 Y124.931 E7.0771
G1 X126.684 Y125.11 E7.09231
G1 X125.806 Y126.341 E7.19792
G1 X125.673 Y126.521 E7.21355
G1 X124.825 Y127.626 E7.31084
G1 X124.675 Y127.815 E7.3277
G1 X123.738 Y128.945 E7.43023
G1 X123.567 Y129.142 E7.44845
G1 X122.438 Y130.396 E7.5663
G1 X122.287 Y130.559 E7.58182
G1 X121.758 Y131.107 E7.63502
G1 X121.158 Y131.695 E7.6937
G1 X120.722 Y132.108 E7.73564
G1 X120.079 Y132.69 E7.79622
G1 X119.934 Y132.817 E7.80968
G1 X119.26 Y133.389 E7.87143
G1 X118.843 Y133.726 E7.90888
G1 X118.7 Y133.838 E7.92156
G1 X118.035 Y134.345 E7.97997
G1 X117.887 Y134.454 E7.99281
G1 X117.334 Y134.851 E8.04036
G1 X116.843 Y135.184 E8.08179
G1 X116.68 Y135.289 E8.09534
G1 X115.785 Y135.849 E8.16908
G1 X115.175 Y136.206 E8.21844
G1 X114.675 Y136.481 E8.2583
G1 X114.202 Y136.723 E8.29541
G1 X113.578 Y137.028 E8.34392
G1 X113.242 Y137.18 E8.36968
G1 X112.738 Y137.396 E8.40798
G1 X112.57 Y137.465 E8.42067
G1 X111.958 Y137.707 E8.46663
G1 X111.632 Y137.825 E8.49085
G1 X111.087 Y138.007 E8.53098
G1 X110.91 Y138.064 E8.54397
G1 X110.274 Y138.256 E8.59037
G1 X109.606 Y138.431 E8.6386
G1 X109.364 Y138.487 E8.65595
G1 X108.813 Y138.603 E8.69528
G1 X108.572 Y138.649 E8.71242
G1 X107.775 Y138.785 E8.76889
G1 X107.015 Y138.885 E8.82243
G1 X106.192 Y138.95 E8.88009
G1 X105.055 Y138.987 E8.95955
G1 X104.53 Y138.986 E8.99622
G1 X104.257 Y138.977 E9.0153
G1 X103.663 Y138.944 E9.05685
G1 X103.39 Y138.923 E9.07597
G1 X102.792 Y138.864 E9.11795
G1 X102.495 Y138.828 E9.13884
G1 X101.961 Y138.75 E9.17654
G1 X101.464 Y138.663 E9.21178
G1 X101.17 Y138.602 E9.23275
G1 X100.219 Y138.381 E9.30094
G1 X99.538 Y138.202 E9.35012
G1 X99.205 Y138.103 E9.37439
G1 X98.601 Y137.905 E9.41879
G1 X98.427 Y137.845 E9.43164
G1 X97.877 Y137.647 E9.47247
G1 X97.407 Y137.462 E9.50775
G1 X96.93 Y137.257 E9.54401
G1 X96.41 Y137.02 E9.58393
G1 X96.191 Y136.915 E9.60089
G1 X95.353 Y136.494 E9.66639
G1 X95.117 Y136.369 E9.68505
G1 X94.381 Y135.96 E9.74386
G1 X93.768 Y135.595 E9.79369
G1 X93.248 Y135.265 E9.8367
G1 X93.065 Y135.143 E9.85207
G1 X92.287 Y134.607 E9.91805
G1 X91.757 Y134.222 E9.96381
G1 X91.598 Y134.102 E9.97772
G1 X90.901 Y133.557 E10.03952
G1 X90.751 Y133.436 E10.05298
G1 X90.169 Y132.952 E10.10585
G1 X89.714 Y132.556 E10.14798
G1 X89.598 Y132.452 E10.15886
G1 X88.835 Y131.749 E10.23133
G1 X88.452 Y131.379 E10.26852
G1 X88.223 Y131.151 E10.2911
G1 X87.588 Y130.504 E10.35441
G1 X87.207 Y130.095 E10.39346
G1 X86.017 Y128.744 E10.5192
G1 X85.848 Y128.544 E10.53749
G1 X84.907 Y127.383 E10.64188
G1 X84.759 Y127.193 E10.6587
G1 X83.946 Y126.109 E10.75334
G1 X83.805 Y125.914 E10.77015
G1 X82.934 Y124.657 E10.87696
G1 X82.816 Y124.48 E10.89182
G1 X82.039 Y123.275 E10.99196
G1 X81.926 Y123.094 E11.00687
G1 X81.215 Y121.906 E11.10357
G1 X81.116 Y121.734 E11.11743
G1 X80.433 Y120.508 E11.21546
G1 X80.337 Y120.328 E11.2297
G1 X79.714 Y119.121 E11.32458
G1 X79.631 Y118.956 E11.33748
G1 X79.053 Y117.752 E11.43076
G1 X78.971 Y117.573 E11.44451
G1 X78.423 Y116.335 E11.53907
G1 X78.349 Y116.16 E11.55235
G1 X77.863 Y114.968 E11.64226
G1 X77.792 Y114.787 E11.65584
G1 X77.347 Y113.593 E11.74484
G1 X77.283 Y113.413 E11.75818
G1 X76.907 Y112.304 E11.83997
G1 X76.853 Y112.138 E11.85216
G1 X76.5 Y110.995 E11.93572
G1 X76.446 Y110.81 E11.94918
G1 X76.127 Y109.655 E12.03287
G1 X76.083 Y109.486 E12.04507
G1 X75.835 Y108.482 E12.1173
G1 X75.795 Y108.31 E12.12964
G1 X75.54 Y107.14 E12.21327
G1 X75.505 Y106.969 E12.22547
G1 X75.315 Y105.967 E12.2967
G1 X75.285 Y105.798 E12.30869
G1 X75.126 Y104.816 E12.37817
G1 X74.982 Y103.762 E12.45247
G1 X74.958 Y103.564 E12.4664
G1 X74.781 Y101.843 E12.58724
G1 X74.748 Y101.459 E12.61416
G1 X74.674 Y100.423 E12.68671
G1 X74.663 Y100.231 E12.70014
G1 X74.622 Y99.209 E12.77158
G1 X74.595 Y98.155 E12.84522
G1 X74.593 Y97.962 E12.8587
G1 X74.597 Y97.208 E12.91137
G1 X74.623 Y95.912 E13.00191
G1 X74.634 Y95.651 E13.02015
G1 X74.678 Y94.787 E13.08058
G1 X74.693 Y94.57 E13.09577
G1 X74.813 Y93.162 E13.19447
G1 X74.83 Y92.991 E13.20647
G1 X74.931 Y92.091 E13.26973
G1 X75.008 Y91.53 E13.30928
G1 X75.165 Y90.578 E13.37667
G1 X75.205 Y90.359 E13.39222
G1 X75.405 Y89.363 E13.46318
G1 X75.456 Y89.134 E13.47956
G1 X75.702 Y88.106 E13.55339
G1 X75.755 Y87.898 E13.56839
G1 X75.901 Y87.367 E13.60685
G1 X75.981 Y87.1 E13.62632
G1 X76.247 Y86.275 E13.68686
G1 X76.338 Y86.011 E13.70637
G1 X76.628 Y85.23 E13.76456
G1 X76.739 Y84.951 E13.78553
G1 X77.051 Y84.218 E13.84117
G1 X77.22 Y83.847 E13.86965
G1 X77.48 Y83.309 E13.91138
G1 X77.731 Y82.821 E13.94971
G1 X77.803 Y82.685 E13.96046
G1 X78.104 Y82.139 E14.00401
G1 X78.382 Y81.667 E14.04227
G1 X78.673 Y81.198 E14.08082
G1 X78.982 Y80.725 E14.12028
G1 X79.087 Y80.571 E14.1333
G1 X79.387 Y80.145 E14.16969
G1 X79.77 Y79.631 E14.21446
G1 X80.1 Y79.211 E14.25177
G1 X80.476 Y78.755 E14.29305
G1 X80.587 Y78.625 E14.30499
G1 X80.949 Y78.213 E14.3433
G1 X81.4 Y77.727 E14.38961
M204 S3000
M205 X10 Y10
G0 F3000 X81.8 Y78.119
M204 S1800
M205 X8 Y8
G1 F2400 X82.293 Y77.618 E14.4387
G1 X82.663 Y77.264 E14.47447
G1 X83.204 Y76.767 E14.52578
G1 X83.563 Y76.455 E14.559
G1 X84.244 Y75.892 E14.62072
G1 X84.476 Y75.712 E14.64123
G1 X85.185 Y75.181 E14.7031
G1 X85.481 Y74.97 E14.72848
G1 X86.284 Y74.425 E14.79627
G1 X86.547 Y74.256 E14.8181
G1 X87.293 Y73.799 E14.87921
G1 X87.527 Y73.663 E14.89811
G1 X88.724 Y73.004 E14.99355
G1 X88.931 Y72.896 E15.00986
G1 X90.03 Y72.347 E15.09567
G1 X90.561 Y72.1 E15.13657
G1 X91.198 Y71.853 E15.18429
G1 X91.86 Y71.682 E15.23205
G1 X92.736 Y71.577 E15.29367
G1 X93.478 Y71.56 E15.34551
G1 X116.281 Y71.56 E16.93821
G1 X117.076 Y71.572 E16.99375
G1 X117.758 Y71.622 E17.04151
G1 X118.428 Y71.752 E17.08918
G1 X119.079 Y71.959 E17.13689
G1 X119.89 Y72.345 E17.19963
G1 X120.358 Y72.621 E17.23758
G1 X121.408 Y73.295 E17.32473
G1 X121.583 Y73.413 E17.33947
G1 X122.564 Y74.094 E17.42288
G1 X122.755 Y74.232 E17.43934
G1 X123.391 Y74.714 E17.49507
G1 X123.788 Y75.029 E17.53047
G1 X124.202 Y75.372 E17.56802
G1 X125.202 Y76.243 E17.66065
G1 X125.389 Y76.414 E17.67835
G1 X125.773 Y76.779 E17.71535
G1 X125.921 Y76.924 E17.72982
G1 X126.655 Y77.673 E17.80307
G1 X126.811 Y77.839 E17.81898
G1 X127.468 Y78.564 E17.88732
G1 X127.614 Y78.732 E17.90287
G1 X128.11 Y79.323 E17.95676
G1 X128.259 Y79.507 E17.97329
G1 X128.839 Y80.258 E18.03957
G1 X128.985 Y80.456 E18.05675
G1 X129.545 Y81.248 E18.1245
G1 X129.67 Y81.432 E18.14004
G1 X130.111 Y82.109 E18.19647
G1 X130.236 Y82.309 E18.21295
G1 X130.685 Y83.063 E18.27424
G1 X130.796 Y83.259 E18.28997
G1 X131.262 Y84.115 E18.35805
G1 X131.365 Y84.312 E18.37357
G1 X131.675 Y84.937 E18.4223
G1 X131.775 Y85.15 E18.43874
G1 X132.228 Y86.164 E18.51631
G1 X132.309 Y86.353 E18.53067
G1 X132.629 Y87.143 E18.5902
G1 X132.703 Y87.337 E18.60471
G1 X132.965 Y88.056 E18.65816
G1 X133.032 Y88.25 E18.67249
G1 X133.344 Y89.21 E18.743
G1 X133.401 Y89.397 E18.75665
G1 X133.621 Y90.16 E18.81211
G1 X133.674 Y90.355 E18.82623
G1 X133.912 Y91.302 E18.89443
G1 X133.954 Y91.481 E18.90727
G1 X134.143 Y92.348 E18.96925
G1 X134.181 Y92.54 E18.98292
G1 X134.36 Y93.517 E19.0523
G1 X134.391 Y93.699 E19.06519
G1 X134.513 Y94.509 E19.12241
G1 X134.537 Y94.689 E19.13509
G1 X134.647 Y95.614 E19.20015
G1 X134.666 Y95.799 E19.21314
G1 X134.748 Y96.744 E19.2794
G1 X134.761 Y96.92 E19.29172
G1 X134.814 Y97.86 E19.35748
G1 X134.821 Y98.046 E19.37048
G1 X134.842 Y98.903 E19.43036
G1 X134.844 Y99.08 E19.44272
G1 X134.838 Y100.114 E19.51494
G1 X134.833 Y100.313 E19.52885
G1 X134.794 Y101.288 E19.597
G1 X134.784 Y101.475 E19.61008
G1 X134.711 Y102.487 E19.68095
G1 X134.694 Y102.676 E19.6942
G1 X134.595 Y103.62 E19.7605
G1 X134.572 Y103.809 E19.7738
G1 X134.426 Y104.868 E19.84847
G1 X134.398 Y105.049 E19.86126
G1 X134.226 Y106.06 E19.93289
G1 X134.191 Y106.25 E19.94638
G1 X133.964 Y107.361 E20.02558
G1 X133.927 Y107.531 E20.03774
G1 X133.696 Y108.512 E20.10813
G1 X133.65 Y108.691 E20.12104
G1 X133.345 Y109.824 E20.20299
G1 X133.297 Y109.993 E20.21526
G1 X132.953 Y111.133 E20.29843
G1 X132.899 Y111.302 E20.31083
G1 X132.536 Y112.385 E20.3906
G1 X132.48 Y112.546 E20.40251
G1 X132.02 Y113.796 E20.49554
G1 X131.958 Y113.955 E20.50746
G1 X131.505 Y115.083 E20.59237
G1 X131.44 Y115.239 E20.60417
G1 X130.893 Y116.495 E20.69985
G1 X130.827 Y116.641 E20.71105
G1 X130.262 Y117.847 E20.80407
G1 X130.189 Y117.999 E20.81584
G1 X129.599 Y119.169 E20.90737
G1 X129.524 Y119.312 E20.91865
G1 X128.868 Y120.528 E21.01515
G1 X128.783 Y120.68 E21.02731
G1 X128.062 Y121.926 E21.12786
G1 X127.974 Y122.073 E21.13983
G1 X127.228 Y123.279 E21.23888
G1 X127.128 Y123.434 E21.25176
G1 X126.341 Y124.621 E21.35123
G1 X126.229 Y124.785 E21.36511
G1 X125.351 Y126.016 E21.47072
G1 X125.229 Y126.18 E21.48499
G1 X124.381 Y127.285 E21.58228
G1 X124.244 Y127.458 E21.59769
G1 X123.307 Y128.588 E21.70022
G1 X123.151 Y128.768 E21.71686
G1 X122.022 Y130.022 E21.83472
G1 X121.884 Y130.17 E21.84885
G1 X121.266 Y130.808 E21.91089
G1 X120.769 Y131.293 E21.95939
G1 X120.346 Y131.693 E22.00006
G1 X119.703 Y132.275 E22.06063
G1 X119.571 Y132.391 E22.07291
G1 X119.024 Y132.857 E22.1231
G1 X118.491 Y133.29 E22.17106
G1 X118.361 Y133.392 E22.1826
G1 X117.696 Y133.899 E22.24101
G1 X117.561 Y133.999 E22.25274
G1 X117.008 Y134.396 E22.30029
G1 X116.532 Y134.718 E22.34043
G1 X116.383 Y134.815 E22.35285
G1 X115.488 Y135.375 E22.42659
G1 X114.895 Y135.721 E22.47454
G1 X114.407 Y135.989 E22.51343
G1 X113.949 Y136.224 E22.54939
G1 X113.347 Y136.519 E22.59621
G1 X113.021 Y136.665 E22.62116
G1 X112.517 Y136.881 E22.65946
G1 X112.364 Y136.944 E22.67102
G1 X111.752 Y137.186 E22.71698
G1 X111.455 Y137.294 E22.73906
G1 X110.91 Y137.476 E22.77919
G1 X110.748 Y137.528 E22.79107
G1 X110.112 Y137.72 E22.83747
G1 X109.469 Y137.888 E22.88389
G1 X109.249 Y137.939 E22.89967
G1 X108.698 Y138.055 E22.939
G1 X108.477 Y138.097 E22.95471
G1 X107.68 Y138.233 E23.01118
G1 X106.964 Y138.328 E23.06163
G1 X106.174 Y138.39 E23.11698
G1 X105.037 Y138.427 E23.19643
G1 X104.537 Y138.427 E23.23136
G1 X104.288 Y138.418 E23.24876
G1 X103.694 Y138.385 E23.29031
G1 X103.445 Y138.366 E23.30775
G1 X102.847 Y138.307 E23.34973
G1 X102.576 Y138.274 E23.36879
G1 X102.042 Y138.196 E23.40649
G1 X101.297 Y138.056 E23.45943
G1 X100.346 Y137.835 E23.52763
G1 X99.684 Y137.661 E23.57544
G1 X99.38 Y137.57 E23.5976
G1 X98.617 Y137.318 E23.65372
G1 X98.067 Y137.12 E23.69455
G1 X97.295 Y136.806 E23.75276
G1 X96.642 Y136.51 E23.80284
G1 X96.442 Y136.414 E23.81834
G1 X95.604 Y135.993 E23.88384
G1 X95.389 Y135.88 E23.9008
G1 X94.653 Y135.471 E23.95961
G1 X94.057 Y135.115 E24.0081
G1 X93.55 Y134.793 E24.05005
G1 X93.383 Y134.682 E24.06406
G1 X92.605 Y134.146 E24.13005
G1 X92.088 Y133.771 E24.17466
G1 X91.943 Y133.661 E24.18737
G1 X91.246 Y133.116 E24.24917
G1 X91.109 Y133.005 E24.26148
G1 X90.527 Y132.521 E24.31435
G1 X90.084 Y132.135 E24.35539
G1 X89.978 Y132.04 E24.36534
G1 X89.215 Y131.337 E24.4378
G1 X88.846 Y130.981 E24.47361
G1 X88.623 Y130.759 E24.49559
G1 X87.892 Y130.012 E24.56859
G1 X87.628 Y129.725 E24.59583
G1 X86.438 Y128.374 E24.72158
G1 X86.283 Y128.191 E24.73833
G1 X85.342 Y127.03 E24.84271
G1 X85.207 Y126.857 E24.85804
G1 X84.394 Y125.773 E24.95268
G1 X84.266 Y125.595 E24.96799
G1 X83.395 Y124.338 E25.07481
G1 X83.287 Y124.177 E25.08835
G1 X82.51 Y122.972 E25.18849
G1 X82.407 Y122.806 E25.20214
G1 X81.696 Y121.618 E25.29884
G1 X81.605 Y121.461 E25.31152
G1 X80.922 Y120.235 E25.40954
G1 X80.835 Y120.072 E25.42244
G1 X80.212 Y118.865 E25.51732
G1 X80.136 Y118.713 E25.52919
G1 X79.558 Y117.509 E25.62247
G1 X79.483 Y117.346 E25.635
G1 X78.935 Y116.108 E25.72956
G1 X78.867 Y115.949 E25.74164
G1 X78.381 Y114.757 E25.83155
G1 X78.317 Y114.592 E25.84392
G1 X77.872 Y113.398 E25.93292
G1 X77.813 Y113.233 E25.94515
G1 X77.437 Y112.124 E26.02695
