;FLAVOR:Marlin
;TIME:1062
;Filament used: 0.782126m
;Layer height: 0.3
;MINX:93.27
;MINY:88.55
;MINZ:0.3
;MAXX:117.253
;MAXY:120.874
;MAXZ:45.9
;Generated with Cura_SteamEngine 4.11.0
M140 S60
M105
M190 S60
M104 S200
M105
M109 S200
M82 ;absolute extrusion mode
G21 ;metric values
G90 ;absolute positioning
M82 ;set extruder to absolute mode
M107 ;start with the fan off
G28 X0 Y0 ;move X/Y to min endstops
G28 Z0 ;move Z to min endstops
G1 Z15.0 F100 ;move the platform down 15mm
G92 E0 ;zero the extruded length
G1 F200 E3 ;extrude 3mm of feed stock
G92 E0 ;zero the extruded length again
G1 F100
G0 Y20 F100
M117 Printing...
G5
G92 E0
G92 E0
G1 F2400 E-6
;LAYER_COUNT:153
;LAYER:0
M107
M204 S3000
M205 X10 Y10
G1 F600 Z0.375
G0 F3000 X95.736 Y94.857 Z0.375
M204 S1800
M205 X8 Y8
;TYPE:SKIRT
G1 F600 Z0.3
G1 F2400 E0
G1 X96.19 Y94.423 E0.04387
G1 X98.098 Y92.628 E0.22684
G1 X99.693 Y91.046 E0.38375
G1 X99.851 Y90.885 E0.39951
G1 X100.479 Y90.326 E0.45823
G1 X100.918 Y90 E0.49642
G1 X101.27 Y89.757 E0.5263
G1 X101.883 Y89.387 E0.57631
G1 X102.533 Y89.088 E0.62628
G1 X103.152 Y88.88 E0.67189
G1 X103.477 Y88.789 E0.69546
G1 X104.298 Y88.616 E0.75407
G1 X104.333 Y88.611 E0.75654
G1 X105.046 Y88.55 E0.80652
G1 X105.761 Y88.568 E0.85647
G1 X106.469 Y88.667 E0.90641
G1 X107.162 Y88.843 E0.95635
G1 X107.855 Y89.106 E1.00812
G1 X108.326 Y89.317 E1.04417
G1 X108.961 Y89.646 E1.09412
G1 X109.556 Y90.043 E1.14408
G1 X110.102 Y90.504 E1.19399
G1 X110.705 Y91.158 E1.25612
G1 X110.929 Y91.437 E1.28111
G1 X112.679 Y93.554 E1.47296
G1 X113.592 Y94.626 E1.57131
G1 X113.967 Y95.102 E1.61363
G1 X114.288 Y95.561 E1.65276
G1 X114.596 Y96.045 E1.69283
G1 X114.901 Y96.579 E1.73578
G1 X115.076 Y96.923 E1.76274
G1 X115.316 Y97.452 E1.80331
G1 X115.506 Y97.928 E1.83911
G1 X115.704 Y98.502 E1.88152
G1 X115.887 Y99.195 E1.93158
G1 X116.025 Y99.904 E1.98203
G1 X116.107 Y100.557 E2.028
G1 X116.173 Y101.359 E2.0842
G1 X116.276 Y102.82 E2.1865
G1 X116.54 Y105.478 E2.37307
G1 X116.878 Y108.121 E2.55917
G1 X117.114 Y109.697 E2.67048
G1 X117.169 Y110.043 E2.69495
G1 X117.246 Y110.873 E2.75317
G1 X117.253 Y111.136 E2.77155
G1 X117.232 Y111.851 E2.82151
G1 X117.159 Y112.408 E2.86075
G1 X117.102 Y112.734 E2.88386
G1 X116.935 Y113.448 E2.93508
G1 X116.898 Y113.573 E2.94418
G1 X116.621 Y114.329 E3.00042
G1 X116.362 Y114.893 E3.04377
G1 X116.34 Y114.936 E3.04714
G1 X115.898 Y115.672 E3.10711
G1 X115.65 Y116.029 E3.13747
G1 X115.245 Y116.553 E3.18372
G1 X114.912 Y116.929 E3.21881
G1 X114.404 Y117.427 E3.26849
G1 X113.935 Y117.827 E3.31155
G1 X113.178 Y118.391 E3.37748
G1 X112.679 Y118.713 E3.41896
G1 X112.204 Y118.987 E3.45726
G1 X111.483 Y119.347 E3.51355
G1 X110.803 Y119.645 E3.56541
G1 X110.071 Y119.925 E3.62015
G1 X109.681 Y120.052 E3.64879
G1 X108.89 Y120.283 E3.70635
G1 X108.468 Y120.391 E3.73678
G1 X107.698 Y120.56 E3.79184
G1 X107.272 Y120.639 E3.8221
G1 X106.63 Y120.735 E3.86744
G1 X106.219 Y120.783 E3.89634
G1 X105.527 Y120.841 E3.94484
G1 X105.081 Y120.862 E3.97603
G1 X104.218 Y120.874 E4.03631
G1 X103.489 Y120.85 E4.08726
G1 X102.823 Y120.793 E4.13395
G1 X102.246 Y120.714 E4.17462
G1 X101.64 Y120.604 E4.21764
G1 X101.029 Y120.459 E4.2615
G1 X100.517 Y120.307 E4.29881
G1 X99.973 Y120.116 E4.33908
G1 X99.152 Y119.762 E4.40153
G1 X98.482 Y119.41 E4.45439
G1 X98.288 Y119.293 E4.47021
G1 X97.829 Y118.989 E4.50866
G1 X97.642 Y118.853 E4.52482
G1 X97.119 Y118.429 E4.57184
G1 X96.935 Y118.263 E4.58915
G1 X96.444 Y117.769 E4.6378
G1 X96.264 Y117.567 E4.6567
G1 X95.866 Y117.073 E4.70101
G1 X95.794 Y116.974 E4.70956
G1 X95.465 Y116.473 E4.75142
G1 X95.334 Y116.252 E4.76936
G1 X95.085 Y115.791 E4.80596
G1 X95.029 Y115.676 E4.81489
G1 X94.71 Y114.892 E4.87401
G1 X94.601 Y114.564 E4.89815
G1 X94.375 Y113.678 E4.96202
G1 X94.315 Y113.344 E4.98572
G1 X94.222 Y112.527 E5.04315
G1 X94.153 Y111.104 E5.14266
G1 X94.128 Y110.252 E5.2022
G1 X93.973 Y107.606 E5.38733
G1 X93.746 Y104.978 E5.57157
G1 X93.438 Y102.314 E5.75888
G1 X93.413 Y102.119 E5.77261
G1 X93.31 Y101.207 E5.83671
G1 X93.27 Y100.493 E5.88666
G1 X93.301 Y99.855 E5.93128
G1 X93.324 Y99.624 E5.94749
G1 X93.435 Y98.917 E5.99748
G1 X93.605 Y98.285 E6.04319
G1 X93.686 Y98.035 E6.06154
G1 X94.026 Y97.193 E6.12497
G1 X94.074 Y97.095 E6.13259
G1 X94.602 Y96.207 E6.20475
G1 X94.785 Y95.949 E6.22684
G1 X95.386 Y95.222 E6.29272
G1 X95.736 Y94.857 E6.32805
M204 S3000
M205 X10 Y10
G0 F3000 X96.14 Y95.245
M204 S1800
M205 X8 Y8
G1 F2400 X96.5 Y94.899 E6.36292
G1 X98.518 Y93 E6.55647
G1 X100.126 Y91.405 E6.71466
G1 X100.251 Y91.278 E6.72711
G1 X100.823 Y90.767 E6.78068
G1 X101.246 Y90.454 E6.81743
G1 X101.586 Y90.219 E6.8463
G1 X102.172 Y89.868 E6.89401
G1 X102.795 Y89.587 E6.94175
G1 X103.303 Y89.419 E6.97912
G1 X103.628 Y89.328 E7.00269
G1 X104.377 Y89.171 E7.05614
G1 X104.412 Y89.166 E7.05861
G1 X105.093 Y89.109 E7.10634
G1 X105.776 Y89.132 E7.15408
G1 X106.451 Y89.234 E7.20176
G1 X107.11 Y89.415 E7.24949
G1 X107.626 Y89.617 E7.2882
G1 X108.097 Y89.828 E7.32424
G1 X108.703 Y90.144 E7.37198
G1 X109.268 Y90.528 E7.41969
G1 X109.784 Y90.975 E7.46738
G1 X110.268 Y91.508 E7.51766
G1 X110.516 Y91.818 E7.54539
G1 X112.245 Y93.91 E7.73496
G1 X113.166 Y94.99 E7.83409
G1 X113.523 Y95.442 E7.87432
G1 X113.816 Y95.862 E7.91009
G1 X114.124 Y96.346 E7.95016
G1 X114.402 Y96.833 E7.98933
G1 X114.577 Y97.177 E8.01629
G1 X114.796 Y97.66 E8.05333
G1 X114.986 Y98.136 E8.08913
G1 X115.167 Y98.66 E8.12785
G1 X115.343 Y99.328 E8.1761
G1 X115.47 Y99.983 E8.2227
G1 X115.549 Y100.603 E8.26635
G1 X115.615 Y101.398 E8.32207
G1 X115.722 Y102.917 E8.42843
G1 X115.982 Y105.531 E8.61191
G1 X116.321 Y108.191 E8.79921
G1 X116.561 Y109.781 E8.91152
G1 X116.616 Y110.131 E8.93627
G1 X116.686 Y110.888 E8.98936
G1 X116.693 Y111.151 E9.00774
G1 X116.671 Y111.833 E9.0554
G1 X116.551 Y112.638 E9.11225
G1 X116.398 Y113.29 E9.15902
G1 X116.361 Y113.415 E9.16813
G1 X116.109 Y114.104 E9.21937
G1 X115.863 Y114.638 E9.26044
G1 X115.841 Y114.681 E9.26381
G1 X115.438 Y115.353 E9.31854
G1 X115.19 Y115.71 E9.3489
G1 X114.82 Y116.187 E9.39107
G1 X114.473 Y116.58 E9.42769
G1 X114.021 Y117.019 E9.4717
G1 X113.593 Y117.384 E9.51098
G1 X112.868 Y117.924 E9.57413
G1 X112.392 Y118.233 E9.61376
G1 X111.929 Y118.499 E9.65106
G1 X111.258 Y118.834 E9.70344
G1 X110.578 Y119.132 E9.7553
G1 X109.88 Y119.398 E9.80747
G1 X109.524 Y119.515 E9.83364
G1 X108.733 Y119.746 E9.8912
G1 X108.348 Y119.844 E9.91895
G1 X107.578 Y120.013 E9.97401
G1 X107.19 Y120.085 E10.00157
G1 X106.548 Y120.181 E10.04691
G1 X106.172 Y120.225 E10.07336
G1 X105.48 Y120.283 E10.12186
G1 X105.073 Y120.302 E10.15032
G1 X104.21 Y120.314 E10.2106
G1 X103.518 Y120.291 E10.25896
G1 X102.893 Y120.237 E10.30278
G1 X102.339 Y120.162 E10.34182
G1 X101.76 Y120.057 E10.38293
G1 X101.18 Y119.92 E10.42455
G1 X100.682 Y119.772 E10.46084
G1 X100.167 Y119.591 E10.49897
G1 X99.382 Y119.252 E10.55869
G1 X98.771 Y118.931 E10.6069
G1 X98.577 Y118.814 E10.62272
G1 X98.158 Y118.536 E10.65784
G1 X97.971 Y118.4 E10.67399
G1 X97.494 Y118.013 E10.71689
G1 X97.31 Y117.847 E10.7342
G1 X96.862 Y117.396 E10.7786
G1 X96.682 Y117.194 E10.7975
G1 X96.319 Y116.744 E10.83788
G1 X96.247 Y116.645 E10.84643
G1 X95.946 Y116.188 E10.88466
G1 X95.588 Y115.546 E10.936
G1 X95.532 Y115.431 E10.94493
G1 X95.241 Y114.716 E10.99885
G1 X95.132 Y114.388 E11.02299
G1 X94.926 Y113.579 E11.0813
G1 X94.866 Y113.245 E11.105
G1 X94.781 Y112.5 E11.15737
G1 X94.717 Y111.203 E11.24808
G1 X94.688 Y110.239 E11.31544
G1 X94.531 Y107.56 E11.50288
G1 X94.304 Y104.935 E11.68691
G1 X93.97 Y102.056 E11.88934
G1 X93.867 Y101.144 E11.95345
G1 X93.83 Y100.462 E12.00115
G1 X93.859 Y99.91 E12.03976
G1 X93.882 Y99.679 E12.05598
G1 X93.989 Y99.005 E12.10364
G1 X94.137 Y98.458 E12.14322
G1 X94.218 Y98.208 E12.16158
G1 X94.529 Y97.439 E12.21952
G1 X94.577 Y97.341 E12.22714
G1 X95.059 Y96.531 E12.29297
G1 X95.242 Y96.273 E12.31507
G1 X95.79 Y95.61 E12.37514
G1 X96.14 Y95.245 E12.41046
M204 S3000
M205 X10 Y10
G0 F3000 X96.544 Y95.633
M204 S1800
M205 X8 Y8
G1 F2400 X96.898 Y95.294 E12.4447
G1 X98.901 Y93.41 E12.63676
G1 X100.488 Y91.834 E12.79298
G1 X100.65 Y91.67 E12.80908
G1 X101.168 Y91.209 E12.85752
G1 X101.574 Y90.908 E12.89282
G1 X101.902 Y90.682 E12.92064
G1 X102.46 Y90.349 E12.96602
G1 X103.054 Y90.088 E13.01134
G1 X103.779 Y89.868 E13.06426
G1 X104.456 Y89.725 E13.11259
G1 X104.491 Y89.72 E13.11506
G1 X105.139 Y89.668 E13.16046
G1 X105.788 Y89.696 E13.20584
G1 X106.429 Y89.803 E13.25123
G1 X107.051 Y89.988 E13.29655
G1 X107.397 Y90.128 E13.32262
G1 X107.868 Y90.339 E13.35867
G1 X108.443 Y90.641 E13.40404
G1 X108.977 Y91.011 E13.44941
G1 X109.462 Y91.444 E13.49482
G1 X109.831 Y91.858 E13.53356
G1 X110.072 Y92.159 E13.56049
G1 X111.85 Y94.31 E13.75541
G1 X112.739 Y95.353 E13.85113
G1 X113.078 Y95.783 E13.88938
G1 X113.344 Y96.162 E13.92172
G1 X113.652 Y96.646 E13.96179
G1 X113.903 Y97.087 E13.99723
G1 X114.276 Y97.868 E14.05768
G1 X114.466 Y98.344 E14.09348
G1 X114.629 Y98.817 E14.12842
G1 X114.799 Y99.461 E14.17495
G1 X114.916 Y100.062 E14.21771
G1 X114.991 Y100.65 E14.25911
G1 X115.056 Y101.438 E14.31434
G1 X115.162 Y102.94 E14.41951
G1 X115.425 Y105.588 E14.60537
G1 X115.771 Y108.297 E14.79612
G1 X116.001 Y109.826 E14.90412
G1 X116.063 Y110.218 E14.93184
G1 X116.126 Y110.903 E14.97989
G1 X116.133 Y111.166 E14.99826
G1 X116.11 Y111.815 E15.04362
G1 X115.999 Y112.541 E15.09492
G1 X115.861 Y113.131 E15.13724
G1 X115.824 Y113.256 E15.14635
G1 X115.596 Y113.879 E15.19268
G1 X115.365 Y114.383 E15.23141
G1 X115.343 Y114.426 E15.23478
G1 X114.978 Y115.033 E15.28425
G1 X114.73 Y115.39 E15.31461
G1 X114.396 Y115.822 E15.35275
G1 X113.834 Y116.427 E15.41043
G1 X113.638 Y116.611 E15.42921
G1 X113.251 Y116.94 E15.46468
G1 X112.558 Y117.458 E15.52512
G1 X112.105 Y117.752 E15.56284
G1 X111.655 Y118.011 E15.5991
G1 X111.033 Y118.321 E15.64764
G1 X110.353 Y118.619 E15.6995
G1 X109.689 Y118.872 E15.74913
G1 X109.367 Y118.977 E15.77278
G1 X108.576 Y119.208 E15.83034
G1 X108.228 Y119.297 E15.85543
G1 X107.458 Y119.466 E15.91049
G1 X107.107 Y119.531 E15.93542
G1 X106.465 Y119.627 E15.98076
G1 X106.125 Y119.667 E16.00468
G1 X105.433 Y119.725 E16.05318
G1 X105.065 Y119.742 E16.07891
G1 X104.202 Y119.754 E16.13919
G1 X103.547 Y119.732 E16.18497
G1 X102.964 Y119.682 E16.22584
G1 X102.432 Y119.61 E16.26333
G1 X101.881 Y119.51 E16.30245
G1 X101.331 Y119.38 E16.34192
G1 X100.847 Y119.237 E16.37717
G1 X100.361 Y119.065 E16.41318
G1 X99.613 Y118.742 E16.47009
G1 X99.06 Y118.451 E16.51374
G1 X98.487 Y118.083 E16.5613
G1 X98.3 Y117.947 E16.57745
G1 X97.869 Y117.597 E16.61623
G1 X97.685 Y117.431 E16.63354
G1 X97.28 Y117.024 E16.67364
G1 X97.1 Y116.822 E16.69254
G1 X96.772 Y116.415 E16.72905
G1 X96.428 Y115.902 E16.77219
G1 X96.092 Y115.301 E16.82028
G1 X96.036 Y115.186 E16.82922
G1 X95.772 Y114.539 E16.87803
G1 X95.663 Y114.211 E16.90217
G1 X95.477 Y113.48 E16.95485
G1 X95.417 Y113.146 E16.97855
G1 X95.34 Y112.472 E17.02594
G1 X95.272 Y111.071 E17.12391
G1 X95.246 Y110.189 E17.18554
G1 X95.09 Y107.513 E17.37276
G1 X94.86 Y104.861 E17.55869
G1 X94.543 Y102.122 E17.75128
G1 X94.526 Y101.994 E17.7603
G1 X94.423 Y101.082 E17.8244
G1 X94.39 Y100.433 E17.86979
G1 X94.439 Y99.735 E17.91866
G1 X94.543 Y99.094 E17.96402
G1 X94.751 Y98.381 E18.0159
G1 X95.032 Y97.685 E18.06832
G1 X95.08 Y97.587 E18.07594
G1 X95.515 Y96.855 E18.13542
G1 X95.698 Y96.597 E18.15751
G1 X96.194 Y95.998 E18.21183
G1 X96.544 Y95.633 E18.24715
M204 S3000
M205 X10 Y10
G0 F3000 X104.527 Y96.494
M204 S1800
M205 X8 Y8
;TYPE:SUPPORT
G1 F1800 X104.699 Y96.084 E18.27821
G1 X104.699 Y95.501 E18.31893
G1 X105.054 Y95.252 E18.34921
G1 X105.217 Y95.224 E18.36076
G1 X105.528 Y95.37 E18.38476
G1 X105.651 Y95.65 E18.40612
G1 X105.436 Y96.4 E18.46062
G1 X104.527 Y96.494 E18.52445
M204 S3000
M205 X10 Y10
G1 F2400 E12.52445
G0 F3000 X101.41 Y97.864
G0 X100.567 Y98.317
G0 X99.792 Y98.891
G0 X99.251 Y99.546
G0 X99 Y100.647
G0 X99.252 Y101.514
G0 X101.36 Y105.167
M204 S1800
M205 X8 Y8
G1 F2400 E18.52445
G1 F1800 X101.456 Y105.336 E18.53802
G1 X101.731 Y106.021 E18.58958
G1 X101.797 Y106.485 E18.62231
G1 X101.737 Y106.908 E18.65215
G1 X101.54 Y107.39 E18.68852
G1 X101.246 Y107.871 E18.7279
G1 X100.982 Y108.238 E18.75947
G1 X100.852 Y107.751 E18.79468
G1 X100.857 Y107.2 E18.83317
G1 X100.918 Y106.642 E18.87237
G1 X100.948 Y106.063 E18.91287
G1 X100.918 Y105.556 E18.94834
G1 X100.893 Y105.34 E18.96353
G1 X101.36 Y105.167 E18.99831
M204 S3000
M205 X10 Y10
G1 F2400 E12.99831
;MESH:greenarmy1.stl
G0 F3000 X103.606 Y105.999
G0 X106.092 Y109.347
M204 S1800
M205 X8 Y8
;TYPE:WALL-INNER
G1 F2400 E18.99831
G1 F1800 X106.851 Y109.748 E19.05827
G1 X107.233 Y109.879 E19.08648
G1 X107.875 Y110.083 E19.13353
G1 X108.438 Y110.307 E19.17585
G1 X108.942 Y110.597 E19.21646
G1 X109.309 Y110.927 E19.25094
G1 X109.31 Y110.928 E19.25104
G1 X109.448 Y111.191 E19.27178
G1 X109.433 Y111.294 E19.27905
G1 X109.321 Y111.484 E19.29446
G1 X109.32 Y111.485 E19.29455
G1 X108.995 Y111.804 E19.32636
G1 X108.263 Y112.256 E19.38645
G1 X107.749 Y112.481 E19.42564
G1 X107.17 Y112.681 E19.46843
G1 X106.572 Y112.844 E19.51172
G1 X105.951 Y112.966 E19.55592
G1 X105.316 Y113.05 E19.60066
G1 X104.702 Y113.089 E19.64363
G1 X104.119 Y113.084 E19.68435
G1 X103.593 Y113.038 E19.72123
G1 X102.786 Y112.851 E19.77909
G1 X102.388 Y112.661 E19.8099
G1 X102.181 Y112.492 E19.82856
G1 X102.021 Y112.193 E19.85225
G1 X101.988 Y111.817 E19.87861
G1 X102.034 Y111.421 E19.90646
G1 X102.274 Y110.655 E19.96252
G1 X102.577 Y110.108 E20.0062
G1 X102.857 Y109.708 E20.0403
G1 X103.238 Y109.177 E20.08595
G1 X103.67 Y108.471 E20.14376
G1 X104.02 Y107.608 E20.20881
G1 X104.141 Y107.057 E20.24821
G1 X104.181 Y106.499 E20.28728
G1 X104.143 Y105.924 E20.32753
G1 X104.017 Y105.326 E20.37022
G1 X103.606 Y104.301 E20.44735
G1 X103.307 Y103.773 E20.48973
G1 X102.989 Y103.286 E20.53036
G1 X102.345 Y102.412 E20.60619
G1 X101.722 Y101.608 E20.67723
G1 X101.299 Y101.001 E20.7289
G1 X101.084 Y100.551 E20.76374
G1 X101.226 Y100.387 E20.77889
G1 X101.678 Y100.063 E20.81773
G1 X102.354 Y99.699 E20.87136
G1 X103.182 Y99.34 E20.93439
G1 X104.008 Y99.056 E20.9954
G1 X104.846 Y98.854 E21.05561
G1 X105.587 Y98.777 E21.10764
G1 X106.222 Y98.826 E21.15213
G1 X106.768 Y98.993 E21.19201
G1 X107.236 Y99.273 E21.2301
G1 X107.652 Y99.677 E21.2706
G1 X108 Y100.188 E21.31379
G1 X108.231 Y100.724 E21.35455
G1 X108.338 Y101.229 E21.39061
G1 X108.332 Y101.617 E21.41771
G1 X108.245 Y101.928 E21.44027
G1 X108.058 Y102.262 E21.467
G1 X107.723 Y102.69 E21.50497
G1 X107.236 Y103.251 E21.55685
G1 X106.688 Y103.929 E21.61774
G1 X106.154 Y104.718 E21.68429
G1 X105.703 Y105.58 E21.75224
G1 X105.378 Y106.478 E21.81894
G1 X105.235 Y107.374 E21.88232
G1 X105.271 Y107.952 E21.92277
G1 X105.533 Y108.712 E21.97891
G1 X106.092 Y109.347 E22.038
M204 S3000
M205 X10 Y10
G0 F3000 X106.444 Y108.9
M204 S1800
M205 X8 Y8
G1 F1800 X107.074 Y109.232 E22.08774
G1 X107.409 Y109.347 E22.11248
G1 X108.054 Y109.552 E22.15975
G1 X108.681 Y109.801 E22.20687
G1 X109.272 Y110.141 E22.2545
G1 X109.739 Y110.561 E22.29837
G1 X109.933 Y110.857 E22.32309
G1 X110.019 Y111.148 E22.34428
G1 X109.973 Y111.482 E22.36783
G1 X109.767 Y111.832 E22.39619
G1 X109.353 Y112.237 E22.43665
G1 X108.965 Y112.508 E22.4697
G1 X108.504 Y112.762 E22.50647
G1 X107.958 Y113.001 E22.5481
G1 X107.337 Y113.216 E22.594
G1 X106.699 Y113.389 E22.64017
G1 X106.041 Y113.519 E22.68701
G1 X105.365 Y113.608 E22.73464
G1 X104.72 Y113.649 E22.77978
G1 X104.09 Y113.644 E22.82378
G1 X103.525 Y113.594 E22.8634
G1 X103.032 Y113.506 E22.89838
G1 X102.586 Y113.376 E22.93083
G1 X102.088 Y113.139 E22.96935
G1 X101.769 Y112.879 E22.99809
G1 X101.577 Y112.609 E23.02123
G1 X101.47 Y112.315 E23.04309
G1 X101.425 Y111.817 E23.07801
G1 X101.483 Y111.315 E23.11331
G1 X101.606 Y110.833 E23.14805
G1 X101.766 Y110.415 E23.17931
G1 X102.1 Y109.813 E23.2274
G1 X102.398 Y109.387 E23.26371
G1 X102.771 Y108.867 E23.30841
G1 X103.168 Y108.218 E23.36155
G1 X103.483 Y107.442 E23.42004
G1 X103.585 Y106.976 E23.45336
G1 X103.62 Y106.497 E23.48691
G1 X103.587 Y106.001 E23.52163
G1 X103.479 Y105.489 E23.55818
G1 X103.1 Y104.544 E23.62929
