;FLAVOR:Marlin
;TIME:1178
;Filament used: 1.25007m
;Layer height: 0.3
;MINX:84.189
;MINY:80.1
;MINZ:0.3
;MAXX:126.7
;MAXY:129.9
;MAXZ:36.3
;Generated with Cura_SteamEngine 4.11.0
M140 S60
M105
M190 S60
M104 S200
M105
M109 S200
M82 ;absolute extrusion mode
G21 ;metric values
G90 ;absolute positioning
M82 ;set extruder to absolute mode
M107 ;start with the fan off
G28 X0 Y0 ;move X/Y to min endstops
G28 Z0 ;move Z to min endstops
G1 Z15.0 F100 ;move the platform down 15mm
G92 E0 ;zero the extruded length
G1 F200 E3 ;extrude 3mm of feed stock
G92 E0 ;zero the extruded length again
G1 F100
G0 Y20 F100
M117 Printing...
G5
G92 E0
G92 E0
G1 F2400 E-6
;LAYER_COUNT:121
;LAYER:0
M107
M204 S3000
M205 X10 Y10
G1 F600 Z0.375
G0 F3000 X90.122 Y82.046 Z0.375
M204 S1800
M205 X8 Y8
;TYPE:SKIRT
G1 F600 Z0.3
G1 F2400 E0
G1 X90.649 Y81.562 E0.04998
G1 X91.226 Y81.14 E0.09991
G1 X91.847 Y80.785 E0.14987
G1 X92.504 Y80.501 E0.19986
G1 X93.188 Y80.292 E0.24982
G1 X93.891 Y80.161 E0.29976
G1 X94.53 Y80.112 E0.34453
G1 X95.03 Y80.1 E0.37946
G1 X119.593 Y80.1 E2.09509
G1 X120.383 Y80.111 E2.15028
G1 X121.096 Y80.161 E2.2002
G1 X121.8 Y80.29 E2.25019
G1 X122.484 Y80.498 E2.30013
G1 X123.141 Y80.78 E2.35006
G1 X123.763 Y81.134 E2.40005
G1 X124.341 Y81.555 E2.45
G1 X124.869 Y82.038 E2.49998
G1 X125.339 Y82.576 E2.54987
G1 X125.747 Y83.164 E2.59986
G1 X126.086 Y83.794 E2.64983
G1 X126.353 Y84.457 E2.69975
G1 X126.544 Y85.147 E2.74976
G1 X126.657 Y85.853 E2.7997
G1 X126.697 Y86.65 E2.85544
G1 X126.7 Y86.83 E2.86801
G1 X126.7 Y122.843 E5.38339
G1 X126.691 Y123.57 E5.43417
G1 X126.642 Y124.284 E5.48416
G1 X126.514 Y124.988 E5.53413
G1 X126.308 Y125.673 E5.58409
G1 X126.027 Y126.33 E5.634
G1 X125.674 Y126.953 E5.68402
G1 X125.254 Y127.532 E5.73398
G1 X124.772 Y128.06 E5.78391
G1 X124.235 Y128.532 E5.83385
G1 X123.647 Y128.94 E5.88384
G1 X123.018 Y129.281 E5.93381
G1 X122.355 Y129.549 E5.98376
G1 X121.666 Y129.741 E6.03372
G1 X120.96 Y129.856 E6.08368
G1 X120.149 Y129.897 E6.1404
G1 X119.97 Y129.9 E6.1529
G1 X95.313 Y129.899 E7.8751
G1 X94.632 Y129.889 E7.92267
G1 X93.919 Y129.839 E7.97259
G1 X93.215 Y129.709 E8.0226
G1 X92.531 Y129.502 E8.07251
G1 X91.874 Y129.219 E8.12248
G1 X91.252 Y128.865 E8.17247
G1 X90.543 Y128.334 E8.23433
G1 X90.521 Y128.315 E8.23637
G1 X90.006 Y127.818 E8.28635
G1 X89.551 Y127.266 E8.33632
G1 X89.159 Y126.668 E8.38626
G1 X88.837 Y126.029 E8.43624
G1 X88.589 Y125.358 E8.48621
G1 X88.469 Y124.917 E8.51813
G1 X88.325 Y124.296 E8.56265
G1 X87.689 Y121.709 E8.74873
G1 X86.987 Y119.168 E8.93285
G1 X86.212 Y116.641 E9.11747
G1 X85.322 Y114.008 E9.3116
G1 X85.077 Y113.042 E9.3812
G1 X84.832 Y111.616 E9.48226
G1 X84.72 Y110.947 E9.52964
G1 X84.534 Y109.989 E9.5978
G1 X84.295 Y108.683 E9.69054
G1 X84.191 Y107.625 E9.76479
G1 X84.189 Y107.489 E9.77429
G1 X84.241 Y106.572 E9.83844
G1 X84.333 Y105.865 E9.88824
G1 X84.513 Y104.615 E9.97645
G1 X84.651 Y103.4 E10.06186
G1 X84.901 Y101.447 E10.19938
G1 X84.98 Y100.941 E10.23515
G1 X85.539 Y97.001 E10.5131
G1 X85.598 Y96.511 E10.54757
G1 X85.723 Y95.807 E10.59751
G1 X85.82 Y95.445 E10.62369
G1 X86.145 Y94.364 E10.70253
G1 X86.194 Y94.21 E10.71382
G1 X86.934 Y91.625 E10.90163
G1 X87.586 Y89.082 E11.08499
G1 X88.167 Y86.519 E11.26855
G1 X88.274 Y85.987 E11.30645
G1 X88.453 Y85.158 E11.36569
G1 X88.643 Y84.469 E11.41561
G1 X88.909 Y83.804 E11.46563
G1 X89.247 Y83.174 E11.51557
G1 X89.653 Y82.585 E11.56554
G1 X90.122 Y82.046 E11.61544
M204 S3000
M205 X10 Y10
G0 F3000 X90.632 Y82.328
M204 S1800
M205 X8 Y8
G1 F2400 X91.148 Y81.88 E11.66317
G1 X91.713 Y81.496 E11.71088
G1 X92.319 Y81.181 E11.75859
G1 X92.957 Y80.938 E11.80627
G1 X93.62 Y80.771 E11.85403
G1 X94.545 Y80.671 E11.91901
G1 X95.03 Y80.66 E11.9529
G1 X119.593 Y80.66 E13.66853
G1 X120.375 Y80.671 E13.72315
G1 X121.056 Y80.72 E13.77084
G1 X121.727 Y80.849 E13.81857
G1 X122.378 Y81.056 E13.86628
G1 X123.001 Y81.337 E13.91402
G1 X123.587 Y81.689 E13.96176
G1 X124.127 Y82.107 E14.00946
G1 X124.615 Y82.585 E14.05717
G1 X125.044 Y83.117 E14.10491
G1 X125.408 Y83.695 E14.15262
G1 X125.702 Y84.312 E14.20035
G1 X125.921 Y84.959 E14.24806
G1 X126.064 Y85.627 E14.29578
G1 X126.129 Y86.346 E14.3462
G1 X126.14 Y86.83 E14.38002
G1 X126.14 Y122.836 E16.8949
G1 X126.131 Y123.563 E16.94568
G1 X126.082 Y124.245 E16.99344
G1 X125.954 Y124.916 E17.04115
G1 X125.749 Y125.568 E17.08889
G1 X125.469 Y126.191 E17.1366
G1 X125.119 Y126.777 E17.18427
G1 X124.702 Y127.319 E17.23204
G1 X124.225 Y127.808 E17.27975
G1 X123.694 Y128.237 E17.32743
G1 X123.116 Y128.602 E17.37518
G1 X122.5 Y128.897 E17.42288
G1 X121.853 Y129.118 E17.47064
G1 X121.185 Y129.262 E17.51837
G1 X120.455 Y129.329 E17.56957
G1 X119.97 Y129.34 E17.60345
G1 X95.321 Y129.339 E19.32509
G1 X94.64 Y129.329 E19.37266
G1 X93.959 Y129.279 E19.42036
G1 X93.288 Y129.15 E19.46808
G1 X92.637 Y128.943 E19.51579
G1 X92.014 Y128.662 E19.56353
G1 X91.429 Y128.31 E19.61122
G1 X90.909 Y127.91 E19.65704
G1 X90.887 Y127.891 E19.65907
G1 X90.397 Y127.415 E19.70678
G1 X89.966 Y126.885 E19.7545
G1 X89.599 Y126.308 E19.80226
G1 X89.303 Y125.692 E19.85
G1 X89.015 Y124.79 E19.91613
G1 X88.871 Y124.169 E19.96066
G1 X88.232 Y121.57 E20.14759
G1 X87.531 Y119.032 E20.3315
G1 X86.743 Y116.464 E20.51912
G1 X85.852 Y113.828 E20.71347
G1 X85.629 Y112.948 E20.77688
G1 X85.385 Y111.524 E20.87779
G1 X85.273 Y110.857 E20.92503
G1 X85.084 Y109.888 E20.99398
G1 X84.845 Y108.582 E21.08672
G1 X84.751 Y107.617 E21.15444
G1 X84.749 Y107.481 E21.16394
G1 X84.796 Y106.644 E21.22249
G1 X84.888 Y105.945 E21.27173
G1 X85.068 Y104.693 E21.36008
G1 X85.206 Y103.471 E21.44598
G1 X85.456 Y101.518 E21.5835
G1 X85.543 Y100.959 E21.62301
G1 X86.088 Y97.118 E21.89398
G1 X86.154 Y96.578 E21.93198
G1 X86.357 Y95.605 E22.0014
G1 X86.679 Y94.532 E22.07965
G1 X86.738 Y94.345 E22.09334
G1 X87.465 Y91.807 E22.27774
G1 X88.133 Y89.201 E22.46565
G1 X88.722 Y86.607 E22.65144
G1 X88.822 Y86.105 E22.68719
G1 X89.001 Y85.276 E22.74643
G1 X89.184 Y84.618 E22.79413
G1 X89.442 Y83.986 E22.84181
G1 X89.773 Y83.388 E22.88955
G1 X90.171 Y82.833 E22.93725
G1 X90.632 Y82.328 E22.98501
M204 S3000
M205 X10 Y10
G0 F3000 X91.139 Y82.619
M204 S1800
M205 X8 Y8
G1 F2400 X91.643 Y82.21 E23.03035
G1 X92.195 Y81.866 E23.07578
G1 X92.784 Y81.593 E23.12112
G1 X93.402 Y81.393 E23.16649
G1 X94.04 Y81.272 E23.21185
G1 X94.561 Y81.231 E23.24835
G1 X95.03 Y81.22 E23.28111
G1 X119.593 Y81.22 E24.99675
G1 X120.367 Y81.231 E25.05082
G1 X121.014 Y81.28 E25.09614
G1 X121.651 Y81.408 E25.14152
G1 X122.267 Y81.614 E25.18688
G1 X122.854 Y81.894 E25.23231
G1 X123.401 Y82.243 E25.27763
G1 X123.902 Y82.657 E25.32302
G1 X124.347 Y83.13 E25.36838
G1 X124.732 Y83.654 E25.4138
G1 X125.049 Y84.221 E25.45917
G1 X125.294 Y84.822 E25.5045
G1 X125.463 Y85.449 E25.54986
G1 X125.569 Y86.362 E25.61406
G1 X125.58 Y86.83 E25.64676
G1 X125.58 Y122.829 E28.16115
G1 X125.571 Y123.556 E28.21193
G1 X125.523 Y124.204 E28.25732
G1 X125.395 Y124.841 E28.3027
G1 X125.191 Y125.458 E28.34809
G1 X124.912 Y126.045 E28.39348
G1 X124.564 Y126.593 E28.43883
G1 X124.151 Y127.094 E28.48418
G1 X123.679 Y127.541 E28.52958
G1 X123.156 Y127.926 E28.57494
G1 X122.59 Y128.244 E28.62029
G1 X121.988 Y128.491 E28.66574
G1 X121.362 Y128.661 E28.71104
G1 X120.439 Y128.769 E28.77595
G1 X119.97 Y128.78 E28.80872
G1 X95.329 Y128.779 E30.5298
G1 X94.648 Y128.769 E30.57737
G1 X94.001 Y128.72 E30.62269
G1 X93.364 Y128.591 E30.66809
G1 X92.748 Y128.385 E30.71345
G1 X92.162 Y128.105 E30.75882
G1 X91.614 Y127.756 E30.80419
G1 X91.253 Y127.467 E30.83649
G1 X90.788 Y127.013 E30.88188
G1 X90.383 Y126.505 E30.92726
G1 X90.043 Y125.952 E30.9726
G1 X89.774 Y125.361 E31.01796
G1 X89.56 Y124.664 E31.06888
G1 X89.417 Y124.043 E31.11339
G1 X88.783 Y121.464 E31.29889
G1 X88.062 Y118.853 E31.48808
G1 X87.27 Y116.275 E31.67645
G1 X86.383 Y113.649 E31.87005
G1 X86.181 Y112.853 E31.92741
G1 X85.937 Y111.431 E32.02818
G1 X85.82 Y110.737 E32.07734
G1 X85.635 Y109.787 E32.14494
G1 X85.396 Y108.481 E32.23768
G1 X85.311 Y107.609 E32.29887
G1 X85.309 Y107.473 E32.30837
G1 X85.352 Y106.716 E32.36133
G1 X85.442 Y106.025 E32.41
G1 X85.622 Y104.774 E32.49828
G1 X85.762 Y103.543 E32.58481
G1 X86.012 Y101.59 E32.72234
G1 X86.092 Y101.076 E32.75867
G1 X86.64 Y97.213 E33.03119
G1 X86.709 Y96.646 E33.07108
G1 X86.893 Y95.766 E33.13388
G1 X87.213 Y94.701 E33.21155
G1 X87.269 Y94.524 E33.22451
G1 X88.014 Y91.923 E33.41349
G1 X88.673 Y89.354 E33.59873
G1 X89.268 Y86.73 E33.78666
G1 X89.369 Y86.224 E33.8227
G1 X89.548 Y85.395 E33.88194
G1 X89.724 Y84.769 E33.92736
G1 X89.975 Y84.17 E33.97272
G1 X90.298 Y83.607 E34.01806
G1 X90.688 Y83.087 E34.06346
G1 X91.139 Y82.619 E34.10885
M204 S3000
M205 X10 Y10
G0 F3000 X93.421 Y96.652
M204 S1800
M205 X8 Y8
;TYPE:SUPPORT
G1 F1800 X93.374 Y97.11 E34.14101
G1 X92.841 Y98.787 E34.26392
G1 X92.552 Y97.858 E34.33187
G1 X92.353 Y97.741 E34.348
G1 X92.302 Y97.38 E34.37346
G1 X93.421 Y96.652 E34.4667
M204 S3000
M205 X10 Y10
G0 F3000 X93.03 Y99.396
M204 S1800
M205 X8 Y8
G1 F1800 X93.122 Y99.545 E34.47893
G1 X93.72 Y99.641 E34.52124
G1 X93.72 Y108.679 E35.15251
G1 X92.708 Y108.745 E35.22334
G1 X92.304 Y109.246 E35.2683
G1 X92.672 Y111.69 E35.44092
G1 X91.885 Y111.69 E35.49589
G1 X92.059 Y111.5 E35.51389
G1 X92.146 Y110.939 E35.55354
G1 X91.516 Y109.583 E35.65797
G1 X91.461 Y109.198 E35.68514
G1 X90.906 Y107.611 E35.80257
G1 X91.107 Y107.538 E35.8175
G1 X91.437 Y107.068 E35.85761
G1 X91.441 Y106.176 E35.91992
G1 X91.647 Y106.089 E35.93554
G1 X91.961 Y105.615 E35.97525
G1 X91.961 Y103.342 E36.13401
G1 X91.67 Y102.867 E36.17292
G1 X91.449 Y102.755 E36.19022
G1 X91.491 Y102.457 E36.21124
G1 X91.578 Y102.242 E36.22744
G1 X91.89 Y101.886 E36.26051
G1 X93.179 Y101.101 E36.36592
G1 X93.388 Y100.549 E36.40715
G1 X93.03 Y99.396 E36.49147
M204 S3000
M205 X10 Y10
G1 F2400 E30.49147
;MESH:human1.stl
G0 F3000 X95.56 Y99.396
G0 X118.9 Y122.1
M204 S1800
M205 X8 Y8
;TYPE:WALL-INNER
G1 F2400 E36.49147
G1 F1800 X96.1 Y122.1 E38.08397
G1 X96.1 Y87.9 E40.47271
G1 X118.9 Y87.9 E42.0652
G1 X118.9 Y122.1 E44.45395
M204 S3000
M205 X10 Y10
G0 F3000 X119.46 Y122.66
M204 S1800
M205 X8 Y8
G1 F1800 X95.54 Y122.66 E46.12467
G1 X95.54 Y87.34 E48.59164
G1 X119.46 Y87.34 E50.26236
G1 X119.46 Y122.66 E52.72934
M204 S3000
M205 X10 Y10
G0 F3000 X120.02 Y123.22
M204 S1800
M205 X8 Y8
;TYPE:WALL-OUTER
G1 F1800 X94.98 Y123.22 E54.47829
G1 X94.98 Y86.78 E57.02348
G1 X120.02 Y86.78 E58.77244
G1 X120.02 Y123.22 E61.31763
M204 S3000
M205 X10 Y10
G0 F3000 X119.82 Y123.22
G0 X119.39 Y122.59
G0 X118.35 Y121.55
M204 S1800
M205 X8 Y8
;TYPE:SKIN
G1 F1800 X96.65 Y121.55 E62.8333
G1 X96.65 Y88.45 E65.14521
G1 X118.35 Y88.45 E66.66087
G1 X118.35 Y121.55 E68.97279
M204 S3000
M205 X10 Y10
G0 F3000 X97.53 Y121.289
M204 S1800
M205 X8 Y8
G1 F1800 X96.909 Y120.668 E69.03413
M204 S3000
M205 X10 Y10
G0 F3000 X96.909 Y119.876
M204 S1800
M205 X8 Y8
G1 F1800 X98.322 Y121.289 E69.1737
M204 S3000
M205 X10 Y10
G0 F3000 X99.114 Y121.289
M204 S1800
M205 X8 Y8
G1 F1800 X96.909 Y119.084 E69.39151
M204 S3000
M205 X10 Y10
G0 F3000 X96.909 Y118.292
M204 S1800
M205 X8 Y8
G1 F1800 X99.906 Y121.289 E69.68754
M204 S3000
M205 X10 Y10
G0 F3000 X100.698 Y121.289
M204 S1800
M205 X8 Y8
G1 F1800 X96.909 Y117.5 E70.06181
M204 S3000
M205 X10 Y10
G0 F3000 X96.909 Y116.708
M204 S1800
M205 X8 Y8
G1 F1800 X101.49 Y121.289 E70.51431
M204 S3000
M205 X10 Y10
G0 F3000 X102.282 Y121.289
M204 S1800
M205 X8 Y8
G1 F1800 X96.909 Y115.916 E71.04504
M204 S3000
M205 X10 Y10
G0 F3000 X96.909 Y115.124
M204 S1800
M205 X8 Y8
G1 F1800 X103.074 Y121.289 E71.65401
M204 S3000
M205 X10 Y10
G0 F3000 X103.866 Y121.289
M204 S1800
M205 X8 Y8
G1 F1800 X96.909 Y114.332 E72.3412
M204 S3000
M205 X10 Y10
G0 F3000 X96.909 Y113.54
M204 S1800
M205 X8 Y8
G1 F1800 X104.658 Y121.289 E73.10663
M204 S3000
M205 X10 Y10
G0 F3000 X105.45 Y121.289
M204 S1800
M205 X8 Y8
G1 F1800 X96.909 Y112.748 E73.95029
M204 S3000
M205 X10 Y10
G0 F3000 X96.909 Y111.956
M204 S1800
M205 X8 Y8
G1 F1800 X106.242 Y121.289 E74.87218
M204 S3000
M205 X10 Y10
G0 F3000 X107.034 Y121.289
M204 S1800
M205 X8 Y8
G1 F1800 X96.909 Y111.164 E75.8723
M204 S3000
M205 X10 Y10
G0 F3000 X96.909 Y110.373
M204 S1800
M205 X8 Y8
G1 F1800 X107.826 Y121.289 E76.95061
M204 S3000
M205 X10 Y10
G0 F3000 X108.617 Y121.289
M204 S1800
M205 X8 Y8
G1 F1800 X96.909 Y109.581 E78.10709
M204 S3000
M205 X10 Y10
G0 F3000 X96.909 Y108.789
M204 S1800
M205 X8 Y8
G1 F1800 X109.409 Y121.289 E79.34181
M204 S3000
M205 X10 Y10
G0 F3000 X110.201 Y121.289
M204 S1800
M205 X8 Y8
G1 F1800 X96.909 Y107.997 E80.65476
M204 S3000
M205 X10 Y10
G0 F3000 X96.909 Y107.205
M204 S1800
M205 X8 Y8
G1 F1800 X110.993 Y121.289 E82.04595
M204 S3000
M205 X10 Y10
G0 F3000 X111.785 Y121.289
M204 S1800
M205 X8 Y8
G1 F1800 X96.909 Y106.413 E83.51536
M204 S3000
M205 X10 Y10
G0 F3000 X96.909 Y105.621
M204 S1800
M205 X8 Y8
G1 F1800 X112.577 Y121.289 E85.06301
M204 S3000
M205 X10 Y10
G0 F3000 X113.369 Y121.289
M204 S1800
M205 X8 Y8
G1 F1800 X96.909 Y104.829 E86.68889
M204 S3000
M205 X10 Y10
G0 F3000 X96.909 Y104.037
M204 S1800
M205 X8 Y8
G1 F1800 X114.161 Y121.289 E88.393
M204 S3000
M205 X10 Y10
G0 F3000 X114.953 Y121.289
M204 S1800
M205 X8 Y8
G1 F1800 X96.909 Y103.245 E90.17534
M204 S3000
M205 X10 Y10
G0 F3000 X96.909 Y102.453
M204 S1800
M205 X8 Y8
G1 F1800 X115.745 Y121.289 E92.03592
M204 S3000
M205 X10 Y10
G0 F3000 X116.537 Y121.289
M204 S1800
M205 X8 Y8
G1 F1800 X96.909 Y101.661 E93.97472
M204 S3000
M205 X10 Y10
G0 F3000 X96.909 Y100.869
M204 S1800
M205 X8 Y8
G1 F1800 X117.329 Y121.289 E95.99176
M204 S3000
M205 X10 Y10
G0 F3000 X118.09 Y121.258
M204 S1800
M205 X8 Y8
G1 F1800 X96.909 Y100.077 E98.08397
M204 S3000
M205 X10 Y10
G0 F3000 X96.909 Y99.285
M204 S1800
M205 X8 Y8
G1 F1800 X118.09 Y120.466 E100.17617
M204 S3000
M205 X10 Y10
G0 F3000 X118.09 Y119.674
M204 S1800
M205 X8 Y8
G1 F1800 X96.909 Y98.493 E102.26838
M204 S3000
M205 X10 Y10
G0 F3000 X96.909 Y97.701
M204 S1800
M205 X8 Y8
G1 F1800 X118.09 Y118.882 E104.36059
M204 S3000
M205 X10 Y10
G0 F3000 X118.09 Y118.09
M204 S1800
M205 X8 Y8
G1 F1800 X96.909 Y96.909 E106.4528
M204 S3000
M205 X10 Y10
G0 F3000 X96.909 Y96.117
M204 S1800
M205 X8 Y8
G1 F1800 X118.09 Y117.298 E108.545
M204 S3000
M205 X10 Y10
G0 F3000 X118.09 Y116.506
M204 S1800
M205 X8 Y8
G1 F1800 X96.909 Y95.325 E110.63721
M204 S3000
M205 X10 Y10
G0 F3000 X96.909 Y94.533
M204 S1800
M205 X8 Y8
G1 F1800 X118.09 Y115.714 E112.72942
M204 S3000
M205 X10 Y10
G0 F3000 X118.09 Y114.922
M204 S1800
M205 X8 Y8
G1 F1800 X96.909 Y93.741 E114.82163
M204 S3000
M205 X10 Y10
G0 F3000 X96.909 Y92.949
M204 S1800
M205 X8 Y8
G1 F1800 X118.09 Y114.13 E116.91383
M204 S3000
M205 X10 Y10
G0 F3000 X118.09 Y113.338
M204 S1800
M205 X8 Y8
G1 F1800 X96.909 Y92.157 E119.00604
M204 S3000
M205 X10 Y10
G0 F3000 X96.909 Y91.365
M204 S1800
M205 X8 Y8
G1 F1800 X118.09 Y112.546 E121.09825
M204 S3000
M205 X10 Y10
G0 F3000 X118.09 Y111.754
M204 S1800
M205 X8 Y8
G1 F1800 X96.909 Y90.574 E123.19041
M204 S3000
M205 X10 Y10
G0 F3000 X96.909 Y89.782
M204 S1800
M205 X8 Y8
G1 F1800 X118.09 Y110.962 E125.28257
M204 S3000
M205 X10 Y10
G0 F3000 X118.09 Y110.17
M204 S1800
M205 X8 Y8
G1 F1800 X96.909 Y88.99 E127.37472
M204 S3000
M205 X10 Y10
G0 F3000 X97.421 Y88.71
M204 S1800
M205 X8 Y8
G1 F1800 X118.09 Y109.378 E129.41631
M204 S3000
M205 X10 Y10
G0 F3000 X118.09 Y108.586
M204 S1800
M205 X8 Y8
G1 F1800 X98.213 Y88.71 E131.37966
M204 S3000
M205 X10 Y10
G0 F3000 X99.005 Y88.71
M204 S1800
M205 X8 Y8
G1 F1800 X118.09 Y107.794 E133.26478
M204 S3000
M205 X10 Y10
G0 F3000 X118.09 Y107.002
M204 S1800
M205 X8 Y8
G1 F1800 X99.797 Y88.71 E135.07167
M204 S3000
M205 X10 Y10
G0 F3000 X100.589 Y88.71
M204 S1800
M205 X8 Y8
G1 F1800 X118.09 Y106.21 E136.80033
M204 S3000
M205 X10 Y10
G0 F3000 X118.09 Y105.419
M204 S1800
M205 X8 Y8
G1 F1800 X101.381 Y88.71 E138.4508
M204 S3000
M205 X10 Y10
G0 F3000 X102.173 Y88.71
M204 S1800
M205 X8 Y8
G1 F1800 X118.089 Y104.626 E140.02294
M204 S3000
M205 X10 Y10
G0 F3000 X118.089 Y103.834
M204 S1800
M205 X8 Y8
G1 F1800 X102.965 Y88.71 E141.51686
M204 S3000
M205 X10 Y10
G0 F3000 X103.757 Y88.71
M204 S1800
M205 X8 Y8
G1 F1800 X118.089 Y103.042 E142.93254
M204 S3000
M205 X10 Y10
