;FLAVOR:Marlin
;TIME:2507
;Filament used: 3.8811m
;Layer height: 0.3
;MINX:83.6
;MINY:83.6
;MINZ:0.3
;MAXX:126.4
;MAXY:126.4
;MAXZ:67.5
;Generated with Cura_SteamEngine 4.11.0
M140 S60
M105
M190 S60
M104 S200
M105
M109 S200
M82 ;absolute extrusion mode
G21 ;metric values
G90 ;absolute positioning
M82 ;set extruder to absolute mode
M107 ;start with the fan off
G28 X0 Y0 ;move X/Y to min endstops
G28 Z0 ;move Z to min endstops
G1 Z15.0 F100 ;move the platform down 15mm
G92 E0 ;zero the extruded length
G1 F200 E3 ;extrude 3mm of feed stock
G92 E0 ;zero the extruded length again
G1 F100
G0 Y20 F100
M117 Printing...
G5
G92 E0
G92 E0
G1 F2400 E-6
;LAYER_COUNT:225
;LAYER:0
M107
M204 S3000
M205 X10 Y10
G1 F600 Z0.375
G0 F3000 X85.533 Y85.435 Z0.375
M204 S1800
M205 X8 Y8
;TYPE:SKIRT
G1 F600 Z0.3
G1 F2400 E0
G1 X86.071 Y84.964 E0.04994
G1 X86.659 Y84.556 E0.09993
G1 X87.288 Y84.216 E0.14987
G1 X87.952 Y83.949 E0.19986
G1 X88.641 Y83.757 E0.24982
G1 X89.347 Y83.643 E0.29977
G1 X90.151 Y83.603 E0.35599
G1 X90.33 Y83.6 E0.3685
G1 X119.293 Y83.6 E2.39145
G1 X120.083 Y83.611 E2.44664
G1 X120.796 Y83.661 E2.49656
G1 X121.5 Y83.79 E2.54655
G1 X122.184 Y83.998 E2.59649
G1 X122.841 Y84.28 E2.64642
G1 X123.463 Y84.634 E2.69641
G1 X124.041 Y85.055 E2.74636
G1 X124.569 Y85.538 E2.79634
G1 X125.039 Y86.076 E2.84624
G1 X125.447 Y86.664 E2.89622
G1 X125.786 Y87.294 E2.94619
G1 X126.053 Y87.957 E2.99612
G1 X126.244 Y88.647 E3.04612
G1 X126.357 Y89.353 E3.09606
G1 X126.397 Y90.15 E3.1518
G1 X126.4 Y90.33 E3.16437
G1 X126.4 Y119.343 E5.19082
G1 X126.391 Y120.07 E5.2416
G1 X126.342 Y120.784 E5.29159
G1 X126.214 Y121.488 E5.34157
G1 X126.008 Y122.173 E5.39153
G1 X125.727 Y122.83 E5.44144
G1 X125.374 Y123.453 E5.49146
G1 X124.954 Y124.032 E5.54142
G1 X124.472 Y124.56 E5.59135
G1 X123.935 Y125.032 E5.64129
G1 X123.347 Y125.44 E5.69127
G1 X122.718 Y125.781 E5.74125
G1 X122.055 Y126.049 E5.7912
G1 X121.366 Y126.241 E5.84115
G1 X120.66 Y126.356 E5.89112
G1 X119.849 Y126.397 E5.94783
G1 X119.67 Y126.4 E5.96034
G1 X90.624 Y126.399 E7.98909
G1 X89.926 Y126.39 E8.03785
G1 X89.213 Y126.341 E8.08777
G1 X88.509 Y126.213 E8.13775
G1 X87.824 Y126.007 E8.18771
G1 X87.167 Y125.725 E8.23764
G1 X86.545 Y125.372 E8.2876
G1 X85.966 Y124.952 E8.33756
G1 X85.437 Y124.47 E8.38754
G1 X84.966 Y123.932 E8.43749
G1 X84.558 Y123.345 E8.48742
G1 X84.218 Y122.715 E8.53742
G1 X83.95 Y122.052 E8.58737
G1 X83.758 Y121.363 E8.63733
G1 X83.644 Y120.657 E8.68728
G1 X83.602 Y119.831 E8.74504
G1 X83.6 Y119.658 E8.75713
G1 X83.601 Y90.587 E10.78763
G1 X83.61 Y89.922 E10.83408
G1 X83.659 Y89.209 E10.884
G1 X83.788 Y88.505 E10.93399
G1 X83.995 Y87.821 E10.9839
G1 X84.277 Y87.163 E11.03391
G1 X84.63 Y86.541 E11.08386
G1 X85.05 Y85.963 E11.13376
G1 X85.533 Y85.435 E11.18375
M204 S3000
M205 X10 Y10
G0 F3000 X86.08 Y85.688
M204 S1800
M205 X8 Y8
G1 F2400 X86.612 Y85.259 E11.23148
G1 X87.19 Y84.894 E11.27923
G1 X87.807 Y84.6 E11.32696
G1 X88.453 Y84.38 E11.37463
G1 X89.121 Y84.237 E11.42234
G1 X89.845 Y84.171 E11.47312
G1 X90.33 Y84.16 E11.50701
G1 X119.293 Y84.16 E13.52996
G1 X120.075 Y84.171 E13.58459
G1 X120.756 Y84.22 E13.63228
G1 X121.427 Y84.349 E13.68
G1 X122.078 Y84.556 E13.72772
G1 X122.701 Y84.837 E13.77545
G1 X123.287 Y85.189 E13.8232
G1 X123.827 Y85.607 E13.87089
G1 X124.315 Y86.085 E13.91861
G1 X124.744 Y86.617 E13.96634
G1 X125.108 Y87.195 E14.01405
G1 X125.402 Y87.812 E14.06179
G1 X125.621 Y88.459 E14.1095
G1 X125.764 Y89.127 E14.15721
G1 X125.829 Y89.846 E14.20764
G1 X125.84 Y90.33 E14.24145
G1 X125.84 Y119.336 E16.26741
G1 X125.831 Y120.063 E16.31819
G1 X125.782 Y120.745 E16.36595
G1 X125.654 Y121.416 E16.41366
G1 X125.449 Y122.068 E16.4614
G1 X125.169 Y122.691 E16.50911
G1 X124.819 Y123.277 E16.55678
G1 X124.402 Y123.819 E16.60455
G1 X123.925 Y124.308 E16.65226
G1 X123.394 Y124.737 E16.69994
G1 X122.816 Y125.102 E16.74769
G1 X122.2 Y125.397 E16.79539
G1 X121.553 Y125.618 E16.84315
G1 X120.885 Y125.762 E16.89088
G1 X120.155 Y125.829 E16.94208
G1 X119.67 Y125.84 E16.97596
G1 X90.632 Y125.84 E19.00416
G1 X89.934 Y125.831 E19.05292
G1 X89.252 Y125.782 E19.10067
G1 X88.581 Y125.654 E19.14839
G1 X87.93 Y125.448 E19.19608
G1 X87.306 Y125.168 E19.24385
G1 X86.72 Y124.817 E19.29156
G1 X86.179 Y124.4 E19.33927
G1 X85.69 Y123.922 E19.38703
G1 X85.261 Y123.391 E19.43471
G1 X84.896 Y122.813 E19.48246
G1 X84.602 Y122.197 E19.53013
G1 X84.381 Y121.55 E19.57789
G1 X84.237 Y120.882 E19.62561
G1 X84.171 Y120.149 E19.67702
G1 X84.16 Y119.658 E19.71132
G1 X84.161 Y90.595 E21.74127
G1 X84.17 Y89.93 E21.78772
G1 X84.219 Y89.249 E21.83541
G1 X84.347 Y88.577 E21.88319
G1 X84.553 Y87.926 E21.93088
G1 X84.834 Y87.303 E21.97861
G1 X85.185 Y86.717 E22.02632
G1 X85.603 Y86.176 E22.07408
G1 X86.08 Y85.688 E22.12174
M204 S3000
M205 X10 Y10
G0 F3000 X86.154 Y86.401
M204 S1800
M205 X8 Y8
G1 F2400 X86.626 Y85.955 E22.1671
G1 X87.149 Y85.571 E22.21242
G1 X87.716 Y85.253 E22.25782
G1 X88.317 Y85.007 E22.30318
G1 X88.944 Y84.837 E22.34855
G1 X89.861 Y84.731 E22.41303
G1 X90.33 Y84.72 E22.4458
G1 X119.293 Y84.72 E24.46875
G1 X120.067 Y84.731 E24.52282
G1 X120.714 Y84.78 E24.56814
G1 X121.351 Y84.908 E24.61352
G1 X121.967 Y85.114 E24.65889
G1 X122.554 Y85.394 E24.70431
G1 X123.101 Y85.743 E24.74963
G1 X123.602 Y86.157 E24.79503
G1 X124.047 Y86.63 E24.84039
G1 X124.432 Y87.154 E24.88581
G1 X124.749 Y87.721 E24.93118
G1 X124.994 Y88.322 E24.97651
G1 X125.163 Y88.949 E25.02187
G1 X125.269 Y89.862 E25.08606
G1 X125.28 Y90.33 E25.11876
G1 X125.28 Y119.329 E27.14423
G1 X125.271 Y120.056 E27.19502
G1 X125.223 Y120.704 E27.2404
G1 X125.095 Y121.341 E27.28578
G1 X124.891 Y121.958 E27.33117
G1 X124.612 Y122.545 E27.37657
G1 X124.264 Y123.093 E27.42191
G1 X123.851 Y123.594 E27.46726
G1 X123.379 Y124.041 E27.51266
G1 X122.856 Y124.426 E27.55802
G1 X122.29 Y124.744 E27.60337
G1 X121.688 Y124.991 E27.64882
G1 X121.062 Y125.161 E27.69412
G1 X120.139 Y125.269 E27.75903
G1 X119.67 Y125.28 E27.7918
G1 X90.639 Y125.28 E29.81951
G1 X89.941 Y125.271 E29.86826
G1 X89.293 Y125.222 E29.91365
G1 X88.656 Y125.095 E29.95902
G1 X88.04 Y124.89 E30.00437
G1 X87.453 Y124.611 E30.04976
G1 X86.905 Y124.262 E30.09514
G1 X86.404 Y123.849 E30.14049
G1 X85.957 Y123.377 E30.1859
G1 X85.572 Y122.854 E30.23126
G1 X85.254 Y122.287 E30.27666
G1 X85.008 Y121.686 E30.32202
G1 X84.838 Y121.059 E30.36739
G1 X84.731 Y120.134 E30.43243
G1 X84.72 Y119.658 E30.46569
G1 X84.72 Y90.603 E32.49507
G1 X84.729 Y89.938 E32.54152
G1 X84.778 Y89.29 E32.58691
G1 X84.906 Y88.653 E32.6323
G1 X85.111 Y88.036 E32.67771
G1 X85.391 Y87.45 E32.72307
G1 X85.74 Y86.902 E32.76845
G1 X86.154 Y86.401 E32.81384
M204 S3000
M205 X10 Y10
G1 F2400 E26.81384
;MESH:hannkomotitehina1.stl
G0 F3000 X89.335 Y90.854
G0 X90.854 Y90.854
G0 X118.6 Y118.6
M204 S1800
M205 X8 Y8
;TYPE:WALL-INNER
G1 F2400 E32.81384
G1 F1800 X91.4 Y118.6 E34.71366
G1 X91.4 Y91.4 E36.61348
G1 X118.6 Y91.4 E38.5133
G1 X118.6 Y118.6 E40.41312
M204 S3000
M205 X10 Y10
G0 F3000 X119.16 Y119.16
M204 S1800
M205 X8 Y8
G1 F1800 X90.84 Y119.16 E42.39117
G1 X90.84 Y90.84 E44.36921
G1 X119.16 Y90.84 E46.34726
G1 X119.16 Y119.16 E48.32531
M204 S3000
M205 X10 Y10
G0 F3000 X119.72 Y119.72
M204 S1800
M205 X8 Y8
;TYPE:WALL-OUTER
G1 F1800 X90.28 Y119.72 E50.38158
G1 X90.28 Y90.28 E52.43785
G1 X119.72 Y90.28 E54.49413
G1 X119.72 Y119.72 E56.5504
M204 S3000
M205 X10 Y10
G0 F3000 X119.52 Y119.72
G0 X119.09 Y119.09
G0 X118.05 Y118.05
M204 S1800
M205 X8 Y8
;TYPE:SKIN
G1 F1800 X91.95 Y118.05 E58.37339
G1 X91.95 Y91.95 E60.19638
G1 X118.05 Y91.95 E62.01937
G1 X118.05 Y118.05 E63.84236
M204 S3000
M205 X10 Y10
G0 F3000 X117.789 Y92.447
M204 S1800
M205 X8 Y8
G1 F1800 X117.552 Y92.21 E63.86577
M204 S3000
M205 X10 Y10
G0 F3000 X116.761 Y92.21
M204 S1800
M205 X8 Y8
G1 F1800 X117.789 Y93.239 E63.96736
M204 S3000
M205 X10 Y10
G0 F3000 X117.789 Y94.031
M204 S1800
M205 X8 Y8
G1 F1800 X115.969 Y92.21 E64.14718
M204 S3000
M205 X10 Y10
G0 F3000 X115.177 Y92.21
M204 S1800
M205 X8 Y8
G1 F1800 X117.789 Y94.823 E64.40524
M204 S3000
M205 X10 Y10
G0 F3000 X117.789 Y95.614
M204 S1800
M205 X8 Y8
G1 F1800 X114.385 Y92.21 E64.74148
M204 S3000
M205 X10 Y10
G0 F3000 X113.593 Y92.21
M204 S1800
M205 X8 Y8
G1 F1800 X117.789 Y96.406 E65.15595
M204 S3000
M205 X10 Y10
G0 F3000 X117.789 Y97.198
M204 S1800
M205 X8 Y8
G1 F1800 X112.801 Y92.21 E65.64865
M204 S3000
M205 X10 Y10
G0 F3000 X112.009 Y92.21
M204 S1800
M205 X8 Y8
G1 F1800 X117.789 Y97.99 E66.21959
M204 S3000
M205 X10 Y10
G0 F3000 X117.789 Y98.782
M204 S1800
M205 X8 Y8
G1 F1800 X111.217 Y92.21 E66.86875
M204 S3000
M205 X10 Y10
G0 F3000 X110.425 Y92.21
M204 S1800
M205 X8 Y8
G1 F1800 X117.789 Y99.574 E67.59615
M204 S3000
M205 X10 Y10
G0 F3000 X117.789 Y100.366
M204 S1800
M205 X8 Y8
G1 F1800 X109.633 Y92.21 E68.40178
M204 S3000
M205 X10 Y10
G0 F3000 X108.841 Y92.21
M204 S1800
M205 X8 Y8
G1 F1800 X117.789 Y101.158 E69.28564
M204 S3000
M205 X10 Y10
G0 F3000 X117.789 Y101.95
M204 S1800
M205 X8 Y8
G1 F1800 X108.049 Y92.21 E70.24773
M204 S3000
M205 X10 Y10
G0 F3000 X107.257 Y92.21
M204 S1800
M205 X8 Y8
G1 F1800 X117.789 Y102.742 E71.28806
M204 S3000
M205 X10 Y10
G0 F3000 X117.789 Y103.534
M204 S1800
M205 X8 Y8
G1 F1800 X106.465 Y92.21 E72.40662
M204 S3000
M205 X10 Y10
G0 F3000 X105.673 Y92.21
M204 S1800
M205 X8 Y8
G1 F1800 X117.789 Y104.326 E73.60341
M204 S3000
M205 X10 Y10
G0 F3000 X117.789 Y105.118
M204 S1800
M205 X8 Y8
G1 F1800 X104.881 Y92.21 E74.87843
M204 S3000
M205 X10 Y10
G0 F3000 X104.089 Y92.21
M204 S1800
M205 X8 Y8
G1 F1800 X117.789 Y105.91 E76.23168
M204 S3000
M205 X10 Y10
G0 F3000 X117.789 Y106.702
M204 S1800
M205 X8 Y8
G1 F1800 X103.297 Y92.21 E77.66316
M204 S3000
M205 X10 Y10
G0 F3000 X102.505 Y92.21
M204 S1800
M205 X8 Y8
G1 F1800 X117.789 Y107.494 E79.17288
M204 S3000
M205 X10 Y10
G0 F3000 X117.789 Y108.286
M204 S1800
M205 X8 Y8
G1 F1800 X101.713 Y92.21 E80.76083
M204 S3000
M205 X10 Y10
G0 F3000 X100.921 Y92.21
M204 S1800
M205 X8 Y8
G1 F1800 X117.789 Y109.078 E82.42701
M204 S3000
M205 X10 Y10
G0 F3000 X117.789 Y109.87
M204 S1800
M205 X8 Y8
G1 F1800 X100.129 Y92.21 E84.17142
M204 S3000
M205 X10 Y10
G0 F3000 X99.337 Y92.21
M204 S1800
M205 X8 Y8
G1 F1800 X117.789 Y110.662 E85.99406
M204 S3000
M205 X10 Y10
G0 F3000 X117.789 Y111.454
M204 S1800
M205 X8 Y8
G1 F1800 X98.545 Y92.21 E87.89494
M204 S3000
M205 X10 Y10
G0 F3000 X97.753 Y92.21
M204 S1800
M205 X8 Y8
G1 F1800 X117.789 Y112.246 E89.87405
M204 S3000
M205 X10 Y10
G0 F3000 X117.789 Y113.038
M204 S1800
M205 X8 Y8
G1 F1800 X96.962 Y92.21 E91.93134
M204 S3000
M205 X10 Y10
G0 F3000 X96.17 Y92.21
M204 S1800
M205 X8 Y8
G1 F1800 X117.789 Y113.83 E94.06686
M204 S3000
M205 X10 Y10
G0 F3000 X117.789 Y114.622
M204 S1800
M205 X8 Y8
G1 F1800 X95.378 Y92.21 E96.28061
M204 S3000
M205 X10 Y10
G0 F3000 X94.586 Y92.21
M204 S1800
M205 X8 Y8
G1 F1800 X117.789 Y115.413 E98.57255
M204 S3000
M205 X10 Y10
G0 F3000 X117.789 Y116.205
M204 S1800
M205 X8 Y8
G1 F1800 X93.794 Y92.21 E100.94271
M204 S3000
M205 X10 Y10
G0 F3000 X93.002 Y92.21
M204 S1800
M205 X8 Y8
G1 F1800 X117.789 Y116.997 E103.39111
M204 S3000
M205 X10 Y10
G0 F3000 X117.789 Y117.789
M204 S1800
M205 X8 Y8
G1 F1800 X92.209 Y92.209 E105.91784
M204 S3000
M205 X10 Y10
G0 F3000 X92.209 Y93.001
M204 S1800
M205 X8 Y8
G1 F1800 X116.997 Y117.789 E108.36634
M204 S3000
M205 X10 Y10
G0 F3000 X116.205 Y117.789
M204 S1800
M205 X8 Y8
G1 F1800 X92.209 Y93.793 E110.73661
M204 S3000
M205 X10 Y10
G0 F3000 X92.209 Y94.585
M204 S1800
M205 X8 Y8
G1 F1800 X115.413 Y117.789 E113.02864
M204 S3000
M205 X10 Y10
G0 F3000 X114.621 Y117.789
M204 S1800
M205 X8 Y8
G1 F1800 X92.209 Y95.377 E115.24245
M204 S3000
M205 X10 Y10
G0 F3000 X92.209 Y96.169
M204 S1800
M205 X8 Y8
G1 F1800 X113.829 Y117.789 E117.37802
M204 S3000
M205 X10 Y10
G0 F3000 X113.037 Y117.789
M204 S1800
M205 X8 Y8
G1 F1800 X92.209 Y96.961 E119.43536
M204 S3000
M205 X10 Y10
G0 F3000 X92.209 Y97.753
M204 S1800
M205 X8 Y8
G1 F1800 X112.245 Y117.789 E121.41446
M204 S3000
M205 X10 Y10
G0 F3000 X111.453 Y117.789
M204 S1800
M205 X8 Y8
G1 F1800 X92.209 Y98.545 E123.31534
M204 S3000
M205 X10 Y10
G0 F3000 X92.209 Y99.337
M204 S1800
M205 X8 Y8
G1 F1800 X110.661 Y117.789 E125.13798
M204 S3000
M205 X10 Y10
G0 F3000 X109.869 Y117.789
M204 S1800
M205 X8 Y8
G1 F1800 X92.209 Y100.129 E126.88239
M204 S3000
M205 X10 Y10
G0 F3000 X92.209 Y100.921
M204 S1800
M205 X8 Y8
G1 F1800 X109.077 Y117.789 E128.54857
M204 S3000
M205 X10 Y10
G0 F3000 X108.285 Y117.789
M204 S1800
M205 X8 Y8
G1 F1800 X92.209 Y101.713 E130.13652
M204 S3000
M205 X10 Y10
G0 F3000 X92.209 Y102.505
M204 S1800
M205 X8 Y8
G1 F1800 X107.493 Y117.789 E131.64624
M204 S3000
M205 X10 Y10
G0 F3000 X106.701 Y117.789
M204 S1800
M205 X8 Y8
G1 F1800 X92.209 Y103.296 E133.07777
M204 S3000
M205 X10 Y10
G0 F3000 X92.209 Y104.088
M204 S1800
M205 X8 Y8
G1 F1800 X105.909 Y117.789 E134.43107
M204 S3000
M205 X10 Y10
G0 F3000 X105.117 Y117.789
M204 S1800
M205 X8 Y8
G1 F1800 X92.209 Y104.88 E135.70614
M204 S3000
M205 X10 Y10
G0 F3000 X92.209 Y105.672
M204 S1800
M205 X8 Y8
G1 F1800 X104.325 Y117.789 E136.90298
M204 S3000
M205 X10 Y10
G0 F3000 X103.533 Y117.789
M204 S1800
M205 X8 Y8
G1 F1800 X92.209 Y106.464 E138.02159
M204 S3000
M205 X10 Y10
G0 F3000 X92.209 Y107.256
M204 S1800
M205 X8 Y8
G1 F1800 X102.741 Y117.789 E139.06196
M204 S3000
M205 X10 Y10
G0 F3000 X101.949 Y117.789
M204 S1800
M205 X8 Y8
G1 F1800 X92.209 Y108.048 E140.02411
M204 S3000
M205 X10 Y10
G0 F3000 X92.209 Y108.84
M204 S1800
M205 X8 Y8
G1 F1800 X101.157 Y117.789 E140.90802
M204 S3000
M205 X10 Y10
G0 F3000 X100.366 Y117.789
M204 S1800
M205 X8 Y8
G1 F1800 X92.209 Y109.632 E141.71375
M204 S3000
M205 X10 Y10
G0 F3000 X92.209 Y110.424
M204 S1800
M205 X8 Y8
G1 F1800 X99.574 Y117.789 E142.44124
M204 S3000
M205 X10 Y10
G0 F3000 X98.782 Y117.789
M204 S1800
M205 X8 Y8
G1 F1800 X92.209 Y111.216 E143.09051
M204 S3000
M205 X10 Y10
G0 F3000 X92.209 Y112.008
M204 S1800
M205 X8 Y8
G1 F1800 X97.99 Y117.789 E143.66154
M204 S3000
M205 X10 Y10
G0 F3000 X97.198 Y117.789
M204 S1800
M205 X8 Y8
G1 F1800 X92.209 Y112.8 E144.15434
M204 S3000
M205 X10 Y10
G0 F3000 X92.209 Y113.592
M204 S1800
M205 X8 Y8
G1 F1800 X96.406 Y117.789 E144.56891
M204 S3000
M205 X10 Y10
G0 F3000 X95.614 Y117.789
M204 S1800
M205 X8 Y8
G1 F1800 X92.209 Y114.384 E144.90525
M204 S3000
M205 X10 Y10
G0 F3000 X92.209 Y115.176
M204 S1800
M205 X8 Y8
G1 F1800 X94.822 Y117.789 E145.16335
M204 S3000
M205 X10 Y10
G0 F3000 X94.03 Y117.789
M204 S1800
M205 X8 Y8
G1 F1800 X92.209 Y115.968 E145.34323
M204 S3000
M205 X10 Y10
G0 F3000 X92.209 Y116.76
M204 S1800
M205 X8 Y8
G1 F1800 X93.238 Y117.789 E145.44487
M204 S3000
M205 X10 Y10
G0 F3000 X92.446 Y117.789
M204 S1800
M205 X8 Y8
G1 F1800 X92.209 Y117.552 E145.46828
M204 S3000
M205 X10 Y10
;MESH:NONMESH
G0 F600 X92.209 Y117.552 Z0.6
G0 F3000 X119 Y119
;TIME_ELAPSED:74.652982
;LAYER:1
M106 S255
M204 S1800
M205 X8 Y8
;TYPE:WALL-INNER
;MESH:hannkomotitehina1.stl
G1 F2700 X91 Y119 E146.86521
G1 X91 Y91 E148.26213
G1 X119 Y91 E149.65906
G1 X119 Y119 E151.05598
M204 S3000
M205 X10 Y10
G0 F4500 X119.4 Y119.4
M204 S1800
M205 X8 Y8
G1 F2700 X90.6 Y119.4 E152.49282
G1 X90.6 Y90.6 E153.92966
G1 X119.4 Y90.6 E155.3665
G1 X119.4 Y119.4 E156.80333
M204 S3000
M205 X10 Y10
G0 F4500 X119.8 Y119.8
M204 S1800
M205 X8 Y8
;TYPE:WALL-OUTER
G1 F2700 X90.2 Y119.8 E158.28008
G1 X90.2 Y90.2 E159.75683
G1 X119.8 Y90.2 E161.23358
G1 X119.8 Y119.8 E162.71033
M204 S3000
M205 X10 Y10
G0 F4500 X119.6 Y119.8
G0 X119.33 Y119.33
G0 X118.61 Y118.61
M204 S1800
M205 X8 Y8
;TYPE:SKIN
G1 F1800 X91.39 Y118.61 E164.06835
G1 X91.39 Y91.39 E165.42636
G1 X118.61 Y91.39 E166.78437
G1 X118.61 Y118.61 E168.14238
M204 S3000
M205 X10 Y10
G0 F4500 X118.429 Y118.027
M204 S1800
M205 X8 Y8
G1 F1800 X118.026 Y118.429 E168.17078
M204 S3000
M205 X10 Y10
G0 F4500 X117.461 Y118.429
M204 S1800
M205 X8 Y8
G1 F1800 X118.429 Y117.461 E168.23908
M204 S3000
M205 X10 Y10
G0 F4500 X118.429 Y116.896
M204 S1800
M205 X8 Y8
G1 F1800 X116.895 Y118.429 E168.34727
M204 S3000
M205 X10 Y10
G0 F4500 X116.329 Y118.429
M204 S1800
M205 X8 Y8
G1 F1800 X118.429 Y116.33 E168.4954
M204 S3000
M205 X10 Y10
G0 F4500 X118.429 Y115.764
M204 S1800
M205 X8 Y8
