;FLAVOR:Marlin
;TIME:3369
;Filament used: 2.43062m
;Layer height: 0.2
;MINX:85.8
;MINY:86.515
;MINZ:0.2
;MAXX:124.2
;MAXY:124.915
;MAXZ:61.6
;Generated with Cura_SteamEngine 4.11.0
M140 S60
M105
M190 S60
M104 S200
M105
M109 S200
M82 ;absolute extrusion mode
G21 ;metric values
G90 ;absolute positioning
M82 ;set extruder to absolute mode
M107 ;start with the fan off
G28 X0 Y0 ;move X/Y to min endstops
G28 Z0 ;move Z to min endstops
G1 Z15.0 F100 ;move the platform down 15mm
G92 E0 ;zero the extruded length
G1 F200 E3 ;extrude 3mm of feed stock
G92 E0 ;zero the extruded length again
G1 F100
G0 Y20 F100
M117 Printing...
G5
G92 E0
G92 E0
G1 F2400 E-6
;LAYER_COUNT:309
;LAYER:0
M107
M204 S3000
M205 X10 Y10
G1 F600 Z0.275
G0 F3000 X87.16 Y87.621 Z0.275
M204 S1800
M205 X8 Y8
;TYPE:SKIRT
G1 F600 Z0.2
G1 F2400 E0
G1 X87.613 Y87.259 E0.027
G1 X88.111 Y86.964 E0.05395
G1 X88.645 Y86.739 E0.08094
G1 X89.205 Y86.591 E0.10791
G1 X90 Y86.515 E0.14509
G1 X120 Y86.515 E1.54202
G1 X120.578 Y86.555 E1.569
G1 X121.145 Y86.674 E1.59598
G1 X121.69 Y86.87 E1.62294
G1 X122.203 Y87.139 E1.64992
G1 X122.674 Y87.476 E1.67688
G1 X123.094 Y87.875 E1.70386
G1 X123.456 Y88.328 E1.73086
G1 X123.751 Y88.826 E1.75781
G1 X123.976 Y89.36 E1.7848
G1 X124.124 Y89.92 E1.81177
G1 X124.2 Y90.715 E1.84895
G1 X124.2 Y120.715 E3.24588
G1 X124.16 Y121.293 E3.27286
G1 X124.041 Y121.86 E3.29983
G1 X123.845 Y122.405 E3.3268
G1 X123.576 Y122.918 E3.35378
G1 X123.239 Y123.389 E3.38074
G1 X122.84 Y123.809 E3.40772
G1 X122.387 Y124.171 E3.43472
G1 X121.889 Y124.466 E3.46167
G1 X121.355 Y124.691 E3.48865
G1 X120.795 Y124.839 E3.51563
G1 X120 Y124.915 E3.55281
G1 X90 Y124.915 E4.94974
G1 X89.422 Y124.875 E4.97672
G1 X88.855 Y124.756 E5.00369
G1 X88.31 Y124.56 E5.03066
G1 X87.797 Y124.291 E5.05764
G1 X87.326 Y123.954 E5.0846
G1 X86.906 Y123.555 E5.11158
G1 X86.544 Y123.102 E5.13858
G1 X86.249 Y122.604 E5.16553
G1 X86.024 Y122.07 E5.19251
G1 X85.876 Y121.51 E5.21948
G1 X85.8 Y120.715 E5.25667
G1 X85.8 Y90.715 E6.6536
G1 X85.84 Y90.137 E6.68058
G1 X85.959 Y89.57 E6.70755
G1 X86.155 Y89.025 E6.73452
G1 X86.424 Y88.512 E6.76149
G1 X86.761 Y88.041 E6.78846
G1 X87.16 Y87.621 E6.81544
M204 S3000
M205 X10 Y10
G0 F3000 X87.708 Y87.887
M204 S1800
M205 X8 Y8
G1 F2400 X88.151 Y87.58 E6.84053
G1 X88.635 Y87.341 E6.86567
G1 X89.148 Y87.176 E6.89076
G1 X89.68 Y87.089 E6.91586
G1 X90 Y87.075 E6.93078
G1 X120 Y87.075 E8.3277
G1 X120.538 Y87.115 E8.35282
G1 X121.064 Y87.234 E8.37794
G1 X121.566 Y87.429 E8.40301
G1 X122.035 Y87.697 E8.42817
G1 X122.458 Y88.03 E8.45323
G1 X122.828 Y88.423 E8.47837
G1 X123.135 Y88.866 E8.50346
G1 X123.374 Y89.35 E8.5286
G1 X123.539 Y89.863 E8.55369
G1 X123.626 Y90.395 E8.57879
G1 X123.64 Y90.715 E8.59371
G1 X123.64 Y120.715 E9.99063
G1 X123.6 Y121.253 E10.01575
G1 X123.481 Y121.779 E10.04087
G1 X123.286 Y122.281 E10.06594
G1 X123.018 Y122.75 E10.0911
G1 X122.685 Y123.173 E10.11616
G1 X122.292 Y123.543 E10.1413
G1 X121.849 Y123.85 E10.16639
G1 X121.365 Y124.089 E10.19153
G1 X120.852 Y124.254 E10.21662
G1 X120.32 Y124.341 E10.24172
G1 X120 Y124.355 E10.25664
G1 X90 Y124.355 E11.65356
G1 X89.462 Y124.315 E11.67868
G1 X88.936 Y124.196 E11.7038
G1 X88.434 Y124.001 E11.72887
G1 X87.965 Y123.733 E11.75402
G1 X87.542 Y123.4 E11.77909
G1 X87.172 Y123.007 E11.80423
G1 X86.865 Y122.564 E11.82932
G1 X86.626 Y122.08 E11.85446
G1 X86.461 Y121.567 E11.87955
G1 X86.374 Y121.035 E11.90465
G1 X86.36 Y120.715 E11.91957
G1 X86.36 Y90.715 E13.31649
G1 X86.4 Y90.177 E13.34161
G1 X86.519 Y89.651 E13.36673
G1 X86.714 Y89.149 E13.3918
G1 X86.982 Y88.68 E13.41695
G1 X87.315 Y88.257 E13.44202
G1 X87.708 Y87.887 E13.46716
M204 S3000
M205 X10 Y10
G0 F3000 X87.868 Y88.493
M204 S1800
M205 X8 Y8
G1 F2400 X88.252 Y88.179 E13.49025
G1 X88.682 Y87.931 E13.51337
G1 X89.145 Y87.756 E13.53642
G1 X89.632 Y87.657 E13.55956
G1 X90 Y87.635 E13.57672
G1 X120 Y87.635 E14.97365
G1 X120.494 Y87.675 E14.99673
G1 X120.976 Y87.794 E15.01984
G1 X121.432 Y87.988 E15.04292
G1 X121.851 Y88.253 E15.066
G1 X122.222 Y88.583 E15.08912
G1 X122.536 Y88.967 E15.11222
G1 X122.784 Y89.397 E15.13534
G1 X122.959 Y89.86 E15.15838
G1 X123.058 Y90.347 E15.18152
G1 X123.08 Y90.715 E15.19869
G1 X123.08 Y120.715 E16.59562
G1 X123.04 Y121.209 E16.61869
G1 X122.921 Y121.691 E16.64181
G1 X122.727 Y122.147 E16.66489
G1 X122.462 Y122.566 E16.68797
G1 X122.132 Y122.937 E16.71109
G1 X121.748 Y123.251 E16.73419
G1 X121.318 Y123.499 E16.7573
G1 X120.855 Y123.674 E16.78035
G1 X120.368 Y123.773 E16.80349
G1 X120 Y123.795 E16.82066
G1 X90 Y123.795 E18.21758
G1 X89.506 Y123.755 E18.24066
G1 X89.024 Y123.636 E18.26378
G1 X88.568 Y123.442 E18.28686
G1 X88.149 Y123.177 E18.30994
G1 X87.778 Y122.847 E18.33306
G1 X87.464 Y122.463 E18.35616
G1 X87.216 Y122.033 E18.37927
G1 X87.041 Y121.57 E18.40232
G1 X86.942 Y121.083 E18.42546
G1 X86.92 Y120.715 E18.44263
G1 X86.92 Y90.715 E19.83955
G1 X86.96 Y90.221 E19.86263
G1 X87.079 Y89.739 E19.88575
G1 X87.273 Y89.283 E19.90882
G1 X87.538 Y88.864 E19.93191
G1 X87.868 Y88.493 E19.95503
M204 S3000
M205 X10 Y10
G0 F3000 X88.416 Y88.755
M204 S1800
M205 X8 Y8
G1 F2400 X88.789 Y88.505 E19.97594
G1 X89.2 Y88.325 E19.99683
G1 X89.636 Y88.221 E20.0177
G1 X90 Y88.195 E20.03469
G1 X120 Y88.195 E21.43162
G1 X120.447 Y88.235 E21.45252
G1 X120.879 Y88.353 E21.47337
G1 X121.284 Y88.547 E21.49428
G1 X121.648 Y88.809 E21.51516
G1 X121.96 Y89.131 E21.53604
G1 X122.21 Y89.504 E21.55695
G1 X122.39 Y89.915 E21.57784
G1 X122.494 Y90.351 E21.59872
G1 X122.52 Y90.715 E21.61571
G1 X122.52 Y120.715 E23.01263
G1 X122.48 Y121.162 E23.03353
G1 X122.362 Y121.594 E23.05438
G1 X122.168 Y121.999 E23.07529
G1 X121.906 Y122.363 E23.09618
G1 X121.584 Y122.675 E23.11705
G1 X121.211 Y122.925 E23.13796
G1 X120.8 Y123.105 E23.15886
G1 X120.364 Y123.209 E23.17973
G1 X120 Y123.235 E23.19672
G1 X90 Y123.235 E24.59365
G1 X89.553 Y123.195 E24.61454
G1 X89.121 Y123.077 E24.6354
G1 X88.716 Y122.883 E24.65631
G1 X88.352 Y122.621 E24.67719
G1 X88.04 Y122.299 E24.69807
G1 X87.79 Y121.926 E24.71898
G1 X87.61 Y121.515 E24.73987
G1 X87.506 Y121.079 E24.76074
G1 X87.48 Y120.715 E24.77773
G1 X87.48 Y90.715 E26.17466
G1 X87.52 Y90.268 E26.19556
G1 X87.638 Y89.836 E26.21641
G1 X87.832 Y89.431 E26.23732
G1 X88.094 Y89.067 E26.2582
G1 X88.416 Y88.755 E26.27908
M204 S3000
M205 X10 Y10
G0 F3000 X88.646 Y89.297
M204 S1800
M205 X8 Y8
G1 F2400 X88.959 Y89.055 E26.2975
G1 X89.313 Y88.879 E26.31591
G1 X89.696 Y88.779 E26.33434
G1 X90 Y88.755 E26.34854
G1 X120 Y88.755 E27.74547
G1 X120.393 Y88.795 E27.76386
G1 X120.771 Y88.913 E27.7823
G1 X121.117 Y89.104 E27.80071
G1 X121.418 Y89.361 E27.81913
G1 X121.66 Y89.674 E27.83756
G1 X121.836 Y90.028 E27.85597
G1 X121.936 Y90.411 E27.8744
G1 X121.96 Y90.715 E27.8886
G1 X121.96 Y120.715 E29.28552
G1 X121.92 Y121.108 E29.30392
G1 X121.802 Y121.486 E29.32236
G1 X121.611 Y121.832 E29.34076
G1 X121.354 Y122.133 E29.35919
G1 X121.041 Y122.375 E29.37761
G1 X120.687 Y122.551 E29.39602
G1 X120.304 Y122.651 E29.41445
G1 X120 Y122.675 E29.42865
G1 X90 Y122.675 E30.82558
G1 X89.607 Y122.635 E30.84397
G1 X89.229 Y122.517 E30.86241
G1 X88.883 Y122.326 E30.88081
G1 X88.582 Y122.069 E30.89924
G1 X88.34 Y121.756 E30.91767
G1 X88.164 Y121.402 E30.93607
G1 X88.064 Y121.019 E30.95451
G1 X88.04 Y120.715 E30.96871
G1 X88.04 Y90.715 E32.36563
G1 X88.08 Y90.322 E32.38403
G1 X88.198 Y89.944 E32.40247
G1 X88.389 Y89.598 E32.42087
G1 X88.646 Y89.297 E32.4393
M204 S3000
M205 X10 Y10
G0 F3000 X88.945 Y89.794
M204 S1800
M205 X8 Y8
G1 F2400 X89.193 Y89.571 E32.45483
G1 X89.487 Y89.412 E32.47039
G1 X90 Y89.315 E32.4947
G1 X120 Y89.315 E33.89163
G1 X120.332 Y89.355 E33.9072
G1 X120.644 Y89.472 E33.92271
G1 X120.921 Y89.66 E33.9383
G1 X121.144 Y89.908 E33.95383
G1 X121.303 Y90.202 E33.9694
G1 X121.4 Y90.715 E33.99371
G1 X121.4 Y120.715 E35.39063
G1 X121.36 Y121.047 E35.4062
G1 X121.243 Y121.359 E35.42172
G1 X121.055 Y121.636 E35.43731
G1 X120.807 Y121.859 E35.45284
G1 X120.513 Y122.018 E35.4684
G1 X120 Y122.115 E35.49271
G1 X90 Y122.115 E36.88964
G1 X89.668 Y122.075 E36.90521
G1 X89.356 Y121.958 E36.92073
G1 X89.079 Y121.77 E36.93631
G1 X88.856 Y121.522 E36.95184
G1 X88.697 Y121.228 E36.96741
G1 X88.6 Y120.715 E36.99172
G1 X88.6 Y90.715 E38.38864
G1 X88.64 Y90.383 E38.40422
G1 X88.757 Y90.071 E38.41973
G1 X88.945 Y89.794 E38.43532
M204 S3000
M205 X10 Y10
G0 F3000 X89.496 Y90.043
M204 S1800
M205 X8 Y8
G1 F2400 X89.724 Y89.922 E38.44734
G1 X90 Y89.875 E38.46038
G1 X120 Y89.875 E39.8573
G1 X120.255 Y89.915 E39.86932
G1 X120.487 Y90.03 E39.88138
G1 X120.672 Y90.211 E39.89343
G1 X120.793 Y90.439 E39.90545
G1 X120.84 Y90.715 E39.91848
G1 X120.84 Y120.715 E41.31541
G1 X120.8 Y120.97 E41.32743
G1 X120.685 Y121.202 E41.33949
G1 X120.504 Y121.387 E41.35154
G1 X120.276 Y121.508 E41.36356
G1 X120 Y121.555 E41.37659
G1 X90 Y121.555 E42.77352
G1 X89.745 Y121.515 E42.78554
G1 X89.513 Y121.4 E42.7976
G1 X89.328 Y121.219 E42.80965
G1 X89.207 Y120.991 E42.82167
G1 X89.16 Y120.715 E42.8347
G1 X89.16 Y90.715 E44.23163
G1 X89.2 Y90.46 E44.24365
G1 X89.315 Y90.228 E44.25571
G1 X89.496 Y90.043 E44.26776
M204 S3000
M205 X10 Y10
G0 F3000 X89.866 Y90.469
M204 S1800
M205 X8 Y8
G1 F2400 X90 Y90.435 E44.27419
G1 X120 Y90.435 E45.67112
G1 X120.143 Y90.474 E45.67802
G1 X120.246 Y90.581 E45.68494
G1 X120.28 Y90.715 E45.69137
G1 X120.28 Y120.715 E47.0883
G1 X120.241 Y120.858 E47.0952
G1 X120.134 Y120.961 E47.10212
G1 X120 Y120.995 E47.10856
G1 X90 Y120.995 E48.50548
G1 X89.857 Y120.956 E48.51238
G1 X89.754 Y120.849 E48.5193
G1 X89.72 Y120.715 E48.52574
G1 X89.72 Y90.715 E49.92266
G1 X89.759 Y90.572 E49.92956
G1 X89.866 Y90.469 E49.93648
M204 S3000
M205 X10 Y10
G1 F2400 E43.93648
;MESH:aporon2.5.stl
G0 F3000 X90.854 Y91.569
G0 X119.09 Y119.805
G1 F2400 E49.93648
G0 F3000 X119.72 Y120.435
M204 S1800
M205 X8 Y8
;TYPE:WALL-OUTER
G1 F1500 X90.28 Y120.435 E51.30733
G1 X90.28 Y90.995 E52.67818
G1 X119.72 Y90.995 E54.04903
G1 X119.72 Y120.435 E55.41988
M204 S3000
M205 X10 Y10
G0 F3000 X119.52 Y120.435
G0 X119.16 Y119.875
M204 S1800
M205 X8 Y8
;TYPE:WALL-INNER
G1 F1500 X90.84 Y119.875 E56.73858
G1 X90.84 Y91.555 E58.05727
G1 X119.16 Y91.555 E59.37597
G1 X119.16 Y119.875 E60.69467
M204 S3000
M205 X10 Y10
G0 F3000 X118.6 Y119.315
M204 S1800
M205 X8 Y8
G1 F1500 X91.4 Y119.315 E61.96122
G1 X91.4 Y92.115 E63.22776
G1 X118.6 Y92.115 E64.49431
G1 X118.6 Y119.315 E65.76085
M204 S3000
M205 X10 Y10
G0 F3000 X118.05 Y118.765
M204 S1800
M205 X8 Y8
;TYPE:SKIN
G1 F1500 X91.95 Y118.765 E66.97618
G1 X91.95 Y92.665 E68.1915
G1 X118.05 Y92.665 E69.40683
G1 X118.05 Y118.765 E70.62215
M204 S3000
M205 X10 Y10
G0 F3000 X117.789 Y93.239
M204 S1800
M205 X8 Y8
G1 F1500 X117.475 Y92.925 E70.64283
M204 S3000
M205 X10 Y10
G0 F3000 X116.683 Y92.925
M204 S1800
M205 X8 Y8
G1 F1500 X117.789 Y94.031 E70.71566
M204 S3000
M205 X10 Y10
G0 F3000 X117.789 Y94.823
M204 S1800
M205 X8 Y8
G1 F1500 X115.891 Y92.925 E70.84065
M204 S3000
M205 X10 Y10
G0 F3000 X115.1 Y92.925
M204 S1800
M205 X8 Y8
G1 F1500 X117.789 Y95.614 E71.01773
M204 S3000
M205 X10 Y10
G0 F3000 X117.789 Y96.406
M204 S1800
M205 X8 Y8
G1 F1500 X114.308 Y92.925 E71.24696
M204 S3000
M205 X10 Y10
G0 F3000 X113.516 Y92.925
M204 S1800
M205 X8 Y8
G1 F1500 X117.789 Y97.198 E71.52834
M204 S3000
M205 X10 Y10
G0 F3000 X117.789 Y97.99
M204 S1800
M205 X8 Y8
G1 F1500 X112.724 Y92.925 E71.86188
M204 S3000
M205 X10 Y10
G0 F3000 X111.932 Y92.925
M204 S1800
M205 X8 Y8
G1 F1500 X117.789 Y98.782 E72.24757
M204 S3000
M205 X10 Y10
G0 F3000 X117.789 Y99.574
M204 S1800
M205 X8 Y8
G1 F1500 X111.14 Y92.925 E72.68542
M204 S3000
M205 X10 Y10
G0 F3000 X110.348 Y92.925
M204 S1800
M205 X8 Y8
G1 F1500 X117.789 Y100.366 E73.17542
M204 S3000
M205 X10 Y10
G0 F3000 X117.789 Y101.158
M204 S1800
M205 X8 Y8
G1 F1500 X109.556 Y92.925 E73.71758
M204 S3000
M205 X10 Y10
G0 F3000 X108.764 Y92.925
M204 S1800
M205 X8 Y8
G1 F1500 X117.789 Y101.95 E74.31189
M204 S3000
M205 X10 Y10
G0 F3000 X117.789 Y102.742
M204 S1800
M205 X8 Y8
G1 F1500 X107.972 Y92.925 E74.95836
M204 S3000
M205 X10 Y10
G0 F3000 X107.18 Y92.925
M204 S1800
M205 X8 Y8
G1 F1500 X117.789 Y103.534 E75.65698
M204 S3000
M205 X10 Y10
G0 F3000 X117.789 Y104.326
M204 S1800
M205 X8 Y8
G1 F1500 X106.388 Y92.925 E76.40775
M204 S3000
M205 X10 Y10
G0 F3000 X105.596 Y92.925
M204 S1800
M205 X8 Y8
G1 F1500 X117.789 Y105.118 E77.21068
M204 S3000
M205 X10 Y10
G0 F3000 X117.789 Y105.91
M204 S1800
M205 X8 Y8
G1 F1500 X104.804 Y92.925 E78.06577
M204 S3000
M205 X10 Y10
G0 F3000 X104.012 Y92.925
M204 S1800
M205 X8 Y8
G1 F1500 X117.789 Y106.702 E78.97301
M204 S3000
M205 X10 Y10
G0 F3000 X117.789 Y107.494
M204 S1800
M205 X8 Y8
G1 F1500 X103.22 Y92.925 E79.9324
M204 S3000
M205 X10 Y10
G0 F3000 X102.428 Y92.925
M204 S1800
M205 X8 Y8
G1 F1500 X117.789 Y108.286 E80.94395
M204 S3000
M205 X10 Y10
G0 F3000 X117.789 Y109.078
M204 S1800
M205 X8 Y8
G1 F1500 X101.636 Y92.925 E82.00765
M204 S3000
M205 X10 Y10
G0 F3000 X100.844 Y92.925
M204 S1800
M205 X8 Y8
G1 F1500 X117.789 Y109.87 E83.12351
M204 S3000
M205 X10 Y10
G0 F3000 X117.789 Y110.662
M204 S1800
M205 X8 Y8
G1 F1500 X100.052 Y92.925 E84.29152
M204 S3000
M205 X10 Y10
G0 F3000 X99.26 Y92.925
M204 S1800
M205 X8 Y8
G1 F1500 X117.789 Y111.454 E85.51169
M204 S3000
M205 X10 Y10
G0 F3000 X117.789 Y112.246
M204 S1800
M205 X8 Y8
G1 F1500 X98.468 Y92.925 E86.78401
M204 S3000
M205 X10 Y10
G0 F3000 X97.676 Y92.925
M204 S1800
M205 X8 Y8
G1 F1500 X117.789 Y113.038 E88.10848
M204 S3000
M205 X10 Y10
G0 F3000 X117.789 Y113.83
M204 S1800
M205 X8 Y8
G1 F1500 X96.884 Y92.925 E89.48511
M204 S3000
M205 X10 Y10
G0 F3000 X96.092 Y92.925
M204 S1800
M205 X8 Y8
G1 F1500 X117.789 Y114.622 E90.9139
M204 S3000
M205 X10 Y10
G0 F3000 X117.789 Y115.413
M204 S1800
M205 X8 Y8
G1 F1500 X95.301 Y92.925 E92.39477
M204 S3000
M205 X10 Y10
G0 F3000 X94.509 Y92.925
M204 S1800
M205 X8 Y8
G1 F1500 X117.789 Y116.205 E93.9278
M204 S3000
M205 X10 Y10
G0 F3000 X117.789 Y116.997
M204 S1800
M205 X8 Y8
G1 F1500 X93.717 Y92.925 E95.51298
M204 S3000
M205 X10 Y10
G0 F3000 X92.925 Y92.925
M204 S1800
M205 X8 Y8
G1 F1500 X117.789 Y117.789 E97.15032
M204 S3000
M205 X10 Y10
G0 F3000 X117.712 Y118.504
M204 S1800
M205 X8 Y8
G1 F1500 X92.21 Y93.002 E98.82967
M204 S3000
M205 X10 Y10
G0 F3000 X92.21 Y93.794
M204 S1800
M205 X8 Y8
G1 F1500 X116.92 Y118.504 E100.45686
M204 S3000
M205 X10 Y10
G0 F3000 X116.128 Y118.504
M204 S1800
M205 X8 Y8
G1 F1500 X92.21 Y94.586 E102.0319
M204 S3000
M205 X10 Y10
G0 F3000 X92.21 Y95.378
M204 S1800
M205 X8 Y8
G1 F1500 X115.336 Y118.504 E103.55479
M204 S3000
M205 X10 Y10
G0 F3000 X114.544 Y118.504
M204 S1800
M205 X8 Y8
G1 F1500 X92.21 Y96.17 E105.02552
M204 S3000
M205 X10 Y10
G0 F3000 X92.21 Y96.962
M204 S1800
M205 X8 Y8
G1 F1500 X113.752 Y118.504 E106.4441
M204 S3000
M205 X10 Y10
G0 F3000 X112.96 Y118.504
M204 S1800
M205 X8 Y8
G1 F1500 X92.21 Y97.753 E107.81056
M204 S3000
M205 X10 Y10
G0 F3000 X92.21 Y98.545
M204 S1800
M205 X8 Y8
G1 F1500 X112.168 Y118.504 E109.12486
M204 S3000
M205 X10 Y10
G0 F3000 X111.376 Y118.504
M204 S1800
M205 X8 Y8
G1 F1500 X92.21 Y99.337 E110.387
M204 S3000
M205 X10 Y10
G0 F3000 X92.21 Y100.129
M204 S1800
M205 X8 Y8
G1 F1500 X110.584 Y118.504 E111.597
M204 S3000
M205 X10 Y10
G0 F3000 X109.792 Y118.504
M204 S1800
M205 X8 Y8
G1 F1500 X92.21 Y100.921 E112.75483
M204 S3000
M205 X10 Y10
G0 F3000 X92.21 Y101.713
M204 S1800
M205 X8 Y8
G1 F1500 X109 Y118.504 E113.86052
M204 S3000
M205 X10 Y10
G0 F3000 X108.208 Y118.504
M204 S1800
M205 X8 Y8
G1 F1500 X92.21 Y102.505 E114.91405
M204 S3000
M205 X10 Y10
G0 F3000 X92.21 Y103.297
M204 S1800
M205 X8 Y8
G1 F1500 X107.416 Y118.504 E115.91542
M204 S3000
M205 X10 Y10
G0 F3000 X106.624 Y118.504
M204 S1800
M205 X8 Y8
G1 F1500 X92.21 Y104.089 E116.86464
M204 S3000
M205 X10 Y10
G0 F3000 X92.21 Y104.881
M204 S1800
M205 X8 Y8
G1 F1500 X105.832 Y118.504 E117.7617
M204 S3000
M205 X10 Y10
G0 F3000 X105.04 Y118.504
M204 S1800
M205 X8 Y8
G1 F1500 X92.21 Y105.673 E118.60661
M204 S3000
M205 X10 Y10
G0 F3000 X92.21 Y106.465
M204 S1800
M205 X8 Y8
G1 F1500 X104.248 Y118.504 E119.39937
M204 S3000
M205 X10 Y10
G0 F3000 X103.456 Y118.504
M204 S1800
M205 X8 Y8
G1 F1500 X92.21 Y107.257 E120.13997
M204 S3000
