;FLAVOR:Marlin
;TIME:692
;Filament used: 1.0819m
;Layer height: 0.3
;MINX:50.091
;MINY:71
;MINZ:0.3
;MAXX:159.908
;MAXY:138.99
;MAXZ:5.1
;Generated with Cura_SteamEngine 4.11.0
M140 S60
M105
M190 S60
M104 S200
M105
M109 S200
M82 ;absolute extrusion mode
G21 ;metric values
G90 ;absolute positioning
M82 ;set extruder to absolute mode
M107 ;start with the fan off
G28 X0 Y0 ;move X/Y to min endstops
G28 Z0 ;move Z to min endstops
G1 Z15.0 F100 ;move the platform down 15mm
G92 E0 ;zero the extruded length
G1 F200 E3 ;extrude 3mm of feed stock
G92 E0 ;zero the extruded length again
G1 F100
G0 Y20 F100
M117 Printing...
G5
G92 E0
G92 E0
G1 F2400 E-6
;LAYER_COUNT:17
;LAYER:0
M107
M204 S3000
M205 X10 Y10
G1 F600 Z0.375
G0 F3000 X59.187 Y75.626 Z0.375
M204 S1800
M205 X8 Y8
;TYPE:SKIRT
G1 F600 Z0.3
G1 F2400 E0
G1 X59.74 Y75.192 E0.0491
G1 X60.107 Y74.92 E0.08101
G1 X61.187 Y74.161 E0.17321
G1 X61.425 Y74.001 E0.19324
G1 X62.052 Y73.601 E0.24518
G1 X62.249 Y73.481 E0.26129
G1 X62.968 Y73.058 E0.31956
G1 X63.159 Y72.949 E0.33492
G1 X64.301 Y72.329 E0.42568
G1 X64.791 Y72.08 E0.46407
G1 X65.33 Y71.819 E0.5059
G1 X65.828 Y71.591 E0.54416
G1 X66.494 Y71.33 E0.59412
G1 X67.185 Y71.145 E0.64408
G1 X67.892 Y71.038 E0.69403
G1 X68.442 Y71.007 E0.7325
G1 X68.914 Y71 E0.76547
G1 X91.874 Y71.001 E2.36914
G1 X92.572 Y71.011 E2.4179
G1 X93.267 Y71.055 E2.46654
G1 X93.415 Y71.07 E2.47693
G1 X95.722 Y71.333 E2.63911
G1 X98.348 Y71.557 E2.82319
G1 X101.02 Y71.708 E3.01012
G1 X103.63 Y71.783 E3.19249
G1 X106.274 Y71.783 E3.37717
G1 X108.947 Y71.708 E3.56394
G1 X111.593 Y71.558 E3.74905
G1 X114.23 Y71.335 E3.93389
G1 X116.062 Y71.134 E4.06262
G1 X116.711 Y71.057 E4.10827
G1 X117.244 Y71.016 E4.1456
G1 X117.933 Y71 E4.19374
G1 X140.881 Y71.001 E5.79657
G1 X141.587 Y71.012 E5.84589
G1 X142.3 Y71.063 E5.89582
G1 X143.003 Y71.193 E5.94575
G1 X143.688 Y71.401 E5.99576
G1 X144.345 Y71.684 E6.04572
G1 X144.903 Y71.996 E6.09037
G1 X145.438 Y72.324 E6.13421
G1 X145.881 Y72.606 E6.17088
G1 X146.571 Y73.063 E6.22869
G1 X147.026 Y73.38 E6.26742
G1 X147.511 Y73.73 E6.3092
G1 X148.196 Y74.245 E6.36906
G1 X148.377 Y74.386 E6.38508
G1 X148.823 Y74.747 E6.42516
G1 X148.985 Y74.884 E6.43998
G1 X149.902 Y75.678 E6.5247
G1 X150.059 Y75.818 E6.53939
G1 X150.552 Y76.274 E6.5863
G1 X151.045 Y76.757 E6.6345
G1 X151.187 Y76.903 E6.64873
G1 X152.167 Y77.938 E6.74828
G1 X152.477 Y78.285 E6.78078
G1 X152.936 Y78.825 E6.83029
G1 X153.284 Y79.253 E6.86881
G1 X153.587 Y79.644 E6.90337
G1 X153.938 Y80.115 E6.94439
G1 X154.056 Y80.279 E6.9585
G1 X154.588 Y81.042 E7.02347
G1 X154.947 Y81.583 E7.06882
G1 X155.063 Y81.766 E7.08396
G1 X155.573 Y82.602 E7.15236
G1 X155.704 Y82.827 E7.17054
G1 X156.049 Y83.448 E7.22016
G1 X156.364 Y84.046 E7.26737
G1 X156.502 Y84.325 E7.28911
G1 X157.191 Y85.812 E7.40358
G1 X157.339 Y86.159 E7.42993
G1 X157.77 Y87.254 E7.51212
G1 X157.844 Y87.45 E7.52675
G1 X158.093 Y88.149 E7.57858
G1 X158.267 Y88.681 E7.61768
G1 X158.32 Y88.853 E7.63025
G1 X158.723 Y90.233 E7.73066
G1 X158.801 Y90.524 E7.7517
G1 X159.053 Y91.567 E7.82665
G1 X159.19 Y92.214 E7.87284
G1 X159.213 Y92.326 E7.88083
G1 X159.367 Y93.144 E7.93896
G1 X159.397 Y93.32 E7.95144
G1 X159.518 Y94.086 E8.0056
G1 X159.641 Y94.977 E8.06842
G1 X159.71 Y95.586 E8.11123
G1 X159.729 Y95.796 E8.12596
G1 X159.861 Y97.552 E8.24896
G1 X159.877 Y97.887 E8.27238
G1 X159.906 Y99.171 E8.36209
G1 X159.908 Y99.359 E8.37522
G1 X159.904 Y99.951 E8.41657
G1 X159.88 Y100.802 E8.47603
G1 X159.872 Y100.985 E8.48883
G1 X159.808 Y102.079 E8.56537
G1 X159.767 Y102.587 E8.60097
G1 X159.751 Y102.753 E8.61261
G1 X159.601 Y104.109 E8.7079
G1 X159.535 Y104.587 E8.74161
G1 X159.274 Y106.183 E8.85456
G1 X159.211 Y106.514 E8.8781
G1 X158.812 Y108.343 E9.00885
G1 X158.721 Y108.72 E9.03594
G1 X158.473 Y109.666 E9.10424
G1 X158.342 Y110.127 E9.13772
G1 X158.131 Y110.833 E9.18919
G1 X157.859 Y111.702 E9.25279
G1 X157.708 Y112.151 E9.28587
G1 X157.416 Y112.985 E9.34759
G1 X157.074 Y113.919 E9.41706
G1 X157.004 Y114.101 E9.43068
G1 X156.724 Y114.799 E9.48321
G1 X156.667 Y114.936 E9.49358
G1 X155.898 Y116.731 E9.62997
G1 X155.687 Y117.198 E9.66577
G1 X154.947 Y118.729 E9.78454
G1 X154.542 Y119.529 E9.84717
G1 X154.475 Y119.656 E9.85719
G1 X153.811 Y120.878 E9.95433
G1 X153.559 Y121.327 E9.9903
G1 X153.193 Y121.961 E10.04143
G1 X152.519 Y123.073 E10.13225
G1 X152.323 Y123.385 E10.15798
G1 X151.852 Y124.12 E10.21896
G1 X151.762 Y124.256 E10.23035
G1 X151.08 Y125.261 E10.31518
G1 X150.595 Y125.951 E10.37409
G1 X150.498 Y126.086 E10.3857
G1 X149.922 Y126.862 E10.4532
G1 X149.296 Y127.668 E10.52448
G1 X148.785 Y128.306 E10.58158
G1 X148.169 Y129.043 E10.64866
G1 X147.945 Y129.301 E10.67253
G1 X147.333 Y129.983 E10.73653
G1 X146.922 Y130.425 E10.77869
G1 X146.424 Y130.942 E10.82883
G1 X145.924 Y131.443 E10.87827
G1 X145.534 Y131.819 E10.9161
G1 X144.821 Y132.481 E10.98406
G1 X144.616 Y132.663 E11.00321
G1 X143.745 Y133.405 E11.08313
G1 X143.53 Y133.581 E11.10253
G1 X142.741 Y134.196 E11.1724
G1 X142.502 Y134.373 E11.19318
G1 X141.576 Y135.028 E11.2724
G1 X141.311 Y135.206 E11.2947
G1 X140.47 Y135.74 E11.36428
G1 X140.184 Y135.911 E11.38755
G1 X139.28 Y136.421 E11.46005
G1 X138.966 Y136.587 E11.48486
G1 X137.997 Y137.065 E11.56032
G1 X137.689 Y137.207 E11.58401
G1 X137.083 Y137.467 E11.63007
G1 X136.498 Y137.694 E11.6739
G1 X135.805 Y137.941 E11.72529
G1 X135.266 Y138.114 E11.76482
G1 X135.102 Y138.163 E11.77678
G1 X134.529 Y138.325 E11.81837
G1 X133.937 Y138.467 E11.86089
G1 X132.901 Y138.678 E11.93474
G1 X132.453 Y138.753 E11.96647
G1 X131.511 Y138.876 E12.03282
G1 X131.04 Y138.92 E12.06586
G1 X130.059 Y138.975 E12.13449
G1 X129.49 Y138.989 E12.17424
G1 X128.753 Y138.977 E12.22572
G1 X128.18 Y138.943 E12.26582
G1 X127.647 Y138.9 E12.30317
G1 X126.999 Y138.82 E12.34877
G1 X125.861 Y138.635 E12.4293
G1 X125.642 Y138.596 E12.44484
G1 X125.006 Y138.468 E12.49015
G1 X123.924 Y138.229 E12.56754
G1 X121.337 Y137.733 E12.75153
G1 X118.723 Y137.309 E12.93649
G1 X116.105 Y136.959 E13.12098
G1 X113.47 Y136.683 E13.30603
G1 X110.848 Y136.483 E13.4897
G1 X108.183 Y136.355 E13.67605
G1 X105.538 Y136.303 E13.86083
G1 X102.898 Y136.326 E14.04523
G1 X100.217 Y136.426 E14.23262
G1 X97.615 Y136.595 E14.41474
G1 X94.957 Y136.844 E14.60121
G1 X92.355 Y137.164 E14.78432
G1 X89.712 Y137.563 E14.97101
G1 X87.129 Y138.029 E15.15434
G1 X85.487 Y138.363 E15.27137
G1 X84.497 Y138.573 E15.34206
G1 X83.868 Y138.694 E15.3868
G1 X83.316 Y138.784 E15.42586
G1 X82.646 Y138.871 E15.47305
G1 X82.115 Y138.923 E15.51032
G1 X81.515 Y138.964 E15.55232
G1 X81.031 Y138.982 E15.58615
G1 X80.48 Y138.99 E15.62464
G1 X79.778 Y138.977 E15.67368
G1 X79.259 Y138.951 E15.70998
G1 X78.738 Y138.909 E15.74649
G1 X77.885 Y138.811 E15.80646
G1 X77.295 Y138.721 E15.84814
G1 X76.474 Y138.564 E15.90653
G1 X75.953 Y138.448 E15.94381
G1 X75.09 Y138.221 E16.00614
G1 X74.558 Y138.061 E16.04494
G1 X74.356 Y137.996 E16.05976
G1 X73.744 Y137.786 E16.10495
G1 X73.265 Y137.608 E16.14064
G1 X73.064 Y137.529 E16.15573
G1 X72.353 Y137.232 E16.20955
G1 X71.864 Y137.011 E16.24703
G1 X71.174 Y136.674 E16.30066
G1 X70.663 Y136.407 E16.34093
G1 X69.917 Y135.989 E16.40066
G1 X69.598 Y135.798 E16.42663
G1 X68.378 Y135.018 E16.52777
G1 X68.139 Y134.858 E16.54786
G1 X67.574 Y134.46 E16.59613
G1 X67.361 Y134.303 E16.61461
G1 X66.541 Y133.673 E16.68684
G1 X66.332 Y133.506 E16.70552
G1 X65.565 Y132.864 E16.77539
G1 X65.334 Y132.661 E16.79686
G1 X64.345 Y131.749 E16.89083
G1 X64.172 Y131.583 E16.90758
G1 X63.329 Y130.745 E16.9906
G1 X63.169 Y130.581 E17.0066
G1 X62.418 Y129.779 E17.08334
G1 X62.275 Y129.62 E17.09828
G1 X61.55 Y128.792 E17.17515
G1 X61.43 Y128.651 E17.18808
G1 X60.932 Y128.048 E17.24271
G1 X60.805 Y127.889 E17.25692
G1 X59.929 Y126.755 E17.357
G1 X59.526 Y126.217 E17.40396
G1 X59.421 Y126.072 E17.41646
G1 X59.008 Y125.488 E17.46642
G1 X58.49 Y124.734 E17.53031
G1 X58.013 Y124.019 E17.59035
G1 X57.915 Y123.868 E17.60292
G1 X57.602 Y123.367 E17.64418
G1 X57.087 Y122.525 E17.71312
G1 X56.623 Y121.742 E17.77669
G1 X56.349 Y121.256 E17.81566
G1 X55.832 Y120.308 E17.89108
G1 X55.333 Y119.353 E17.96634
G1 X55.252 Y119.193 E17.97887
G1 X54.721 Y118.1 E18.06374
G1 X54.308 Y117.211 E18.13221
G1 X54.234 Y117.046 E18.14484
G1 X53.912 Y116.298 E18.20172
G1 X53.846 Y116.14 E18.21368
G1 X53.106 Y114.285 E18.35317
G1 X52.99 Y113.972 E18.37649
G1 X52.359 Y112.15 E18.51116
G1 X52.26 Y111.837 E18.53409
G1 X51.787 Y110.241 E18.65036
G1 X51.663 Y109.787 E18.68323
G1 X51.284 Y108.259 E18.79319
G1 X51.145 Y107.636 E18.83777
G1 X50.863 Y106.227 E18.93814
G1 X50.752 Y105.599 E18.98268
G1 X50.576 Y104.459 E19.06325
G1 X50.466 Y103.641 E19.1209
G1 X50.342 Y102.549 E19.19766
G1 X50.272 Y101.81 E19.24951
G1 X50.209 Y101.003 E19.30605
G1 X50.151 Y100.024 E19.37455
G1 X50.112 Y99.015 E19.44507
G1 X50.093 Y98.183 E19.5032
G1 X50.091 Y97.548 E19.54755
G1 X50.109 Y96.234 E19.63934
G1 X50.118 Y95.983 E19.65688
G1 X50.191 Y94.559 E19.75647
G1 X50.21 Y94.301 E19.77454
G1 X50.353 Y92.745 E19.88368
G1 X50.382 Y92.488 E19.90175
G1 X50.518 Y91.465 E19.97383
G1 X50.609 Y90.891 E20.01442
G1 X50.771 Y89.999 E20.07774
G1 X50.804 Y89.833 E20.08956
G1 X50.931 Y89.229 E20.13267
G1 X50.975 Y89.036 E20.1465
G1 X51.17 Y88.233 E20.20422
G1 X51.347 Y87.579 E20.25154
G1 X51.387 Y87.439 E20.26171
G1 X51.577 Y86.812 E20.30747
G1 X51.766 Y86.233 E20.35001
G1 X51.878 Y85.917 E20.37343
G1 X52.176 Y85.144 E20.43129
G1 X52.268 Y84.918 E20.44833
G1 X52.707 Y83.897 E20.52596
G1 X52.971 Y83.334 E20.56939
G1 X53.362 Y82.582 E20.62859
G1 X54.046 Y81.411 E20.72331
G1 X54.367 Y80.9 E20.76546
G1 X54.624 Y80.521 E20.79745
G1 X54.998 Y79.994 E20.84258
G1 X55.177 Y79.754 E20.86349
G1 X55.611 Y79.202 E20.91254
G1 X56.021 Y78.705 E20.95754
G1 X56.376 Y78.299 E20.99521
G1 X56.735 Y77.909 E21.03223
G1 X56.864 Y77.773 E21.04533
G1 X57.272 Y77.355 E21.08612
G1 X57.488 Y77.143 E21.10726
G1 X58.357 Y76.333 E21.19024
G1 X58.579 Y76.136 E21.21097
G1 X58.996 Y75.782 E21.24918
G1 X59.187 Y75.626 E21.2664
M204 S3000
M205 X10 Y10
G0 F3000 X59.532 Y76.067
M204 S1800
M205 X8 Y8
G1 F2400 X60.085 Y75.633 E21.3155
G1 X60.429 Y75.378 E21.34541
G1 X61.509 Y74.619 E21.43761
G1 X61.726 Y74.474 E21.45584
G1 X62.353 Y74.074 E21.50778
G1 X62.533 Y73.963 E21.52255
G1 X63.252 Y73.54 E21.58082
G1 X63.427 Y73.442 E21.59483
G1 X64.569 Y72.822 E21.68559
G1 X65.038 Y72.583 E21.72236
G1 X65.563 Y72.328 E21.76312
G1 X66.061 Y72.1 E21.80138
G1 X66.698 Y71.852 E21.84912
G1 X67.359 Y71.681 E21.89681
G1 X68.275 Y71.574 E21.96123
G1 X68.919 Y71.56 E22.00622
G1 X91.782 Y71.56 E23.60311
G1 X92.564 Y71.571 E23.65774
G1 X93.216 Y71.613 E23.70337
G1 X93.352 Y71.627 E23.71292
G1 X95.646 Y71.889 E23.87419
G1 X98.306 Y72.115 E24.06065
G1 X100.972 Y72.266 E24.24716
G1 X103.649 Y72.343 E24.43422
G1 X106.29 Y72.343 E24.61868
G1 X108.959 Y72.268 E24.80517
G1 X111.634 Y72.117 E24.99231
G1 X114.298 Y71.891 E25.17905
G1 X116.107 Y71.693 E25.30615
G1 X116.778 Y71.613 E25.35335
G1 X117.52 Y71.567 E25.40528
G1 X117.939 Y71.56 E25.43455
G1 X140.872 Y71.561 E27.03633
G1 X141.578 Y71.572 E27.08565
G1 X142.259 Y71.622 E27.13334
G1 X142.93 Y71.752 E27.18108
G1 X143.581 Y71.959 E27.2288
G1 X144.407 Y72.354 E27.29275
G1 X144.61 Y72.473 E27.30918
G1 X145.139 Y72.798 E27.35255
G1 X145.572 Y73.073 E27.38837
G1 X146.262 Y73.53 E27.44618
G1 X146.704 Y73.838 E27.48381
G1 X147.174 Y74.178 E27.52432
G1 X147.859 Y74.693 E27.58418
G1 X148.024 Y74.822 E27.59881
G1 X148.47 Y75.183 E27.63889
G1 X148.619 Y75.307 E27.65243
G1 X149.536 Y76.101 E27.73715
G1 X149.678 Y76.229 E27.7505
G1 X150.171 Y76.685 E27.79741
G1 X150.651 Y77.155 E27.84433
G1 X150.781 Y77.288 E27.85732
G1 X151.761 Y78.323 E27.95688
G1 X152.051 Y78.648 E27.9873
G1 X152.51 Y79.188 E28.0368
G1 X152.848 Y79.604 E28.07424
G1 X153.138 Y79.978 E28.10729
G1 X153.489 Y80.449 E28.14832
G1 X153.597 Y80.599 E28.16123
G1 X154.129 Y81.362 E28.2262
G1 X154.479 Y81.891 E28.2705
G1 X154.585 Y82.058 E28.28432
G1 X155.095 Y82.894 E28.35272
G1 X155.214 Y83.099 E28.36928
G1 X155.559 Y83.72 E28.41889
G1 X155.868 Y84.306 E28.46517
G1 X155.994 Y84.561 E28.48503
G1 X156.683 Y86.048 E28.5995
G1 X156.818 Y86.364 E28.6235
G1 X157.249 Y87.459 E28.7057
G1 X157.316 Y87.638 E28.71904
G1 X157.565 Y88.337 E28.77087
G1 X157.735 Y88.853 E28.80882
G1 X157.783 Y89.01 E28.82029
G1 X158.186 Y90.39 E28.9207
G1 X158.257 Y90.655 E28.93986
G1 X158.509 Y91.698 E29.01481
G1 X158.642 Y92.327 E29.05971
G1 X158.816 Y93.248 E29.12518
G1 X158.844 Y93.408 E29.13652
G1 X158.963 Y94.162 E29.18984
G1 X159.086 Y95.053 E29.25266
G1 X159.153 Y95.646 E29.29435
G1 X159.171 Y95.838 E29.30781
G1 X159.303 Y97.594 E29.43081
G1 X159.318 Y97.9 E29.45221
G1 X159.347 Y99.184 E29.54191
G1 X159.348 Y99.355 E29.55386
G1 X159.344 Y99.947 E29.59521
G1 X159.32 Y100.785 E29.65376
G1 X159.313 Y100.952 E29.66544
G1 X159.249 Y102.046 E29.74198
G1 X159.195 Y102.691 E29.78719
G1 X159.045 Y104.047 E29.88248
G1 X158.982 Y104.497 E29.91422
G1 X158.721 Y106.093 E30.02717
G1 X158.664 Y106.395 E30.04864
G1 X158.265 Y108.224 E30.17939
G1 X158.179 Y108.578 E30.20484
G1 X157.894 Y109.659 E30.28292
G1 X157.805 Y109.967 E30.30531
G1 X157.596 Y110.665 E30.3562
G1 X157.28 Y111.67 E30.42979
G1 X157.179 Y111.967 E30.4517
G1 X156.89 Y112.792 E30.51275
G1 X156.548 Y113.726 E30.58223
G1 X156.484 Y113.892 E30.59465
G1 X156.152 Y114.716 E30.6567
G1 X155.383 Y116.511 E30.7931
G1 X155.12 Y117.087 E30.83732
G1 X154.403 Y118.566 E30.95213
G1 X154.044 Y119.273 E31.00751
G1 X153.323 Y120.604 E31.11324
G1 X153.074 Y121.047 E31.14873
G1 X152.714 Y121.671 E31.19905
G1 X152.044 Y122.775 E31.28925
G1 X151.851 Y123.083 E31.31464
G1 X151.38 Y123.818 E31.37561
G1 X151.298 Y123.942 E31.38599
G1 X150.622 Y124.939 E31.47013
G1 X150.137 Y125.629 E31.52904
G1 X150.048 Y125.752 E31.53964
G1 X149.39 Y126.636 E31.61661
G1 X148.804 Y127.387 E31.68315
G1 X148.268 Y128.054 E31.74291
G1 X147.745 Y128.677 E31.79973
G1 X147.527 Y128.928 E31.82295
G1 X146.923 Y129.603 E31.88621
G1 X146.519 Y130.037 E31.92763
G1 X146.027 Y130.547 E31.97712
G1 X145.534 Y131.041 E32.02587
G1 X145.153 Y131.409 E32.06287
G1 X144.44 Y132.071 E32.13082
G1 X144.253 Y132.237 E32.14829
G1 X143.382 Y132.979 E32.22821
G1 X143.185 Y133.139 E32.24593
G1 X142.396 Y133.754 E32.3158
G1 X142.178 Y133.916 E32.33478
G1 X141.252 Y134.571 E32.414
G1 X141.01 Y134.733 E32.43434
G1 X140.169 Y135.267 E32.50392
G1 X139.909 Y135.423 E32.5251
G1 X139.005 Y135.933 E32.59759
G1 X138.719 Y136.084 E32.62018
G1 X137.75 Y136.562 E32.69565
G1 X137.469 Y136.692 E32.71728
G1 X136.863 Y136.952 E32.76333
G1 X136.31 Y137.166 E32.80475
G1 X135.617 Y137.413 E32.85614
G1 X135.1 Y137.579 E32.89406
G1 X134.95 Y137.624 E32.905
G1 X134.377 Y137.786 E32.94659
G1 X133.825 Y137.919 E32.98625
G1 X132.789 Y138.13 E33.0601
G1 X132.38 Y138.198 E33.08906
G1 X131.438 Y138.321 E33.15541
G1 X131.009 Y138.361 E33.1855
G1 X130.028 Y138.416 E33.25413
G1 X129.494 Y138.429 E33.29144
G1 X128.783 Y138.417 E33.34111
G1 X128.225 Y138.385 E33.38015
G1 X127.692 Y138.342 E33.41749
G1 X127.089 Y138.267 E33.45994
G1 X125.951 Y138.082 E33.54047
G1 X125.751 Y138.046 E33.55466
G1 X125.127 Y137.921 E33.59911
G1 X124.041 Y137.681 E33.67679
G1 X121.463 Y137.187 E33.86013
G1 X118.778 Y136.751 E34.05013
G1 X116.172 Y136.403 E34.23376
G1 X113.534 Y136.127 E34.41902
G1 X110.85 Y135.921 E34.60704
G1 X108.22 Y135.796 E34.79094
G1 X105.544 Y135.743 E34.97789
G1 X102.873 Y135.766 E35.16445
G1 X100.229 Y135.865 E35.34926
G1 X97.563 Y136.038 E35.53586
G1 X94.906 Y136.287 E35.72225
G1 X92.237 Y136.615 E35.91008
G1 X89.638 Y137.008 E36.09367
G1 X87.011 Y137.482 E36.28012
G1 X85.426 Y137.804 E36.39309
G1 X84.381 Y138.026 E36.46771
G1 X83.775 Y138.141 E36.51079
G1 X83.238 Y138.229 E36.5488
G1 X82.582 Y138.315 E36.59501
G1 X82.061 Y138.366 E36.63157
G1 X81.491 Y138.405 E36.67148
G1 X81.023 Y138.422 E36.70419
G1 X80.472 Y138.43 E36.74268
G1 X79.793 Y138.417 E36.79011
G1 X79.289 Y138.391 E36.82536
G1 X78.513 Y138.324 E36.87976
G1 X77.956 Y138.256 E36.91895
G1 X77.393 Y138.17 E36.95873
G1 X76.583 Y138.015 E37.01634
G1 X76.085 Y137.904 E37.05197
G1 X75.237 Y137.681 E37.11322
G1 X74.722 Y137.526 E37.15078
