;FLAVOR:Marlin
;TIME:668
;Filament used: 0.456885m
;Layer height: 0.3
;MINX:86.226
;MINY:91.443
;MINZ:0.3
;MAXX:123.774
;MAXY:119.528
;MAXZ:29.1
;Generated with Cura_SteamEngine 4.11.0
M140 S60
M105
M190 S60
M104 S200
M105
M109 S200
M82 ;absolute extrusion mode
G21 ;metric values
G90 ;absolute positioning
M82 ;set extruder to absolute mode
M107 ;start with the fan off
G28 X0 Y0 ;move X/Y to min endstops
G28 Z0 ;move Z to min endstops
G1 Z15.0 F100 ;move the platform down 15mm
G92 E0 ;zero the extruded length
G1 F200 E3 ;extrude 3mm of feed stock
G92 E0 ;zero the extruded length again
G1 F100
G0 Y20 F100
M117 Printing...
G5
G92 E0
G92 E0
G1 F2400 E-6
;LAYER_COUNT:97
;LAYER:0
M107
M204 S3000
M205 X10 Y10
G1 F600 Z0.375
G0 F3000 X88.167 Y94.556 Z0.375
M204 S1800
M205 X8 Y8
;TYPE:SKIRT
G1 F600 Z0.3
G1 F2400 E0
G1 X88.706 Y94.086 E0.04995
G1 X89.294 Y93.679 E0.0999
G1 X89.924 Y93.34 E0.14987
G1 X90.588 Y93.074 E0.19983
G1 X91.28 Y92.882 E0.24999
G1 X93.93 Y92.308 E0.43937
G1 X95.203 Y92.004 E0.53079
G1 X96.737 Y91.627 E0.64112
G1 X97.44 Y91.495 E0.69108
G1 X98.153 Y91.443 E0.74101
G1 X98.868 Y91.471 E0.79099
G1 X99.544 Y91.564 E0.83865
G1 X102.231 Y91.951 E1.02826
G1 X104.864 Y92.255 E1.21339
G1 X107.491 Y92.482 E1.39756
G1 X110.136 Y92.637 E1.58262
G1 X112.787 Y92.716 E1.76787
G1 X114.309 Y92.728 E1.87418
G1 X116.768 Y92.729 E2.04593
G1 X117.466 Y92.74 E2.09469
G1 X118.179 Y92.791 E2.14461
G1 X118.883 Y92.922 E2.19463
G1 X119.567 Y93.13 E2.24457
G1 X120.224 Y93.413 E2.29453
G1 X120.845 Y93.768 E2.34449
G1 X121.422 Y94.189 E2.39438
G1 X121.949 Y94.673 E2.44436
G1 X122.419 Y95.213 E2.49436
G1 X122.826 Y95.801 E2.54431
G1 X123.164 Y96.431 E2.59424
G1 X123.43 Y97.095 E2.64421
G1 X123.62 Y97.785 E2.69419
G1 X123.732 Y98.491 E2.74412
G1 X123.771 Y99.278 E2.79916
G1 X123.774 Y99.458 E2.81173
G1 X123.774 Y112.471 E3.72064
G1 X123.765 Y113.198 E3.77142
G1 X123.716 Y113.912 E3.82141
G1 X123.588 Y114.616 E3.87139
G1 X123.382 Y115.301 E3.92135
G1 X123.101 Y115.958 E3.97126
G1 X122.748 Y116.581 E4.02127
G1 X122.328 Y117.16 E4.07124
G1 X121.846 Y117.688 E4.12117
G1 X121.309 Y118.16 E4.17111
G1 X120.721 Y118.568 E4.22109
G1 X120.092 Y118.909 E4.27107
G1 X119.429 Y119.177 E4.32102
G1 X118.74 Y119.369 E4.37097
G1 X118.034 Y119.484 E4.42094
G1 X117.223 Y119.525 E4.47765
G1 X117.044 Y119.528 E4.49016
G1 X93.25 Y119.527 E6.15208
G1 X92.552 Y119.518 E6.20084
G1 X91.839 Y119.469 E6.25075
G1 X91.135 Y119.341 E6.30073
G1 X90.45 Y119.135 E6.35069
G1 X89.793 Y118.853 E6.40063
G1 X89.171 Y118.5 E6.45058
G1 X88.592 Y118.08 E6.50055
G1 X88.063 Y117.598 E6.55053
G1 X87.592 Y117.06 E6.60047
G1 X87.184 Y116.473 E6.6504
G1 X86.844 Y115.843 E6.70041
G1 X86.576 Y115.18 E6.75036
G1 X86.384 Y114.491 E6.80031
G1 X86.27 Y113.785 E6.85026
G1 X86.228 Y112.959 E6.90803
G1 X86.226 Y112.786 E6.92012
G1 X86.227 Y99.706 E7.8337
G1 X86.237 Y99.041 E7.88016
G1 X86.287 Y98.327 E7.93015
G1 X86.417 Y97.624 E7.98008
G1 X86.625 Y96.94 E8.03002
G1 X86.908 Y96.283 E8.07998
G1 X87.262 Y95.661 E8.12997
G1 X87.684 Y95.083 E8.17996
G1 X88.167 Y94.556 E8.22989
M204 S3000
M205 X10 Y10
G0 F3000 X88.714 Y94.81
M204 S1800
M205 X8 Y8
G1 F2400 X89.246 Y94.382 E8.27758
G1 X89.825 Y94.018 E8.32535
G1 X90.442 Y93.725 E8.37306
G1 X91.399 Y93.43 E8.443
G1 X93.985 Y92.869 E8.62783
G1 X95.375 Y92.538 E8.72763
G1 X96.87 Y92.171 E8.83515
G1 X97.542 Y92.047 E8.88288
G1 X98.224 Y92.002 E8.93062
G1 X99.169 Y92.072 E8.9968
G1 X99.507 Y92.125 E9.0207
G1 X102.121 Y92.502 E9.20516
G1 X104.821 Y92.813 E9.395
G1 X107.445 Y93.04 E9.57896
G1 X110.122 Y93.197 E9.76626
G1 X112.767 Y93.276 E9.95108
G1 X114.304 Y93.288 E10.05844
G1 X116.759 Y93.289 E10.22991
G1 X117.457 Y93.3 E10.27867
G1 X118.138 Y93.35 E10.32636
G1 X118.809 Y93.48 E10.3741
G1 X119.46 Y93.688 E10.42184
G1 X120.082 Y93.97 E10.46954
G1 X120.668 Y94.322 E10.51728
G1 X121.207 Y94.741 E10.56497
G1 X121.695 Y95.22 E10.61273
G1 X122.123 Y95.753 E10.66048
G1 X122.486 Y96.331 E10.70815
G1 X122.779 Y96.949 E10.75592
G1 X122.997 Y97.596 E10.80361
G1 X123.139 Y98.264 E10.8513
G1 X123.203 Y98.974 E10.9011
G1 X123.214 Y99.458 E10.93491
G1 X123.214 Y112.464 E11.84333
G1 X123.205 Y113.191 E11.89411
G1 X123.156 Y113.873 E11.94187
G1 X123.028 Y114.544 E11.98958
G1 X122.823 Y115.196 E12.03732
G1 X122.543 Y115.819 E12.08503
G1 X122.193 Y116.405 E12.1327
G1 X121.776 Y116.947 E12.18047
G1 X121.299 Y117.436 E12.22818
G1 X120.768 Y117.865 E12.27586
G1 X120.19 Y118.23 E12.32361
G1 X119.574 Y118.525 E12.37131
G1 X118.927 Y118.746 E12.41907
G1 X118.259 Y118.89 E12.4668
G1 X117.529 Y118.957 E12.518
G1 X117.044 Y118.968 E12.55188
G1 X93.258 Y118.968 E14.21325
G1 X92.56 Y118.959 E14.262
G1 X91.878 Y118.91 E14.30976
G1 X91.207 Y118.782 E14.35747
G1 X90.556 Y118.576 E14.40516
G1 X89.932 Y118.296 E14.45294
G1 X89.346 Y117.945 E14.50065
G1 X88.805 Y117.528 E14.54836
G1 X88.316 Y117.05 E14.59612
G1 X87.887 Y116.519 E14.6438
G1 X87.522 Y115.941 E14.69154
G1 X87.228 Y115.325 E14.73922
G1 X87.007 Y114.678 E14.78697
G1 X86.863 Y114.01 E14.8347
G1 X86.797 Y113.277 E14.88611
G1 X86.786 Y112.786 E14.92041
G1 X86.787 Y99.714 E15.83344
G1 X86.797 Y99.049 E15.87989
G1 X86.847 Y98.368 E15.92759
G1 X86.976 Y97.697 E15.97531
G1 X87.183 Y97.046 E16.02302
G1 X87.465 Y96.423 E16.07079
G1 X87.817 Y95.838 E16.11848
G1 X88.235 Y95.298 E16.16617
G1 X88.714 Y94.81 E16.21393
M204 S3000
M205 X10 Y10
G0 F3000 X88.786 Y95.524
M204 S1800
M205 X8 Y8
G1 F2400 X89.259 Y95.078 E16.25934
G1 X89.783 Y94.694 E16.30472
G1 X90.35 Y94.378 E16.35005
G1 X90.952 Y94.133 E16.39545
G1 X91.517 Y93.977 E16.43639
G1 X94.143 Y93.408 E16.62406
G1 X95.505 Y93.083 E16.72186
G1 X97.004 Y92.715 E16.82967
G1 X97.643 Y92.599 E16.87503
G1 X98.292 Y92.562 E16.92044
G1 X99.082 Y92.626 E16.9758
G1 X99.381 Y92.673 E16.99694
G1 X102.081 Y93.062 E17.18747
G1 X104.744 Y93.369 E17.3747
G1 X107.402 Y93.599 E17.56105
G1 X110.072 Y93.755 E17.74786
G1 X112.79 Y93.837 E17.93778
G1 X114.3 Y93.848 E18.04325
G1 X116.75 Y93.849 E18.21438
G1 X117.448 Y93.86 E18.26314
G1 X118.096 Y93.91 E18.30853
G1 X118.732 Y94.039 E18.35386
G1 X119.348 Y94.246 E18.39925
G1 X119.934 Y94.526 E18.44461
G1 X120.481 Y94.877 E18.49001
G1 X120.981 Y95.292 E18.53539
G1 X121.426 Y95.765 E18.58075
G1 X121.81 Y96.289 E18.62613
G1 X122.126 Y96.856 E18.67146
G1 X122.37 Y97.458 E18.71683
G1 X122.539 Y98.086 E18.76226
G1 X122.643 Y98.99 E18.82582
G1 X122.654 Y99.458 E18.85851
G1 X122.654 Y112.457 E19.76644
G1 X122.645 Y113.184 E19.81723
G1 X122.597 Y113.832 E19.86261
G1 X122.469 Y114.469 E19.90799
G1 X122.265 Y115.086 E19.95338
G1 X121.986 Y115.673 E19.99878
G1 X121.638 Y116.221 E20.04412
G1 X121.225 Y116.722 E20.08947
G1 X120.753 Y117.169 E20.13487
G1 X120.23 Y117.554 E20.18023
G1 X119.664 Y117.872 E20.22558
G1 X119.062 Y118.119 E20.27103
G1 X118.436 Y118.289 E20.31634
G1 X117.513 Y118.397 E20.38124
G1 X117.044 Y118.408 E20.41401
G1 X93.265 Y118.408 E22.07489
G1 X92.567 Y118.399 E22.12364
G1 X91.919 Y118.35 E22.16903
G1 X91.282 Y118.223 E22.2144
G1 X90.666 Y118.018 E22.25974
G1 X90.079 Y117.739 E22.30514
G1 X89.531 Y117.39 E22.35052
G1 X89.03 Y116.977 E22.39587
G1 X88.583 Y116.505 E22.44127
G1 X88.198 Y115.982 E22.48663
G1 X87.88 Y115.415 E22.53204
G1 X87.634 Y114.814 E22.5774
G1 X87.464 Y114.187 E22.62277
G1 X87.357 Y113.262 E22.68781
G1 X87.346 Y112.786 E22.72107
G1 X87.347 Y99.723 E23.63347
G1 X87.357 Y99.058 E23.67992
G1 X87.406 Y98.41 E23.72531
G1 X87.535 Y97.773 E23.77071
G1 X87.741 Y97.157 E23.81607
G1 X88.021 Y96.571 E23.86144
G1 X88.371 Y96.024 E23.90679
G1 X88.786 Y95.524 E23.95218
M204 S3000
M205 X10 Y10
G1 F2400 E17.95218
;MESH:kodomo1.stl
G0 F3000 X91.961 Y99.982
G0 X93.48 Y99.982
G0 X115.974 Y111.728
M204 S1800
M205 X8 Y8
;TYPE:WALL-INNER
G1 F2400 E23.95218
G1 F1800 X94.026 Y111.728 E25.48517
G1 X94.026 Y100.528 E26.26744
G1 X115.974 Y100.528 E27.80043
G1 X115.974 Y111.728 E28.58271
M204 S3000
M205 X10 Y10
G0 F3000 X116.534 Y112.288
M204 S1800
M205 X8 Y8
G1 F1800 X93.466 Y112.288 E30.19392
G1 X93.466 Y99.968 E31.05443
G1 X116.534 Y99.968 E32.66564
G1 X116.534 Y112.288 E33.52615
M204 S3000
M205 X10 Y10
G0 F3000 X117.094 Y112.848
M204 S1800
M205 X8 Y8
;TYPE:WALL-OUTER
G1 F1800 X92.906 Y112.848 E35.21559
G1 X92.906 Y99.408 E36.15433
G1 X117.094 Y99.408 E37.84377
G1 X117.094 Y112.848 E38.7825
M204 S3000
M205 X10 Y10
G0 F3000 X116.894 Y112.848
G0 X116.464 Y112.218
G0 X115.424 Y111.178
M204 S1800
M205 X8 Y8
;TYPE:SKIN
G1 F1800 X94.576 Y111.178 E40.23866
G1 X94.576 Y101.078 E40.9441
G1 X115.424 Y101.078 E42.40026
G1 X115.424 Y111.178 E43.10571
M204 S3000
M205 X10 Y10
G0 F3000 X115.163 Y101.7
M204 S1800
M205 X8 Y8
G1 F1800 X114.801 Y101.338 E43.14146
M204 S3000
M205 X10 Y10
G0 F3000 X114.009 Y101.338
M204 S1800
M205 X8 Y8
G1 F1800 X115.163 Y102.492 E43.25545
M204 S3000
M205 X10 Y10
G0 F3000 X115.163 Y103.284
M204 S1800
M205 X8 Y8
G1 F1800 X113.217 Y101.338 E43.44767
M204 S3000
M205 X10 Y10
G0 F3000 X112.425 Y101.338
M204 S1800
M205 X8 Y8
G1 F1800 X115.163 Y104.076 E43.71813
M204 S3000
M205 X10 Y10
G0 F3000 X115.163 Y104.868
M204 S1800
M205 X8 Y8
G1 F1800 X111.633 Y101.338 E44.06681
M204 S3000
M205 X10 Y10
G0 F3000 X110.841 Y101.338
M204 S1800
M205 X8 Y8
G1 F1800 X115.163 Y105.66 E44.49373
M204 S3000
M205 X10 Y10
G0 F3000 X115.163 Y106.452
M204 S1800
M205 X8 Y8
G1 F1800 X110.049 Y101.338 E44.99888
M204 S3000
M205 X10 Y10
G0 F3000 X109.257 Y101.338
M204 S1800
M205 X8 Y8
G1 F1800 X115.163 Y107.244 E45.58226
M204 S3000
M205 X10 Y10
G0 F3000 X115.163 Y108.036
M204 S1800
M205 X8 Y8
G1 F1800 X108.465 Y101.338 E46.24387
M204 S3000
M205 X10 Y10
G0 F3000 X107.673 Y101.338
M204 S1800
M205 X8 Y8
G1 F1800 X115.163 Y108.827 E46.98366
M204 S3000
M205 X10 Y10
G0 F3000 X115.163 Y109.619
M204 S1800
M205 X8 Y8
G1 F1800 X106.882 Y101.338 E47.80164
M204 S3000
M205 X10 Y10
G0 F3000 X106.09 Y101.338
M204 S1800
M205 X8 Y8
G1 F1800 X115.163 Y110.411 E48.69785
M204 S3000
M205 X10 Y10
G0 F3000 X114.877 Y110.917
M204 S1800
M205 X8 Y8
G1 F1800 X105.298 Y101.338 E49.64404
M204 S3000
M205 X10 Y10
G0 F3000 X104.505 Y101.337
M204 S1800
M205 X8 Y8
G1 F1800 X114.085 Y110.917 E50.59033
M204 S3000
M205 X10 Y10
G0 F3000 X113.293 Y110.917
M204 S1800
M205 X8 Y8
G1 F1800 X103.713 Y101.337 E51.53662
M204 S3000
M205 X10 Y10
G0 F3000 X102.921 Y101.337
M204 S1800
M205 X8 Y8
G1 F1800 X112.501 Y110.917 E52.48291
M204 S3000
M205 X10 Y10
G0 F3000 X111.709 Y110.917
M204 S1800
M205 X8 Y8
G1 F1800 X102.129 Y101.337 E53.4292
M204 S3000
M205 X10 Y10
G0 F3000 X101.337 Y101.337
M204 S1800
M205 X8 Y8
G1 F1800 X110.917 Y110.917 E54.37549
M204 S3000
M205 X10 Y10
G0 F3000 X110.125 Y110.917
M204 S1800
M205 X8 Y8
G1 F1800 X100.545 Y101.337 E55.32177
M204 S3000
M205 X10 Y10
G0 F3000 X99.753 Y101.337
M204 S1800
M205 X8 Y8
G1 F1800 X109.333 Y110.917 E56.26806
M204 S3000
M205 X10 Y10
G0 F3000 X108.541 Y110.917
M204 S1800
M205 X8 Y8
G1 F1800 X98.961 Y101.337 E57.21435
M204 S3000
M205 X10 Y10
G0 F3000 X98.169 Y101.337
M204 S1800
M205 X8 Y8
G1 F1800 X107.749 Y110.917 E58.16064
M204 S3000
M205 X10 Y10
G0 F3000 X106.957 Y110.917
M204 S1800
M205 X8 Y8
G1 F1800 X97.377 Y101.337 E59.10693
M204 S3000
M205 X10 Y10
G0 F3000 X96.585 Y101.337
M204 S1800
M205 X8 Y8
G1 F1800 X106.165 Y110.917 E60.05322
M204 S3000
M205 X10 Y10
G0 F3000 X105.373 Y110.917
M204 S1800
M205 X8 Y8
G1 F1800 X95.793 Y101.337 E60.99951
M204 S3000
M205 X10 Y10
G0 F3000 X95.001 Y101.337
M204 S1800
M205 X8 Y8
G1 F1800 X104.581 Y110.917 E61.9458
M204 S3000
M205 X10 Y10
G0 F3000 X103.789 Y110.917
M204 S1800
M205 X8 Y8
G1 F1800 X94.835 Y101.963 E62.83025
M204 S3000
M205 X10 Y10
G0 F3000 X94.835 Y102.755
M204 S1800
M205 X8 Y8
G1 F1800 X102.997 Y110.917 E63.63647
M204 S3000
M205 X10 Y10
G0 F3000 X102.205 Y110.917
M204 S1800
M205 X8 Y8
G1 F1800 X94.835 Y103.547 E64.36447
M204 S3000
M205 X10 Y10
G0 F3000 X94.835 Y104.339
M204 S1800
M205 X8 Y8
G1 F1800 X101.413 Y110.917 E65.01422
M204 S3000
M205 X10 Y10
G0 F3000 X100.622 Y110.917
M204 S1800
M205 X8 Y8
G1 F1800 X94.835 Y105.131 E65.5858
M204 S3000
M205 X10 Y10
G0 F3000 X94.835 Y105.923
M204 S1800
M205 X8 Y8
G1 F1800 X99.83 Y110.917 E66.07915
M204 S3000
M205 X10 Y10
G0 F3000 X99.038 Y110.917
M204 S1800
M205 X8 Y8
G1 F1800 X94.835 Y106.715 E66.49426
M204 S3000
M205 X10 Y10
G0 F3000 X94.835 Y107.507
M204 S1800
M205 X8 Y8
G1 F1800 X98.246 Y110.917 E66.83114
M204 S3000
M205 X10 Y10
G0 F3000 X97.454 Y110.917
M204 S1800
M205 X8 Y8
G1 F1800 X94.835 Y108.299 E67.08979
M204 S3000
M205 X10 Y10
G0 F3000 X94.835 Y109.091
M204 S1800
M205 X8 Y8
G1 F1800 X96.662 Y110.917 E67.2702
M204 S3000
M205 X10 Y10
G0 F3000 X95.87 Y110.917
M204 S1800
M205 X8 Y8
G1 F1800 X94.835 Y109.882 E67.37244
M204 S3000
M205 X10 Y10
G0 F3000 X94.835 Y110.674
M204 S1800
M205 X8 Y8
G1 F1800 X95.078 Y110.917 E67.39644
M204 S3000
M205 X10 Y10
G1 F2400 E61.39644
;MESH:NONMESH
G0 F600 X95.078 Y110.917 Z0.6
G0 F3000 X98.187 Y99.988
G0 X98.187 Y98.055
;TIME_ELAPSED:36.890666
;LAYER:1
M106 S255
M204 S1800
M205 X8 Y8
;TYPE:SUPPORT
G1 F2400 E67.39644
G1 F2700 X98.318 Y98.228 E67.40727
G1 X98.154 Y98.228 E67.41545
G1 X98.187 Y98.055 E67.42424
M204 S3000
M205 X10 Y10
G1 F2400 E61.42424
;MESH:kodomo1.stl
G0 F4500 X98.187 Y99.748
G0 X115.898 Y112.128
M204 S1800
M205 X8 Y8
;TYPE:WALL-INNER
G1 F2400 E67.42424
G1 F2700 X94.203 Y112.128 E68.50661
G1 X94.203 Y100.128 E69.10529
G1 X115.699 Y100.128 E70.17773
G1 X115.899 Y100.128 E70.18771
G1 X115.899 Y100.328 E70.19417
G1 X115.898 Y112.128 E70.78287
M204 S3000
M205 X10 Y10
G0 F4500 X116.298 Y112.528
M204 S1800
M205 X8 Y8
G1 F2700 X93.803 Y112.528 E71.90515
G1 X93.803 Y99.728 E72.54375
G1 X116.099 Y99.728 E73.6561
G1 X116.299 Y99.728 E73.66608
G1 X116.299 Y99.928 E73.67254
G1 X116.298 Y112.528 E74.30115
M204 S3000
M205 X10 Y10
G0 F4500 X116.698 Y112.928
M204 S1800
M205 X8 Y8
;TYPE:WALL-OUTER
G1 F2700 X93.403 Y112.928 E75.46335
G1 X93.403 Y99.328 E76.14185
G1 X116.499 Y99.328 E77.29412
G1 X116.699 Y99.328 E77.30409
G1 X116.699 Y99.528 E77.31055
G1 X116.698 Y112.928 E77.97908
M204 S3000
M205 X10 Y10
G0 F4500 X116.498 Y112.928
G0 X116.228 Y112.458
G0 X115.508 Y111.738
M204 S1800
M205 X8 Y8
;TYPE:SKIN
G1 F1800 X94.593 Y111.738 E79.02254
G1 X94.593 Y100.518 E79.58231
G1 X115.509 Y100.518 E80.62581
G1 X115.508 Y111.738 E81.18558
M204 S3000
M205 X10 Y10
G0 F4500 X115.326 Y110.947
M204 S1800
M205 X8 Y8
G1 F1800 X114.716 Y111.558 E81.22865
M204 S3000
M205 X10 Y10
G0 F4500 X114.15 Y111.558
M204 S1800
M205 X8 Y8
G1 F1800 X115.326 Y110.381 E81.31166
M204 S3000
M205 X10 Y10
G0 F4500 X115.326 Y109.815
M204 S1800
M205 X8 Y8
G1 F1800 X113.584 Y111.558 E81.4346
M204 S3000
M205 X10 Y10
G0 F4500 X113.018 Y111.558
M204 S1800
M205 X8 Y8
G1 F1800 X115.326 Y109.25 E81.59744
M204 S3000
M205 X10 Y10
G0 F4500 X115.326 Y108.684
M204 S1800
M205 X8 Y8
G1 F1800 X112.453 Y111.558 E81.80018
M204 S3000
M205 X10 Y10
G0 F4500 X111.887 Y111.558
M204 S1800
M205 X8 Y8
G1 F1800 X115.326 Y108.118 E82.04286
M204 S3000
M205 X10 Y10
G0 F4500 X115.326 Y107.553
M204 S1800
M205 X8 Y8
G1 F1800 X111.321 Y111.558 E82.32543
M204 S3000
M205 X10 Y10
G0 F4500 X110.756 Y111.558
M204 S1800
M205 X8 Y8
G1 F1800 X115.326 Y106.987 E82.64791
M204 S3000
M205 X10 Y10
G0 F4500 X115.326 Y106.421
M204 S1800
M205 X8 Y8
G1 F1800 X110.19 Y111.558 E83.01032
M204 S3000
M205 X10 Y10
G0 F4500 X109.624 Y111.558
M204 S1800
M205 X8 Y8
G1 F1800 X115.327 Y105.855 E83.41269
M204 S3000
M205 X10 Y10
G0 F4500 X115.327 Y105.289
M204 S1800
M205 X8 Y8
G1 F1800 X109.059 Y111.558 E83.85497
M204 S3000
M205 X10 Y10
G0 F4500 X108.493 Y111.558
M204 S1800
M205 X8 Y8
G1 F1800 X115.327 Y104.723 E84.33718
M204 S3000
M205 X10 Y10
G0 F4500 X115.327 Y104.158
M204 S1800
M205 X8 Y8
G1 F1800 X107.927 Y111.558 E84.85929
M204 S3000
M205 X10 Y10
G0 F4500 X107.362 Y111.558
M204 S1800
M205 X8 Y8
G1 F1800 X115.327 Y103.592 E85.4213
M204 S3000
M205 X10 Y10
G0 F4500 X115.327 Y103.026
M204 S1800
M205 X8 Y8
G1 F1800 X106.796 Y111.558 E86.02324
M204 S3000
M205 X10 Y10
G0 F4500 X106.23 Y111.558
M204 S1800
M205 X8 Y8
G1 F1800 X115.327 Y102.461 E86.66509
M204 S3000
M205 X10 Y10
G0 F4500 X115.327 Y101.895
M204 S1800
M205 X8 Y8
G1 F1800 X105.665 Y111.558 E87.34683
M204 S3000
M205 X10 Y10
G0 F4500 X105.099 Y111.558
M204 S1800
M205 X8 Y8
