;FLAVOR:Marlin
;TIME:1624
;Filament used: 2.37816m
;Layer height: 0.3
;MINX:80.937
;MINY:83.436
;MINZ:0.3
;MAXX:127.651
;MAXY:128.806
;MAXZ:36.6
;Generated with Cura_SteamEngine 4.11.0
M140 S60
M105
M190 S60
M104 S200
M105
M109 S200
M82 ;absolute extrusion mode
G21 ;metric values
G90 ;absolute positioning
M82 ;set extruder to absolute mode
M107 ;start with the fan off
G28 X0 Y0 ;move X/Y to min endstops
G28 Z0 ;move Z to min endstops
G1 Z15.0 F100 ;move the platform down 15mm
G92 E0 ;zero the extruded length
G1 F200 E3 ;extrude 3mm of feed stock
G92 E0 ;zero the extruded length again
G1 F100
G0 Y20 F100
M117 Printing...
G5
G92 E0
G92 E0
G1 F2400 E-6
;LAYER_COUNT:122
;LAYER:0
M107
M204 S3000
M205 X10 Y10
G1 F600 Z0.375
G0 F3000 X92.149 Y92.767 Z0.375
M204 S1800
M205 X8 Y8
;TYPE:SKIRT
G1 F600 Z0.3
G1 F2400 E0
G1 X92.495 Y92.423 E0.03408
G1 X93.362 Y91.619 E0.11667
G1 X93.607 Y91.411 E0.13911
G1 X94.51 Y90.693 E0.21969
G1 X94.831 Y90.456 E0.24756
G1 X95.808 Y89.79 E0.33015
G1 X96.079 Y89.62 E0.35249
G1 X97.16 Y88.998 E0.4396
G1 X97.434 Y88.853 E0.46126
G1 X98.544 Y88.319 E0.54729
G1 X98.831 Y88.194 E0.56915
G1 X99.978 Y87.744 E0.65521
G1 X100.28 Y87.639 E0.67755
G1 X101.479 Y87.271 E0.76515
G1 X101.775 Y87.192 E0.78655
G1 X102.891 Y86.937 E0.8665
G1 X103.363 Y86.848 E0.90005
G1 X104.438 Y86.687 E0.97597
G1 X104.89 Y86.638 E1.00773
G1 X105.968 Y86.558 E1.08323
G1 X106.442 Y86.54 E1.11636
G1 X107.514 Y86.541 E1.19124
G1 X107.969 Y86.559 E1.22304
G1 X109.047 Y86.638 E1.29854
G1 X109.495 Y86.689 E1.33003
G1 X110.579 Y86.852 E1.4066
G1 X111.02 Y86.935 E1.43794
G1 X112.072 Y87.175 E1.5133
G1 X112.507 Y87.291 E1.54475
G1 X113.539 Y87.609 E1.62018
G1 X113.978 Y87.76 E1.6526
G1 X115.036 Y88.176 E1.73201
G1 X115.411 Y88.337 E1.76051
G1 X116.417 Y88.822 E1.83851
G1 X116.796 Y89.02 E1.86838
G1 X117.85 Y89.63 E1.95344
G1 X118.117 Y89.798 E1.97547
G1 X119.132 Y90.492 E2.06135
G1 X119.381 Y90.677 E2.08302
G1 X120.358 Y91.457 E2.17034
G1 X120.591 Y91.657 E2.19179
G1 X121.427 Y92.431 E2.27136
G1 X121.766 Y92.77 E2.30485
G1 X122.505 Y93.567 E2.38076
G1 X122.813 Y93.925 E2.41375
G1 X123.484 Y94.769 E2.48906
G1 X123.765 Y95.151 E2.52218
G1 X124.37 Y96.038 E2.59717
G1 X124.581 Y96.373 E2.62483
G1 X125.193 Y97.437 E2.71056
G1 X125.352 Y97.738 E2.73434
G1 X125.855 Y98.784 E2.8154
G1 X126.038 Y99.21 E2.84779
G1 X126.459 Y100.287 E2.92856
G1 X126.561 Y100.579 E2.95016
G1 X126.903 Y101.689 E3.03129
G1 X127.006 Y102.078 E3.05939
G1 X127.264 Y103.207 E3.14028
G1 X127.336 Y103.59 E3.1675
G1 X127.517 Y104.809 E3.25358
G1 X127.552 Y105.128 E3.27599
G1 X127.64 Y106.366 E3.36268
G1 X127.651 Y106.671 E3.384
G1 X127.649 Y107.904 E3.47012
G1 X127.637 Y108.211 E3.49158
G1 X127.546 Y109.405 E3.57521
G1 X127.507 Y109.739 E3.5987
G1 X127.347 Y110.807 E3.67413
G1 X127.238 Y111.375 E3.71453
G1 X127.214 Y111.489 E3.72266
G1 X126.995 Y112.443 E3.79103
G1 X126.914 Y112.741 E3.8126
G1 X126.546 Y113.934 E3.8998
G1 X126.443 Y114.231 E3.92176
G1 X125.992 Y115.38 E4.00797
G1 X125.864 Y115.672 E4.03024
G1 X125.332 Y116.773 E4.11565
G1 X125.186 Y117.049 E4.13746
G1 X124.558 Y118.135 E4.22508
G1 X124.392 Y118.398 E4.2468
G1 X123.728 Y119.372 E4.32914
G1 X123.223 Y120.031 E4.38713
G1 X123.767 Y120.567 E4.44047
G1 X124.008 Y120.86 E4.46697
G1 X124.341 Y121.327 E4.50703
G1 X124.517 Y121.613 E4.53048
G1 X124.786 Y122.126 E4.57094
G1 X124.94 Y122.534 E4.6014
G1 X125.085 Y123.095 E4.64187
G1 X125.147 Y123.594 E4.67699
G1 X125.173 Y124.001 E4.70548
G1 X125.17 Y124.581 E4.74599
G1 X125.088 Y125.154 E4.78642
G1 X124.971 Y125.586 E4.81768
G1 X124.76 Y126.125 E4.85811
G1 X124.415 Y126.724 E4.90639
G1 X124.28 Y126.919 E4.92296
G1 X123.918 Y127.371 E4.9634
G1 X123.498 Y127.769 E5.00382
G1 X123.056 Y128.088 E5.04189
G1 X122.55 Y128.37 E5.08235
G1 X122.009 Y128.579 E5.12286
G1 X121.477 Y128.707 E5.16108
G1 X121.238 Y128.748 E5.17802
G1 X120.662 Y128.806 E5.21845
G1 X120.057 Y128.781 E5.26074
G1 X119.995 Y128.774 E5.2651
G1 X119.425 Y128.67 E5.30557
G1 X118.898 Y128.497 E5.34431
G1 X117.797 Y128.054 E5.4272
G1 X117.276 Y127.802 E5.46763
G1 X116.794 Y127.48 E5.50811
G1 X116.362 Y127.094 E5.54858
G1 X115.986 Y126.653 E5.58906
G1 X115.675 Y126.164 E5.62953
G1 X115.615 Y126.034 E5.63953
G1 X115.074 Y126.279 E5.68102
G1 X113.87 Y126.751 E5.77134
G1 X113.609 Y126.841 E5.79063
G1 X112.492 Y127.185 E5.87226
G1 X112.088 Y127.292 E5.90145
G1 X110.956 Y127.548 E5.98251
G1 X110.659 Y127.604 E6.00362
G1 X109.418 Y127.792 E6.09129
G1 X109.098 Y127.828 E6.11378
G1 X107.865 Y127.919 E6.20014
G1 X107.556 Y127.93 E6.22173
G1 X106.387 Y127.93 E6.30338
G1 X105.976 Y127.915 E6.33211
G1 X104.825 Y127.828 E6.41273
G1 X104.434 Y127.783 E6.44022
G1 X103.217 Y127.597 E6.52621
G1 X102.924 Y127.541 E6.54705
G1 X101.856 Y127.299 E6.62353
G1 X101.405 Y127.179 E6.65613
G1 X100.291 Y126.835 E6.73757
G1 X99.924 Y126.707 E6.76471
G1 X98.84 Y126.281 E6.84606
G1 X98.477 Y126.121 E6.87377
G1 X97.423 Y125.612 E6.95552
G1 X97.151 Y125.469 E6.97699
G1 X96.086 Y124.855 E7.06285
G1 X95.738 Y124.634 E7.09164
G1 X94.778 Y123.978 E7.17286
G1 X94.529 Y123.793 E7.19452
G1 X93.619 Y123.067 E7.27583
G1 X93.248 Y122.746 E7.3101
G1 X92.46 Y122.014 E7.38522
G1 X92.171 Y121.726 E7.41372
G1 X91.9 Y121.966 E7.439
G1 X91.417 Y122.286 E7.47947
G1 X90.895 Y122.537 E7.51993
G1 X90.425 Y122.692 E7.55449
G1 X89.786 Y122.819 E7.6
G1 X89.405 Y122.864 E7.62679
G1 X88.606 Y122.882 E7.68262
G1 X88.565 Y122.879 E7.68549
G1 X87.821 Y122.757 E7.73815
G1 X87.484 Y122.67 E7.76246
G1 X86.935 Y122.487 E7.80288
G1 X86.624 Y122.344 E7.82678
G1 X86.061 Y122.005 E7.87269
G1 X85.802 Y121.82 E7.89492
G1 X85.355 Y121.451 E7.9354
G1 X84.959 Y121.02 E7.97628
G1 X84.478 Y120.385 E8.03192
G1 X84.283 Y120.041 E8.05954
G1 X83.671 Y119.781 E8.10599
G1 X83.393 Y119.631 E8.12805
G1 X82.903 Y119.322 E8.16851
G1 X82.487 Y118.974 E8.20639
G1 X82.091 Y118.551 E8.24686
G1 X81.72 Y118.041 E8.29091
G1 X81.421 Y117.544 E8.33143
G1 X81.238 Y117.134 E8.36279
G1 X81.063 Y116.582 E8.40323
G1 X80.964 Y116.003 E8.44426
G1 X80.937 Y115.73 E8.46342
G1 X80.939 Y114.888 E8.52223
G1 X80.943 Y114.849 E8.52497
G1 X81.042 Y114.279 E8.56538
G1 X81.287 Y113.538 E8.61989
G1 X81.525 Y113.009 E8.66041
G1 X81.808 Y112.553 E8.69789
G1 X81.838 Y112.511 E8.7015
G1 X82.207 Y112.064 E8.74198
G1 X82.731 Y111.571 E8.79223
G1 X83.187 Y111.21 E8.83286
G1 X83.431 Y111.043 E8.85351
G1 X83.93 Y110.75 E8.89393
G1 X84.465 Y110.528 E8.93438
G1 X84.963 Y110.394 E8.9704
G1 X85.629 Y110.258 E9.01788
G1 X86.146 Y110.175 E9.05445
G1 X86.463 Y110.117 E9.07696
G1 X86.377 Y109.507 E9.11999
G1 X86.361 Y109.329 E9.13247
G1 X86.275 Y108.173 E9.21344
G1 X86.261 Y107.774 E9.24132
G1 X86.263 Y106.593 E9.32381
G1 X86.275 Y106.288 E9.34513
G1 X86.36 Y105.147 E9.42505
G1 X86.404 Y104.743 E9.45343
G1 X86.574 Y103.61 E9.53345
G1 X86.663 Y103.141 E9.5668
G1 X86.907 Y102.074 E9.64325
G1 X87.025 Y101.642 E9.67453
G1 X87.347 Y100.596 E9.75097
G1 X87.503 Y100.156 E9.78357
G1 X87.926 Y99.082 E9.8642
G1 X88.051 Y98.796 E9.886
G1 X88.578 Y97.704 E9.97069
G1 X88.723 Y97.429 E9.9924
G1 X89.355 Y96.334 E10.08071
G1 X89.525 Y96.065 E10.10294
G1 X90.199 Y95.078 E10.18641
G1 X90.381 Y94.831 E10.20784
G1 X91.159 Y93.854 E10.29508
G1 X91.414 Y93.559 E10.32231
G1 X92.149 Y92.767 E10.39778
M204 S3000
M205 X10 Y10
G0 F3000 X92.56 Y93.148
M204 S1800
M205 X8 Y8
G1 F2400 X92.876 Y92.834 E10.4289
G1 X93.734 Y92.038 E10.51064
G1 X93.956 Y91.849 E10.53101
G1 X94.859 Y91.131 E10.61159
G1 X95.147 Y90.918 E10.63661
G1 X96.124 Y90.252 E10.71919
G1 X96.359 Y90.105 E10.73855
G1 X97.44 Y89.483 E10.82566
G1 X97.677 Y89.358 E10.84438
G1 X98.787 Y88.824 E10.93041
G1 X99.036 Y88.715 E10.9494
G1 X100.183 Y88.265 E11.03546
G1 X100.444 Y88.174 E11.05476
G1 X101.643 Y87.806 E11.14236
G1 X101.9 Y87.737 E11.16095
G1 X103.016 Y87.482 E11.24091
G1 X103.446 Y87.402 E11.27146
G1 X104.521 Y87.241 E11.34738
G1 X104.932 Y87.196 E11.37626
G1 X106.01 Y87.116 E11.45176
G1 X106.441 Y87.1 E11.48188
G1 X107.513 Y87.101 E11.55676
G1 X107.928 Y87.118 E11.58577
G1 X109.006 Y87.197 E11.66126
G1 X109.411 Y87.242 E11.68973
G1 X110.495 Y87.405 E11.76629
G1 X110.896 Y87.481 E11.7948
G1 X111.948 Y87.721 E11.87016
G1 X112.342 Y87.826 E11.89864
G1 X113.374 Y88.144 E11.97407
G1 X113.774 Y88.282 E12.00362
G1 X114.824 Y88.694 E12.08241
G1 X115.168 Y88.842 E12.10856
G1 X116.168 Y89.324 E12.1861
G1 X116.515 Y89.505 E12.21344
G1 X117.569 Y90.115 E12.29849
G1 X117.8 Y90.26 E12.31754
G1 X118.815 Y90.954 E12.40342
G1 X119.032 Y91.114 E12.42226
G1 X120.009 Y91.894 E12.50958
G1 X120.211 Y92.068 E12.5282
G1 X121.047 Y92.842 E12.60777
G1 X121.355 Y93.151 E12.63825
G1 X122.094 Y93.948 E12.71416
G1 X122.374 Y94.274 E12.74418
G1 X123.045 Y95.118 E12.81949
G1 X123.302 Y95.467 E12.84976
G1 X123.907 Y96.354 E12.92475
G1 X124.095 Y96.653 E12.94942
G1 X124.749 Y97.79 E13.04104
G1 X124.847 Y97.981 E13.05603
G1 X125.35 Y99.027 E13.1371
G1 X125.516 Y99.414 E13.16651
G1 X125.937 Y100.491 E13.24728
G1 X126.026 Y100.744 E13.26601
G1 X126.368 Y101.854 E13.34714
G1 X126.461 Y102.203 E13.37236
G1 X126.719 Y103.332 E13.45325
G1 X126.783 Y103.672 E13.47742
G1 X126.964 Y104.891 E13.56349
G1 X126.994 Y105.168 E13.58295
G1 X127.082 Y106.406 E13.66964
G1 X127.091 Y106.67 E13.68809
G1 X127.089 Y107.903 E13.77421
G1 X127.079 Y108.169 E13.79281
G1 X126.999 Y109.237 E13.86761
G1 X126.953 Y109.656 E13.89705
G1 X126.793 Y110.724 E13.97248
G1 X126.689 Y111.265 E14.01096
G1 X126.449 Y112.317 E14.08632
G1 X126.379 Y112.576 E14.10506
G1 X126.011 Y113.769 E14.19226
G1 X125.921 Y114.026 E14.21128
G1 X125.47 Y115.175 E14.2975
G1 X125.359 Y115.429 E14.31686
G1 X124.827 Y116.53 E14.40227
G1 X124.701 Y116.768 E14.42108
G1 X124.073 Y117.854 E14.5087
G1 X123.93 Y118.082 E14.5275
G1 X123.266 Y119.056 E14.60983
G1 X123.062 Y119.332 E14.6338
G1 X122.42 Y120.139 E14.70583
G1 X122.581 Y120.233 E14.71885
G1 X123.002 Y120.57 E14.75652
G1 X123.575 Y121.216 E14.81683
G1 X124.04 Y121.906 E14.87495
G1 X124.288 Y122.385 E14.91262
G1 X124.409 Y122.711 E14.93691
G1 X124.541 Y123.234 E14.97458
G1 X124.615 Y124.037 E15.03091
G1 X124.609 Y124.576 E15.06856
G1 X124.456 Y125.355 E15.12401
G1 X124.436 Y125.419 E15.12869
G1 X124.238 Y125.92 E15.16632
G1 X123.955 Y126.405 E15.20554
G1 X123.82 Y126.6 E15.2221
G1 X123.481 Y127.019 E15.25975
G1 X123.084 Y127.384 E15.29742
G1 X122.751 Y127.619 E15.32588
G1 X122.278 Y127.879 E15.36358
G1 X121.772 Y128.065 E15.40124
G1 X121.143 Y128.196 E15.44611
G1 X120.607 Y128.247 E15.48372
G1 X120.058 Y128.218 E15.52212
G1 X119.528 Y128.118 E15.55979
G1 X119.107 Y127.978 E15.59078
G1 X118.006 Y127.535 E15.67367
G1 X117.522 Y127.297 E15.71134
G1 X117.079 Y126.99 E15.74899
G1 X116.685 Y126.622 E15.78664
G1 X116.351 Y126.199 E15.82429
G1 X116.082 Y125.731 E15.86199
G1 X115.903 Y125.274 E15.89627
G1 X115.204 Y125.611 E15.95047
G1 X114.869 Y125.758 E15.97603
G1 X113.671 Y126.228 E16.06591
G1 X113.444 Y126.306 E16.08268
G1 X112.327 Y126.65 E16.16431
G1 X111.965 Y126.745 E16.19045
G1 X110.833 Y127.001 E16.27151
G1 X110.575 Y127.05 E16.28986
G1 X109.334 Y127.238 E16.37752
G1 X109.057 Y127.269 E16.39699
G1 X107.824 Y127.36 E16.48335
G1 X107.556 Y127.37 E16.50208
G1 X106.387 Y127.37 E16.58373
G1 X106.019 Y127.357 E16.60945
G1 X104.868 Y127.27 E16.69007
G1 X104.519 Y127.229 E16.71462
G1 X103.302 Y127.043 E16.80061
G1 X103.048 Y126.995 E16.81866
G1 X101.98 Y126.753 E16.89515
G1 X101.57 Y126.644 E16.92478
G1 X100.456 Y126.3 E17.00621
G1 X100.129 Y126.186 E17.0304
G1 X99.045 Y125.76 E17.11175
G1 X98.72 Y125.617 E17.13655
G1 X97.666 Y125.108 E17.2183
G1 X97.431 Y124.983 E17.2369
G1 X96.366 Y124.369 E17.32276
G1 X96.054 Y124.171 E17.34857
G1 X95.094 Y123.515 E17.42978
G1 X94.878 Y123.355 E17.44856
G1 X93.968 Y122.629 E17.52987
G1 X93.629 Y122.336 E17.56116
G1 X92.841 Y121.604 E17.63628
G1 X92.579 Y121.343 E17.66211
G1 X92.175 Y120.907 E17.70363
G1 X92.05 Y121.068 E17.71787
G1 X91.661 Y121.441 E17.75551
G1 X91.221 Y121.752 E17.79314
G1 X90.739 Y121.996 E17.83088
G1 X90.274 Y122.153 E17.86516
G1 X89.72 Y122.263 E17.90461
G1 X89.339 Y122.308 E17.9314
G1 X88.646 Y122.323 E17.97982
G1 X88.605 Y122.32 E17.98269
G1 X87.961 Y122.214 E18.02828
G1 X87.624 Y122.127 E18.05259
G1 X86.906 Y121.859 E18.10612
G1 X86.874 Y121.843 E18.10861
G1 X86.386 Y121.549 E18.14841
G1 X86.127 Y121.364 E18.17064
G1 X85.713 Y121.019 E18.20828
G1 X85.153 Y120.365 E18.26842
G1 X84.698 Y119.638 E18.32832
G1 X84.671 Y119.581 E18.33272
G1 X83.937 Y119.288 E18.38793
G1 X83.659 Y119.138 E18.40999
G1 X83.204 Y118.848 E18.44768
G1 X82.868 Y118.563 E18.47845
G1 X82.362 Y117.983 E18.53221
G1 X82.178 Y117.72 E18.55463
G1 X81.903 Y117.256 E18.5923
G1 X81.759 Y116.928 E18.61732
G1 X81.598 Y116.413 E18.65501
G1 X81.495 Y115.675 E18.70706
G1 X81.496 Y114.946 E18.75797
G1 X81.5 Y114.907 E18.76071
G1 X81.595 Y114.376 E18.79839
G1 X81.812 Y113.732 E18.84586
G1 X82.036 Y113.241 E18.88355
G1 X82.294 Y112.836 E18.91709
G1 X82.805 Y112.261 E18.97082
G1 X83.108 Y111.985 E18.99945
G1 X83.503 Y111.672 E19.03465
G1 X83.747 Y111.505 E19.0553
G1 X84.213 Y111.234 E19.09295
G1 X84.715 Y111.036 E19.13064
G1 X85.075 Y110.943 E19.15661
G1 X85.741 Y110.807 E19.20409
G1 X86.356 Y110.7 E19.24769
G1 X86.889 Y110.617 E19.28537
G1 X87.104 Y110.616 E19.30039
G1 X86.957 Y109.64 E19.36932
G1 X86.919 Y109.287 E19.39412
G1 X86.833 Y108.131 E19.47509
G1 X86.821 Y107.775 E19.49997
G1 X86.823 Y106.594 E19.58246
G1 X86.833 Y106.33 E19.60091
G1 X86.918 Y105.189 E19.68082
G1 X86.958 Y104.826 E19.70633
G1 X87.128 Y103.693 E19.78635
G1 X87.209 Y103.266 E19.81671
G1 X87.453 Y102.199 E19.89316
G1 X87.56 Y101.807 E19.92154
G1 X87.882 Y100.761 E19.99798
G1 X88.024 Y100.361 E20.02763
G1 X88.447 Y99.287 E20.10825
G1 X88.556 Y99.039 E20.12717
G1 X89.083 Y97.947 E20.21186
G1 X89.208 Y97.709 E20.23064
G1 X89.84 Y96.614 E20.31895
G1 X89.987 Y96.381 E20.33819
G1 X90.661 Y95.394 E20.42167
G1 X90.82 Y95.18 E20.44029
G1 X91.598 Y94.203 E20.52752
G1 X91.825 Y93.94 E20.55179
G1 X92.56 Y93.148 E20.62726
M204 S3000
M205 X10 Y10
G0 F3000 X92.97 Y93.529
M204 S1800
M205 X8 Y8
G1 F2400 X93.257 Y93.244 E20.65551
G1 X94.106 Y92.457 E20.73637
G1 X94.304 Y92.287 E20.75459
G1 X95.207 Y91.569 E20.83517
G1 X95.462 Y91.381 E20.8573
G1 X96.439 Y90.715 E20.93989
G1 X96.638 Y90.59 E20.9563
G1 X97.719 Y89.968 E21.04341
G1 X97.92 Y89.862 E21.05928
G1 X99.03 Y89.328 E21.14532
G1 X99.24 Y89.237 E21.1613
G1 X100.387 Y88.787 E21.24736
G1 X100.608 Y88.71 E21.26371
G1 X101.807 Y88.342 E21.35131
G1 X102.025 Y88.283 E21.36708
G1 X103.141 Y88.028 E21.44704
G1 X103.529 Y87.956 E21.4746
G1 X104.604 Y87.795 E21.55053
G1 X104.973 Y87.754 E21.57646
G1 X106.051 Y87.674 E21.65196
G1 X106.441 Y87.66 E21.67922
G1 X107.513 Y87.661 E21.75409
G1 X107.887 Y87.676 E21.78024
G1 X108.965 Y87.755 E21.85573
G1 X109.328 Y87.796 E21.88125
G1 X110.412 Y87.959 E21.95781
G1 X110.771 Y88.027 E21.98333
G1 X111.823 Y88.267 E22.0587
G1 X112.177 Y88.362 E22.0843
G1 X113.276 Y88.701 E22.16463
G1 X113.57 Y88.803 E22.18637
G1 X114.612 Y89.212 E22.26455
G1 X114.925 Y89.346 E22.28833
G1 X115.919 Y89.825 E22.3654
G1 X116.235 Y89.989 E22.39027
G1 X117.289 Y90.599 E22.47533
G1 X117.484 Y90.723 E22.49147
G1 X118.499 Y91.417 E22.57735
G1 X118.683 Y91.552 E22.59329
G1 X119.66 Y92.332 E22.68061
G1 X119.83 Y92.479 E22.6963
G1 X120.666 Y93.253 E22.77588
G1 X120.945 Y93.532 E22.80344
G1 X121.684 Y94.329 E22.87935
G1 X121.936 Y94.622 E22.90635
G1 X122.607 Y95.466 E22.98166
G1 X122.839 Y95.782 E23.00904
G1 X123.444 Y96.669 E23.08403
G1 X123.61 Y96.933 E23.10581
G1 X124.214 Y97.981 E23.1903
G1 X124.343 Y98.223 E23.20945
G1 X124.846 Y99.269 E23.29052
G1 X124.995 Y99.618 E23.31702
G1 X125.416 Y100.695 E23.39779
G1 X125.49 Y100.909 E23.41361
G1 X125.832 Y102.019 E23.49473
G1 X125.915 Y102.328 E23.51708
G1 X126.173 Y103.457 E23.59797
G1 X126.229 Y103.755 E23.61915
G1 X126.41 Y104.974 E23.70522
G1 X126.435 Y105.208 E23.72166
G1 X126.523 Y106.446 E23.80835
G1 X126.531 Y106.669 E23.82394
G1 X126.529 Y107.902 E23.91006
G1 X126.52 Y108.127 E23.92578
G1 X126.432 Y109.287 E24.00704
G1 X126.399 Y109.573 E24.02715
G1 X126.239 Y110.641 E24.10258
G1 X126.14 Y111.155 E24.13914
G1 X125.903 Y112.192 E24.21343
