;FLAVOR:Marlin
;TIME:7535
;Filament used: 12.24m
;Layer height: 0.3
;MINX:68.6
;MINY:68.6
;MINZ:0.3
;MAXX:141.4
;MAXY:141.4
;MAXZ:41.1
;Generated with Cura_SteamEngine 4.11.0
M140 S60
M105
M190 S60
M104 S200
M105
M109 S200
M82 ;absolute extrusion mode
G21 ;metric values
G90 ;absolute positioning
M82 ;set extruder to absolute mode
M107 ;start with the fan off
G28 X0 Y0 ;move X/Y to min endstops
G28 Z0 ;move Z to min endstops
G1 Z15.0 F100 ;move the platform down 15mm
G92 E0 ;zero the extruded length
G1 F200 E3 ;extrude 3mm of feed stock
G92 E0 ;zero the extruded length again
G1 F100
G0 Y20 F100
M117 Printing...
G5
G92 E0
G92 E0
G1 F2400 E-6
;LAYER_COUNT:137
;LAYER:0
M107
M204 S3000
M205 X10 Y10
G1 F600 Z0.375
G0 F3000 X70.533 Y70.435 Z0.375
M204 S1800
M205 X8 Y8
;TYPE:SKIRT
G1 F600 Z0.3
G1 F2400 E0
G1 X71.071 Y69.964 E0.04994
G1 X71.659 Y69.556 E0.09993
G1 X72.288 Y69.216 E0.14987
G1 X72.952 Y68.949 E0.19986
G1 X73.641 Y68.757 E0.24982
G1 X74.347 Y68.643 E0.29977
G1 X75.151 Y68.603 E0.35599
G1 X75.33 Y68.6 E0.3685
G1 X134.293 Y68.6 E4.48684
G1 X135.083 Y68.611 E4.54203
G1 X135.796 Y68.661 E4.59195
G1 X136.5 Y68.79 E4.64194
G1 X137.184 Y68.998 E4.69188
G1 X137.841 Y69.28 E4.74181
G1 X138.463 Y69.634 E4.7918
G1 X139.041 Y70.055 E4.84175
G1 X139.569 Y70.538 E4.89173
G1 X140.039 Y71.076 E4.94162
G1 X140.447 Y71.664 E4.99161
G1 X140.786 Y72.294 E5.04158
G1 X141.053 Y72.957 E5.0915
G1 X141.244 Y73.647 E5.14151
G1 X141.357 Y74.353 E5.19145
G1 X141.397 Y75.15 E5.24719
G1 X141.4 Y75.33 E5.25976
G1 X141.4 Y134.343 E9.3816
G1 X141.391 Y135.07 E9.43238
G1 X141.342 Y135.784 E9.48237
G1 X141.214 Y136.488 E9.53235
G1 X141.008 Y137.173 E9.58231
G1 X140.727 Y137.83 E9.63222
G1 X140.374 Y138.453 E9.68223
G1 X139.954 Y139.032 E9.73219
G1 X139.472 Y139.56 E9.78213
G1 X138.935 Y140.032 E9.83206
G1 X138.347 Y140.44 E9.88205
G1 X137.718 Y140.781 E9.93203
G1 X137.055 Y141.049 E9.98197
G1 X136.366 Y141.241 E10.03193
G1 X135.66 Y141.356 E10.08189
G1 X134.849 Y141.397 E10.13861
G1 X134.67 Y141.4 E10.15112
G1 X75.624 Y141.399 E14.27526
G1 X74.926 Y141.39 E14.32402
G1 X74.213 Y141.341 E14.37393
G1 X73.509 Y141.213 E14.42391
G1 X72.824 Y141.007 E14.47387
G1 X72.167 Y140.725 E14.52381
G1 X71.545 Y140.372 E14.57376
G1 X70.966 Y139.952 E14.62372
G1 X70.437 Y139.47 E14.67371
G1 X69.966 Y138.932 E14.72365
G1 X69.558 Y138.345 E14.77358
G1 X69.218 Y137.715 E14.82359
G1 X68.95 Y137.052 E14.87353
G1 X68.758 Y136.363 E14.92349
G1 X68.644 Y135.657 E14.97344
G1 X68.602 Y134.831 E15.03121
G1 X68.6 Y134.658 E15.04329
G1 X68.601 Y75.587 E19.16918
G1 X68.61 Y74.922 E19.21564
G1 X68.659 Y74.209 E19.26555
G1 X68.788 Y73.505 E19.31554
G1 X68.995 Y72.821 E19.36546
G1 X69.277 Y72.163 E19.41546
G1 X69.63 Y71.541 E19.46541
G1 X70.05 Y70.963 E19.51532
G1 X70.533 Y70.435 E19.5653
M204 S3000
M205 X10 Y10
G0 F3000 X71.08 Y70.688
M204 S1800
M205 X8 Y8
G1 F2400 X71.612 Y70.259 E19.61303
G1 X72.19 Y69.894 E19.66078
G1 X72.807 Y69.6 E19.70852
G1 X73.453 Y69.38 E19.75618
G1 X74.121 Y69.237 E19.8039
G1 X74.845 Y69.171 E19.85468
G1 X75.33 Y69.16 E19.88856
G1 X134.293 Y69.16 E24.00691
G1 X135.075 Y69.171 E24.06153
G1 X135.756 Y69.22 E24.10922
G1 X136.427 Y69.349 E24.15695
G1 X137.078 Y69.556 E24.20466
G1 X137.701 Y69.837 E24.25239
G1 X138.287 Y70.189 E24.30014
G1 X138.827 Y70.607 E24.34784
G1 X139.315 Y71.085 E24.39555
G1 X139.744 Y71.617 E24.44328
G1 X140.108 Y72.195 E24.49099
G1 X140.402 Y72.812 E24.53873
G1 X140.621 Y73.459 E24.58644
G1 X140.764 Y74.127 E24.63415
G1 X140.829 Y74.846 E24.68458
G1 X140.84 Y75.33 E24.71839
G1 X140.84 Y134.336 E28.83974
G1 X140.831 Y135.063 E28.89053
G1 X140.782 Y135.745 E28.93828
G1 X140.654 Y136.416 E28.986
G1 X140.449 Y137.068 E29.03373
G1 X140.169 Y137.691 E29.08144
G1 X139.819 Y138.277 E29.12911
G1 X139.402 Y138.819 E29.17688
G1 X138.925 Y139.308 E29.22459
G1 X138.394 Y139.737 E29.27227
G1 X137.816 Y140.102 E29.32002
G1 X137.2 Y140.397 E29.36772
G1 X136.553 Y140.618 E29.41548
G1 X135.885 Y140.762 E29.46321
G1 X135.155 Y140.829 E29.51441
G1 X134.67 Y140.84 E29.54829
G1 X75.632 Y140.84 E33.67188
G1 X74.934 Y140.831 E33.72064
G1 X74.252 Y140.782 E33.76839
G1 X73.581 Y140.654 E33.81611
G1 X72.93 Y140.448 E33.8638
G1 X72.306 Y140.168 E33.91157
G1 X71.72 Y139.817 E33.95928
G1 X71.179 Y139.4 E34.00699
G1 X70.69 Y138.922 E34.05475
G1 X70.261 Y138.391 E34.10243
G1 X69.896 Y137.813 E34.15018
G1 X69.602 Y137.197 E34.19785
G1 X69.381 Y136.55 E34.24561
G1 X69.237 Y135.882 E34.29333
G1 X69.171 Y135.149 E34.34474
G1 X69.16 Y134.658 E34.37904
G1 X69.161 Y75.595 E38.50437
G1 X69.17 Y74.93 E38.55083
G1 X69.219 Y74.249 E38.59851
G1 X69.347 Y73.577 E38.64629
G1 X69.553 Y72.926 E38.69399
G1 X69.834 Y72.303 E38.74172
G1 X70.185 Y71.717 E38.78943
G1 X70.603 Y71.176 E38.83718
G1 X71.08 Y70.688 E38.88485
M204 S3000
M205 X10 Y10
G0 F3000 X71.154 Y71.401
M204 S1800
M205 X8 Y8
G1 F2400 X71.626 Y70.955 E38.9302
G1 X72.149 Y70.571 E38.97552
G1 X72.716 Y70.253 E39.02093
G1 X73.317 Y70.007 E39.06629
G1 X73.944 Y69.837 E39.11166
G1 X74.861 Y69.731 E39.17614
G1 X75.33 Y69.72 E39.2089
G1 X134.293 Y69.72 E43.32725
G1 X135.067 Y69.731 E43.38132
G1 X135.714 Y69.78 E43.42664
G1 X136.351 Y69.908 E43.47202
G1 X136.967 Y70.114 E43.51739
G1 X137.554 Y70.394 E43.56281
G1 X138.101 Y70.743 E43.60813
G1 X138.602 Y71.157 E43.65353
G1 X139.047 Y71.63 E43.69889
G1 X139.432 Y72.154 E43.7443
G1 X139.749 Y72.721 E43.78967
G1 X139.994 Y73.322 E43.83501
G1 X140.163 Y73.949 E43.88036
G1 X140.269 Y74.862 E43.94456
G1 X140.28 Y75.33 E43.97726
G1 X140.28 Y134.329 E48.09812
G1 X140.271 Y135.056 E48.1489
G1 X140.223 Y135.704 E48.19428
G1 X140.095 Y136.341 E48.23967
G1 X139.891 Y136.958 E48.28506
G1 X139.612 Y137.545 E48.33045
G1 X139.264 Y138.093 E48.37579
G1 X138.851 Y138.594 E48.42114
G1 X138.379 Y139.041 E48.46655
G1 X137.856 Y139.426 E48.51191
G1 X137.29 Y139.744 E48.55725
G1 X136.688 Y139.991 E48.6027
G1 X136.062 Y140.161 E48.64801
G1 X135.139 Y140.269 E48.71292
G1 X134.67 Y140.28 E48.74568
G1 X75.639 Y140.28 E52.86878
G1 X74.941 Y140.271 E52.91754
G1 X74.293 Y140.222 E52.96293
G1 X73.656 Y140.095 E53.00829
G1 X73.04 Y139.89 E53.05364
G1 X72.453 Y139.611 E53.09903
G1 X71.905 Y139.262 E53.14441
G1 X71.404 Y138.849 E53.18976
G1 X70.957 Y138.377 E53.23517
G1 X70.572 Y137.854 E53.28053
G1 X70.254 Y137.287 E53.32594
G1 X70.008 Y136.686 E53.37129
G1 X69.838 Y136.059 E53.41667
G1 X69.731 Y135.134 E53.48171
G1 X69.72 Y134.658 E53.51496
G1 X69.72 Y75.603 E57.63973
G1 X69.729 Y74.938 E57.68619
G1 X69.778 Y74.29 E57.73158
G1 X69.906 Y73.653 E57.77696
G1 X70.111 Y73.036 E57.82237
G1 X70.391 Y72.45 E57.86773
G1 X70.74 Y71.902 E57.91311
G1 X71.154 Y71.401 E57.9585
M204 S3000
M205 X10 Y10
G1 F2400 E51.9585
G1 F600 Z0.375
G0 F3000 X78.98 Y78.98 Z0.375
M204 S1800
M205 X8 Y8
;TYPE:SUPPORT
G1 F600 Z0.3
G1 F2400 E57.9585
G1 F1800 X131.02 Y78.98 E61.59331
G1 X131.02 Y131.02 E65.22811
G1 X78.98 Y131.02 E68.86291
G1 X78.98 Y78.98 E72.49771
M204 S3000
M205 X10 Y10
G0 F3000 X79.72 Y80.166
M204 S1800
M205 X8 Y8
G1 F1800 X79.72 Y129.834 E75.96683
G1 X80.166 Y130.28 E76.01089
G1 X129.834 Y130.28 E79.48001
G1 X130.28 Y129.834 E79.52407
G1 X130.28 Y80.166 E82.99319
G1 X129.834 Y79.72 E83.03725
G1 X80.166 Y79.72 E86.50637
G1 X79.72 Y80.166 E86.55043
M204 S3000
M205 X10 Y10
G0 F3000 X79.499 Y92.665
M204 S1800
M205 X8 Y8
G1 F1800 X79.199 Y92.838 E86.57462
M204 S3000
M205 X10 Y10
G0 F3000 X79.199 Y115.008
M204 S1800
M205 X8 Y8
G1 F1800 X79.5 Y115.181 E86.59886
M204 S3000
M205 X10 Y10
G0 F3000 X106.032 Y130.5
M204 S1800
M205 X8 Y8
G1 F1800 X106.551 Y130.799 E86.6407
M204 S3000
M205 X10 Y10
G0 F3000 X120 Y130.8
M204 S1800
M205 X8 Y8
G1 F1800 X120 Y130.5 E86.66165
M204 S3000
M205 X10 Y10
G0 F3000 X120 Y79.5
M204 S1800
M205 X8 Y8
G1 F1800 X120 Y79.2 E86.68261
M204 S3000
M205 X10 Y10
G0 F3000 X102.822 Y79.199
M204 S1800
M205 X8 Y8
G1 F1800 X102.301 Y79.5 E86.72463
M204 S3000
M205 X10 Y10
G1 F2400 E80.72463
G1 F600 Z0.375
;MESH:bill_mid1.stl
G0 F3000 X76.6 Y76.6 Z0.375
M204 S1800
M205 X8 Y8
;TYPE:WALL-INNER
G1 F600 Z0.3
G1 F2400 E86.72463
G1 F1800 X76.6 Y133.4 E90.6919
G1 X133.4 Y133.4 E94.65917
G1 X133.4 Y76.6 E98.62644
G1 X76.6 Y76.6 E102.59371
M204 S3000
M205 X10 Y10
G0 F3000 X76.6 Y133.6
M204 S1800
M205 X8 Y8
G1 F1800 X76.4 Y133.6 E102.6037
G1 X76.4 Y133.4 E102.61369
G1 X76.4 Y76.6 E104.03057
G1 X76.4 Y76.4 E104.04056
G1 X76.6 Y76.4 E104.05055
G1 X133.4 Y76.4 E105.46744
G1 X133.6 Y76.4 E105.47743
G1 X133.6 Y76.6 E105.48742
G1 X133.6 Y133.4 E106.9043
G1 X133.6 Y133.6 E106.91429
G1 X133.4 Y133.6 E106.92428
G1 X76.6 Y133.6 E108.34116
M204 S3000
M205 X10 Y10
G0 F3000 X77.09 Y77.09
G0 X77.16 Y77.16
M204 S1800
M205 X8 Y8
G1 F1800 X77.16 Y132.84 E112.2302
G1 X132.84 Y132.84 E116.11924
G1 X132.84 Y77.16 E120.00828
G1 X77.16 Y77.16 E123.89733
M204 S3000
M205 X10 Y10
G0 F3000 X77.09 Y77.09
G0 X132.868 Y77.132
G0 X134.09 Y134.09
G0 X134.16 Y134.16
M204 S1800
M205 X8 Y8
G1 F1800 X75.84 Y134.16 E127.97076
G1 X75.84 Y75.84 E132.0442
G1 X134.16 Y75.84 E136.11763
G1 X134.16 Y134.16 E140.19107
M204 S3000
M205 X10 Y10
G0 F3000 X134.72 Y134.72
M204 S1800
M205 X8 Y8
;TYPE:WALL-OUTER
G1 F1800 X75.28 Y134.72 E144.34273
G1 X75.28 Y75.28 E148.49439
G1 X134.72 Y75.28 E152.64606
G1 X134.72 Y134.72 E156.79772
M204 S3000
M205 X10 Y10
G0 F3000 X134.52 Y134.72
G0 X134.09 Y134.09
G0 X132.868 Y77.132
G0 X77.72 Y77.06
G0 X77.72 Y77.72
M204 S1800
M205 X8 Y8
G1 F1800 X77.72 Y132.28 E160.60853
G1 X132.28 Y132.28 E164.41935
G1 X132.28 Y77.72 E168.23016
G1 X77.72 Y77.72 E172.04097
M204 S3000
M205 X10 Y10
G0 F3000 X77.72 Y77.92
G0 X76.6 Y77.92
G1 F2400 E166.04097
G1 F600 Z0.375
;MESH:NONMESH
G0 F3000 X76.6 Y77.92 Z0.375
G0 X78.9 Y78.9
;TIME_ELAPSED:95.558015
;LAYER:1
M106 S255
G0 F4500 X78.9 Y78.9 Z0.675
M204 S1800
M205 X8 Y8
;TYPE:SUPPORT
G1 F600 Z0.6
G1 F2400 E172.04097
G1 F2700 X131.1 Y78.9 E174.64524
G1 X131.1 Y131.1 E177.24951
G1 X78.9 Y131.1 E179.85378
G1 X78.9 Y78.9 E182.45805
M204 S3000
M205 X10 Y10
G0 F4500 X80.199 Y79.8
M204 S1800
M205 X8 Y8
G1 F2700 X79.8 Y80.199 E182.4862
G1 X79.8 Y129.801 E184.96085
G1 X80.199 Y130.2 E184.989
G1 X129.801 Y130.2 E187.46366
G1 X130.2 Y129.801 E187.49181
G1 X130.2 Y80.199 E189.96646
G1 X129.801 Y79.8 E189.99461
G1 X80.199 Y79.8 E192.46927
M204 S3000
M205 X10 Y10
G0 F4500 X79.658 Y92.573
M204 S1800
M205 X8 Y8
G1 F2700 X79.039 Y92.93 E192.50492
M204 S3000
M205 X10 Y10
G0 F4500 X79.039 Y114.915
M204 S1800
M205 X8 Y8
G1 F2700 X79.659 Y115.273 E192.54064
M204 S3000
M205 X10 Y10
G0 F4500 X105.754 Y130.339
M204 S1800
M205 X8 Y8
G1 F2700 X106.827 Y130.959 E192.60246
M204 S3000
M205 X10 Y10
G0 F4500 X120 Y130.96
M204 S1800
M205 X8 Y8
G1 F2700 X120 Y130.34 E192.63339
M204 S3000
M205 X10 Y10
G0 F4500 X120 Y79.66
M204 S1800
M205 X8 Y8
G1 F2700 X120 Y79.04 E192.66433
M204 S3000
M205 X10 Y10
G0 F4500 X103.099 Y79.039
M204 S1800
M205 X8 Y8
G1 F2700 X102.024 Y79.66 E192.72626
M204 S3000
M205 X10 Y10
G1 F2400 E186.72626
;MESH:bill_mid1.stl
G0 F4500 X102.024 Y77.4
G0 X77 Y77
M204 S1800
M205 X8 Y8
;TYPE:WALL-INNER
G1 F2400 E192.72626
G1 F2700 X77 Y133 E195.52011
G1 X133 Y133 E198.31397
G1 X133 Y77 E201.10782
G1 X77 Y77 E203.90167
M204 S3000
M205 X10 Y10
G0 F4500 X132.628 Y77.372
G0 X134 Y134
M204 S1800
M205 X8 Y8
G1 F2700 X76 Y134 E206.7953
G1 X76 Y76 E209.68893
G1 X134 Y76 E212.58256
G1 X134 Y134 E215.4762
M204 S3000
M205 X10 Y10
G0 F4500 X134.4 Y134.4
M204 S1800
M205 X8 Y8
G1 F2700 X75.6 Y134.4 E218.40974
G1 X75.6 Y75.6 E221.34328
G1 X134.4 Y75.6 E224.27683
G1 X134.4 Y134.4 E227.21037
M204 S3000
M205 X10 Y10
G0 F4500 X134.33 Y134.33
G0 X77.372 Y132.628
G0 X77.33 Y77.33
G0 X77.4 Y77.4
M204 S1800
M205 X8 Y8
G1 F2700 X77.4 Y132.6 E229.96431
G1 X132.6 Y132.6 E232.71825
G1 X132.6 Y77.4 E235.47219
G1 X77.4 Y77.4 E238.22613
M204 S3000
M205 X10 Y10
G0 F4500 X77.8 Y77.8
M204 S1800
M205 X8 Y8
;TYPE:WALL-OUTER
G1 F2700 X77.8 Y132.2 E240.94016
G1 X132.2 Y132.2 E243.65418
G1 X132.2 Y77.8 E246.36821
G1 X77.8 Y77.8 E249.08224
M204 S3000
M205 X10 Y10
G0 F4500 X77.8 Y78
G0 X77.3 Y78
G0 X77.372 Y132.628
G0 X134.33 Y134.33
G0 X134.8 Y134.8
M204 S1800
M205 X8 Y8
G1 F2700 X75.2 Y134.8 E252.05569
G1 X75.2 Y75.2 E255.02915
G1 X134.8 Y75.2 E258.0026
G1 X134.8 Y134.8 E260.97606
M204 S3000
M205 X10 Y10
G0 F4500 X134.6 Y134.8
G0 X134.33 Y134.33
G0 X133.61 Y133.61
M204 S1800
M205 X8 Y8
;TYPE:SKIN
G1 F1800 X76.39 Y133.61 E263.83078
G1 X76.39 Y76.39 E266.6855
G1 X133.61 Y76.39 E269.54021
G1 X133.61 Y133.61 E272.39493
M204 S3000
M205 X10 Y10
G0 F4500 X133.39 Y133.39
M204 S1800
M205 X8 Y8
G1 F1800 X133.39 Y76.61 E275.2277
G1 X76.61 Y76.61 E278.06046
G1 X76.61 Y133.39 E280.89323
G1 X133.39 Y133.39 E283.72599
M204 S3000
M205 X10 Y10
G1 F2400 E277.72599
G1 F600 Z0.675
;MESH:NONMESH
G0 F4500 X133.39 Y133.39 Z0.675
G0 X78.9 Y78.9
;TIME_ELAPSED:160.228395
;LAYER:2
G0 F6000 X78.9 Y78.9 Z0.975
M204 S1800
M205 X8 Y8
;TYPE:SUPPORT
G1 F600 Z0.9
G1 F2400 E283.72599
G1 F3600 X131.1 Y78.9 E286.33026
G1 X131.1 Y131.1 E288.93453
G1 X78.9 Y131.1 E291.5388
G1 X78.9 Y78.9 E294.14307
M204 S3000
M205 X10 Y10
G0 F6000 X80.199 Y79.8
M204 S1800
M205 X8 Y8
G1 F3600 X79.8 Y80.199 E294.17122
G1 X79.8 Y129.801 E296.64587
G1 X80.199 Y130.2 E296.67402
G1 X129.801 Y130.2 E299.14868
G1 X130.2 Y129.801 E299.17683
G1 X130.2 Y80.199 E301.65148
G1 X129.801 Y79.8 E301.67964
G1 X80.199 Y79.8 E304.15429
M204 S3000
M205 X10 Y10
G0 F6000 X79.658 Y92.573
M204 S1800
M205 X8 Y8
G1 F3600 X79.039 Y92.93 E304.18994
M204 S3000
M205 X10 Y10
G0 F6000 X79.039 Y114.915
M204 S1800
M205 X8 Y8
G1 F3600 X79.659 Y115.273 E304.22566
M204 S3000
M205 X10 Y10
G0 F6000 X105.754 Y130.339
M204 S1800
M205 X8 Y8
G1 F3600 X106.827 Y130.959 E304.28748
M204 S3000
M205 X10 Y10
G0 F6000 X120 Y130.96
M204 S1800
M205 X8 Y8
G1 F3600 X120 Y130.34 E304.31842
M204 S3000
M205 X10 Y10
G0 F6000 X120 Y79.66
M204 S1800
M205 X8 Y8
G1 F3600 X120 Y79.04 E304.34935
M204 S3000
M205 X10 Y10
G0 F6000 X103.099 Y79.039
M204 S1800
M205 X8 Y8
G1 F3600 X102.024 Y79.66 E304.41128
M204 S3000
M205 X10 Y10
G1 F2400 E298.41128
;MESH:bill_mid1.stl
G0 F6000 X102.024 Y77.4
G0 X77 Y77
M204 S1800
M205 X8 Y8
;TYPE:WALL-INNER
G1 F2400 E304.41128
G1 F3600 X77 Y133 E307.20514
G1 X133 Y133 E309.99899
G1 X133 Y77 E312.79284
G1 X77 Y77 E315.58669
M204 S3000
M205 X10 Y10
G0 F6000 X132.628 Y77.372
G0 X134 Y134
M204 S1800
M205 X8 Y8
G1 F3600 X76 Y134 E318.48032
G1 X76 Y76 E321.37395
G1 X134 Y76 E324.26759
G1 X134 Y134 E327.16122
M204 S3000
M205 X10 Y10
G0 F6000 X134.4 Y134.4
M204 S1800
M205 X8 Y8
G1 F3600 X75.6 Y134.4 E330.09476
G1 X75.6 Y75.6 E333.02831
G1 X134.4 Y75.6 E335.96185
G1 X134.4 Y134.4 E338.89539
M204 S3000
M205 X10 Y10
G0 F6000 X134.33 Y134.33
G0 X77.372 Y132.628
G0 X77.33 Y77.33
G0 X77.4 Y77.4
M204 S1800
M205 X8 Y8
G1 F3600 X77.4 Y132.6 E341.64933
G1 X132.6 Y132.6 E344.40327
G1 X132.6 Y77.4 E347.15721
G1 X77.4 Y77.4 E349.91115
M204 S3000
M205 X10 Y10
G0 F6000 X77.8 Y77.8
M204 S1800
M205 X8 Y8
;TYPE:WALL-OUTER
G1 F3600 X77.8 Y132.2 E352.62518
G1 X132.2 Y132.2 E355.3392
G1 X132.2 Y77.8 E358.05323
G1 X77.8 Y77.8 E360.76726
M204 S3000
M205 X10 Y10
G0 F6000 X77.8 Y78
G0 X77.3 Y78
G0 X77.372 Y132.628
G0 X134.33 Y134.33
G0 X134.8 Y134.8
M204 S1800
M205 X8 Y8
G1 F3600 X75.2 Y134.8 E363.74071
G1 X75.2 Y75.2 E366.71417
G1 X134.8 Y75.2 E369.68763
G1 X134.8 Y134.8 E372.66108
M204 S3000
M205 X10 Y10
G0 F6000 X134.6 Y134.8
G0 X134.33 Y134.33
G0 X133.61 Y133.61
M204 S1800
M205 X8 Y8
;TYPE:SKIN
G1 F1800 X76.39 Y133.61 E375.5158
G1 X76.39 Y76.39 E378.37052
G1 X133.61 Y76.39 E381.22523
G1 X133.61 Y133.61 E384.07995
M204 S3000
M205 X10 Y10
G0 F6000 X133.39 Y133.39
M204 S1800
M205 X8 Y8
G1 F1800 X133.39 Y76.61 E386.91272
G1 X76.61 Y76.61 E389.74548
G1 X76.61 Y133.39 E392.57825
G1 X133.39 Y133.39 E395.41101
M204 S3000
M205 X10 Y10
G1 F2400 E389.41101
G1 F600 Z0.975
;MESH:NONMESH
G0 F6000 X133.39 Y133.39 Z0.975
G0 X78.9 Y78.9
;TIME_ELAPSED:213.466678
;LAYER:3
G0 X78.9 Y78.9 Z1.275
M204 S1800
M205 X8 Y8
;TYPE:SUPPORT
G1 F600 Z1.2
G1 F2400 E395.41101
G1 F3600 X131.1 Y78.9 E398.01528
G1 X131.1 Y131.1 E400.61955
G1 X78.9 Y131.1 E403.22382
G1 X78.9 Y78.9 E405.82809
M204 S3000
M205 X10 Y10
G0 F6000 X80.199 Y79.8
M204 S1800
M205 X8 Y8
G1 F3600 X79.8 Y80.199 E405.85624
