;FLAVOR:Marlin
;TIME:367
;Filament used: 0.244128m
;Layer height: 0.2
;MINX:89.941
;MINY:89.612
;MINZ:0.2
;MAXX:119.522
;MAXY:119.262
;MAXZ:7.2
;Generated with Cura_SteamEngine 4.11.0
M140 S60
M105
M190 S60
M104 S200
M105
M109 S200
M82 ;absolute extrusion mode
G21 ;metric values
G90 ;absolute positioning
M82 ;set extruder to absolute mode
M107 ;start with the fan off
G28 X0 Y0 ;move X/Y to min endstops
G28 Z0 ;move Z to min endstops
G1 Z15.0 F100 ;move the platform down 15mm
G92 E0 ;zero the extruded length
G1 F200 E3 ;extrude 3mm of feed stock
G92 E0 ;zero the extruded length again
G1 F100
G0 Y20 F100
M117 Printing...
G5
G92 E0
G92 E0
G1 F2400 E-6
;LAYER_COUNT:36
;LAYER:0
M107
M204 S3000
M205 X10 Y10
G1 F600 Z0.275
G0 F3000 X93.716 Y93.719 Z0.275
M204 S1800
M205 X8 Y8
;TYPE:SKIRT
G1 F600 Z0.2
G1 F2400 E0
G1 X94.566 Y92.881 E0.05558
G1 X95.006 Y92.504 E0.08256
G1 X95.493 Y92.191 E0.10952
G1 X95.95 Y91.974 E0.13307
G1 X96.991 Y91.556 E0.18531
G1 X97.542 Y91.378 E0.21227
G1 X98.113 Y91.277 E0.23927
G1 X98.629 Y91.255 E0.26332
G1 X99.04 Y91.262 E0.28246
G1 X99.704 Y90.678 E0.32364
G1 X100.164 Y90.327 E0.35058
G1 X100.669 Y90.042 E0.37758
G1 X101.207 Y89.829 E0.40453
G1 X101.77 Y89.692 E0.43151
G1 X102.404 Y89.633 E0.46116
G1 X103.598 Y89.612 E0.51676
G1 X103.905 Y89.617 E0.53106
G1 X105.092 Y89.683 E0.58642
G1 X105.667 Y89.755 E0.6134
G1 X106.073 Y89.865 E0.63299
G1 X106.265 Y89.823 E0.64214
G1 X106.992 Y89.781 E0.67605
G1 X108.244 Y89.817 E0.73437
G1 X108.82 Y89.873 E0.76132
G1 X109.551 Y90.065 E0.79651
G1 X110.699 Y90.48 E0.85335
G1 X111.229 Y90.714 E0.88033
G1 X111.908 Y91.166 E0.91831
G1 X112.158 Y91.183 E0.92998
G1 X112.725 Y91.302 E0.95695
G1 X113.27 Y91.498 E0.98392
G1 X113.783 Y91.767 E1.0109
G1 X114.052 Y91.947 E1.02597
G1 X114.552 Y92.311 E1.05477
G1 X114.996 Y92.684 E1.08177
G1 X115.384 Y93.114 E1.10874
G1 X115.709 Y93.593 E1.13569
G1 X115.904 Y93.917 E1.1533
G1 X116.276 Y94.361 E1.18027
G1 X116.583 Y94.852 E1.20723
G1 X116.82 Y95.381 E1.23423
G1 X116.981 Y95.937 E1.26118
G1 X117.063 Y96.49 E1.28721
G1 X117.098 Y96.922 E1.30739
G1 X117.105 Y97.501 E1.33435
G1 X117.032 Y98.076 E1.36134
G1 X116.881 Y98.635 E1.38831
G1 X116.619 Y99.235 E1.41879
G1 X116.349 Y99.742 E1.44554
G1 X116.042 Y100.234 E1.47254
G1 X115.671 Y100.678 E1.49949
G1 X115.373 Y100.959 E1.51856
G1 X115.913 Y101.029 E1.54391
G1 X116.472 Y101.181 E1.57089
G1 X117.004 Y101.409 E1.59784
G1 X117.5 Y101.708 E1.62481
G1 X117.951 Y102.073 E1.65182
G1 X118.347 Y102.496 E1.6788
G1 X118.68 Y102.969 E1.70574
G1 X118.946 Y103.484 E1.73273
G1 X119.122 Y103.974 E1.75697
G1 X119.355 Y104.775 E1.79582
G1 X119.478 Y105.341 E1.82279
G1 X119.522 Y105.919 E1.84978
G1 X119.486 Y106.497 E1.87675
G1 X119.409 Y106.914 E1.89649
G1 X119.055 Y108.414 E1.96826
G1 X118.758 Y109.633 E2.02668
G1 X118.582 Y110.185 E2.05366
G1 X118.332 Y110.708 E2.08065
G1 X117.949 Y111.273 E2.11243
G1 X117.313 Y112.063 E2.15966
G1 X116.853 Y112.549 E2.19082
G1 X116.145 Y113.187 E2.2352
G1 X115.577 Y113.617 E2.26837
G1 X115.077 Y113.933 E2.29591
G1 X114.088 Y114.869 E2.35932
G1 X113.548 Y115.301 E2.39152
G1 X113.059 Y115.63 E2.41896
G1 X112.45 Y116.22 E2.45844
G1 X111.399 Y117.218 E2.52593
G1 X110.952 Y117.587 E2.55292
G1 X110.687 Y117.762 E2.56771
G1 X109.618 Y118.411 E2.62594
G1 X109.103 Y118.677 E2.65293
G1 X108.556 Y118.869 E2.67993
G1 X107.778 Y119.007 E2.71672
G1 X106.712 Y119.094 E2.76652
G1 X105.784 Y119.191 E2.80997
G1 X105.518 Y119.21 E2.82239
G1 X104.247 Y119.262 E2.88162
G1 X103.668 Y119.246 E2.90859
G1 X103.337 Y119.201 E2.92414
G1 X102.183 Y118.995 E2.97873
G1 X101.621 Y118.854 E3.00571
G1 X101.084 Y118.637 E3.03268
G1 X100.444 Y118.252 E3.06746
G1 X99.762 Y117.754 E3.10678
G1 X99.319 Y117.381 E3.13374
G1 X98.931 Y116.95 E3.16075
G1 X98.607 Y116.471 E3.18767
G1 X98.351 Y115.951 E3.21466
G1 X98.246 Y115.663 E3.22894
G1 X97.985 Y114.862 E3.26816
G1 X97.844 Y114.3 E3.29515
G1 X97.781 Y113.724 E3.32213
G1 X97.799 Y113.145 E3.3491
G1 X97.896 Y112.574 E3.37607
G1 X98.004 Y112.201 E3.39415
G1 X98.443 Y110.918 E3.45729
G1 X98.668 Y110.384 E3.48428
G1 X99.01 Y109.822 E3.51491
G1 X99.841 Y108.669 E3.58109
G1 X100.449 Y107.807 E3.63021
G1 X101.031 Y106.916 E3.67976
G1 X101.16 Y106.73 E3.6903
G1 X101.908 Y105.71 E3.7492
G1 X102.144 Y105.423 E3.7665
G1 X101.863 Y105.436 E3.7796
G1 X101.05 Y105.336 E3.81774
G1 X100.115 Y105.127 E3.86235
G1 X99.559 Y104.962 E3.88936
G1 X99.104 Y104.739 E3.91295
G1 X98.704 Y104.729 E3.93159
G1 X98.132 Y104.636 E3.95857
G1 X97.763 Y104.522 E3.97655
G1 X97.538 Y104.661 E3.98887
G1 X97.008 Y104.895 E4.01585
G1 X96.45 Y105.054 E4.04286
G1 X95.877 Y105.135 E4.06981
G1 X95.581 Y105.145 E4.0836
G1 X94.889 Y105.145 E4.11582
G1 X94.311 Y105.105 E4.1428
G1 X93.744 Y104.986 E4.16978
G1 X93.199 Y104.79 E4.19675
G1 X92.686 Y104.521 E4.22372
G1 X92.418 Y104.341 E4.23875
G1 X91.856 Y103.932 E4.27112
G1 X91.412 Y103.56 E4.29809
G1 X91.024 Y103.13 E4.32506
G1 X90.698 Y102.65 E4.35208
G1 X90.442 Y102.131 E4.37902
G1 X90.236 Y101.487 E4.41051
G1 X90.045 Y100.665 E4.4498
G1 X89.953 Y100.093 E4.47678
G1 X89.941 Y99.513 E4.50379
G1 X90.008 Y98.938 E4.53075
G1 X90.145 Y98.406 E4.55633
G1 X90.361 Y97.747 E4.58862
G1 X90.579 Y97.21 E4.61561
G1 X90.869 Y96.708 E4.6426
G1 X91.225 Y96.251 E4.66958
G1 X91.64 Y95.848 E4.69651
G1 X92.293 Y95.395 E4.73352
G1 X92.542 Y95.24 E4.74718
G1 X93.267 Y94.241 E4.80466
G1 X93.716 Y93.719 E4.83672
M204 S3000
M205 X10 Y10
G0 F3000 X94.109 Y94.118
M204 S1800
M205 X8 Y8
G1 F2400 X94.959 Y93.28 E4.8923
G1 X95.37 Y92.931 E4.9174
G1 X95.829 Y92.646 E4.94256
G1 X96.159 Y92.494 E4.95948
G1 X97.2 Y92.076 E5.01171
G1 X97.714 Y91.913 E5.03682
G1 X98.246 Y91.827 E5.06192
G1 X98.62 Y91.815 E5.07934
G1 X99.248 Y91.826 E5.10859
G1 X100.074 Y91.099 E5.15982
G1 X100.504 Y90.774 E5.18492
G1 X100.978 Y90.516 E5.21005
G1 X101.484 Y90.33 E5.23516
G1 X102.012 Y90.222 E5.26025
G1 X102.414 Y90.193 E5.27902
G1 X103.608 Y90.172 E5.33462
G1 X103.874 Y90.177 E5.34701
G1 X105.061 Y90.243 E5.40237
G1 X105.596 Y90.312 E5.42749
G1 X106.02 Y90.449 E5.44824
G1 X106.382 Y90.372 E5.46547
G1 X106.976 Y90.341 E5.49317
G1 X108.228 Y90.377 E5.55149
G1 X108.764 Y90.432 E5.57658
G1 X109.36 Y90.592 E5.60531
G1 X110.508 Y91.007 E5.66215
G1 X111.001 Y91.227 E5.68729
G1 X111.582 Y91.618 E5.7199
G1 X111.696 Y91.712 E5.72678
G1 X112.118 Y91.743 E5.74648
G1 X112.644 Y91.862 E5.7716
G1 X113.146 Y92.057 E5.79667
G1 X113.722 Y92.4 E5.82789
G1 X114.222 Y92.764 E5.85669
G1 X114.634 Y93.113 E5.88183
G1 X114.989 Y93.519 E5.90694
G1 X115.28 Y93.973 E5.93205
G1 X115.376 Y94.196 E5.94336
G1 X115.551 Y94.36 E5.95453
G1 X115.887 Y94.782 E5.97964
G1 X116.156 Y95.249 E6.00474
G1 X116.354 Y95.751 E6.02987
G1 X116.505 Y96.535 E6.06704
G1 X116.54 Y96.967 E6.08723
G1 X116.544 Y97.506 E6.11232
G1 X116.468 Y98.04 E6.13744
G1 X116.313 Y98.557 E6.16257
G1 X116.125 Y98.972 E6.18379
G1 X115.855 Y99.479 E6.21053
G1 X115.567 Y99.935 E6.23565
G1 X115.03 Y100.515 E6.27245
G1 X114.915 Y100.615 E6.27955
G1 X114.483 Y100.937 E6.30464
G1 X114.074 Y101.158 E6.32629
G1 X114.249 Y101.611 E6.3489
G1 X114.343 Y101.584 E6.35345
G1 X114.877 Y101.513 E6.37854
G1 X115.417 Y101.522 E6.40368
G1 X115.949 Y101.61 E6.42879
G1 X116.462 Y101.776 E6.4539
G1 X116.945 Y102.016 E6.47901
G1 X117.387 Y102.324 E6.5041
G1 X117.779 Y102.695 E6.52923
G1 X118.112 Y103.119 E6.55434
G1 X118.378 Y103.588 E6.57944
G1 X118.584 Y104.13 E6.60644
G1 X118.817 Y104.931 E6.64529
G1 X118.929 Y105.459 E6.67042
G1 X118.962 Y105.997 E6.69552
G1 X118.864 Y106.785 E6.73249
G1 X118.511 Y108.282 E6.80411
G1 X118.214 Y109.501 E6.86253
G1 X118.047 Y110.014 E6.88765
G1 X117.807 Y110.497 E6.91277
G1 X117.512 Y110.922 E6.93686
G1 X116.876 Y111.712 E6.98408
G1 X116.478 Y112.133 E7.01106
G1 X115.77 Y112.771 E7.05544
G1 X115.278 Y113.144 E7.08419
G1 X114.729 Y113.491 E7.11443
G1 X113.703 Y114.462 E7.18021
G1 X113.235 Y114.837 E7.20813
G1 X112.703 Y115.195 E7.23799
G1 X112.064 Y115.814 E7.27942
G1 X111.013 Y116.812 E7.3469
G1 X110.396 Y117.283 E7.38305
G1 X109.327 Y117.932 E7.44128
G1 X108.847 Y118.177 E7.46638
G1 X108.335 Y118.349 E7.49153
G1 X107.733 Y118.449 E7.51994
G1 X106.652 Y118.537 E7.57044
G1 X105.726 Y118.634 E7.6138
G1 X105.495 Y118.651 E7.62458
G1 X104.224 Y118.703 E7.68382
G1 X103.435 Y118.649 E7.72064
G1 X102.281 Y118.443 E7.77523
G1 X101.759 Y118.31 E7.80031
G1 X101.262 Y118.1 E7.82543
G1 X100.774 Y117.8 E7.85211
G1 X100.092 Y117.302 E7.89143
G1 X99.682 Y116.952 E7.91653
G1 X99.327 Y116.546 E7.94164
G1 X99.036 Y116.092 E7.96675
G1 X98.778 Y115.49 E7.99725
G1 X98.517 Y114.689 E8.03648
G1 X98.388 Y114.165 E8.06161
G1 X98.339 Y113.628 E8.08671
G1 X98.369 Y113.09 E8.11181
G1 X98.534 Y112.383 E8.14561
G1 X98.973 Y111.1 E8.20875
G1 X99.185 Y110.604 E8.23387
G1 X99.464 Y110.15 E8.25868
G1 X100.273 Y109.027 E8.32313
G1 X100.927 Y108.1 E8.37596
G1 X101.5 Y107.223 E8.42474
G1 X101.612 Y107.061 E8.43391
G1 X102.36 Y106.041 E8.49281
G1 X102.619 Y105.727 E8.51176
G1 X103.009 Y105.304 E8.53855
G1 X103.403 Y104.935 E8.56369
G1 X103.524 Y104.851 E8.57054
G1 X103.431 Y104.558 E8.58486
G1 X103.209 Y104.658 E8.5962
G1 X102.69 Y104.804 E8.6213
G1 X102.155 Y104.872 E8.64641
G1 X101.616 Y104.86 E8.67152
G1 X101.172 Y104.789 E8.69245
G1 X100.237 Y104.58 E8.73707
G1 X99.721 Y104.424 E8.76217
G1 X99.235 Y104.183 E8.78743
G1 X99.22 Y104.185 E8.78813
G1 X98.682 Y104.164 E8.8132
G1 X98.152 Y104.063 E8.83833
G1 X97.699 Y103.905 E8.86067
G1 X97.244 Y104.183 E8.88549
G1 X96.747 Y104.393 E8.91062
G1 X96.225 Y104.528 E8.93572
G1 X95.581 Y104.585 E8.96583
G1 X94.889 Y104.585 E8.99805
G1 X94.351 Y104.545 E9.02317
G1 X93.825 Y104.426 E9.04828
G1 X93.323 Y104.231 E9.07336
G1 X92.747 Y103.888 E9.10458
G1 X92.185 Y103.479 E9.13694
G1 X91.774 Y103.13 E9.16205
G1 X91.419 Y102.725 E9.18713
G1 X91.127 Y102.271 E9.21226
G1 X90.906 Y101.779 E9.23738
G1 X90.781 Y101.36 E9.25774
G1 X90.59 Y100.538 E9.29703
G1 X90.508 Y100.005 E9.32214
G1 X90.504 Y99.466 E9.34724
G1 X90.581 Y98.932 E9.37236
G1 X90.677 Y98.58 E9.38935
G1 X90.893 Y97.921 E9.42164
G1 X91.099 Y97.423 E9.44674
G1 X91.375 Y96.96 E9.47184
G1 X91.718 Y96.543 E9.49698
G1 X92.118 Y96.181 E9.5221
G1 X92.567 Y95.883 E9.54719
G1 X92.913 Y95.688 E9.56569
G1 X93.042 Y95.503 E9.57619
G1 X93.72 Y94.57 E9.62989
G1 X94.109 Y94.118 E9.65766
M204 S3000
M205 X10 Y10
G0 F3000 X94.503 Y94.517
M204 S1800
M205 X8 Y8
G1 F2400 X95.353 Y93.679 E9.71324
G1 X95.733 Y93.36 E9.73635
G1 X96.367 Y93.014 E9.76998
G1 X97.408 Y92.596 E9.82221
G1 X97.882 Y92.449 E9.84532
G1 X98.61 Y92.374 E9.8794
G1 X99.455 Y92.389 E9.91875
G1 X100.444 Y91.519 E9.98009
G1 X100.841 Y91.223 E10.00314
G1 X101.281 Y90.994 E10.02624
G1 X101.752 Y90.839 E10.04933
G1 X102.424 Y90.752 E10.08088
G1 X103.618 Y90.731 E10.13649
G1 X103.843 Y90.736 E10.14697
G1 X105.03 Y90.802 E10.20233
G1 X105.521 Y90.869 E10.2254
G1 X106.011 Y91.021 E10.24929
G1 X106.497 Y90.922 E10.27238
G1 X106.96 Y90.9 E10.29397
G1 X108.212 Y90.936 E10.35229
G1 X108.705 Y90.99 E10.37538
G1 X109.17 Y91.118 E10.39784
G1 X110.318 Y91.533 E10.45468
G1 X110.769 Y91.739 E10.47777
G1 X111.226 Y92.05 E10.50351
G1 X111.485 Y92.263 E10.51912
G1 X112.074 Y92.303 E10.54661
G1 X112.556 Y92.422 E10.56973
G1 X113.012 Y92.616 E10.59281
G1 X113.393 Y92.853 E10.6137
G1 X113.893 Y93.217 E10.6425
G1 X114.269 Y93.54 E10.66558
G1 X114.588 Y93.92 E10.68868
G1 X114.919 Y94.533 E10.72112
G1 X115.193 Y94.799 E10.7389
G1 X115.489 Y95.197 E10.762
G1 X115.717 Y95.637 E10.78508
G1 X115.872 Y96.109 E10.80821
G1 X115.982 Y97.012 E10.85057
G1 X115.982 Y97.508 E10.87366
G1 X115.903 Y97.998 E10.89677
G1 X115.631 Y98.709 E10.93222
G1 X115.361 Y99.216 E10.95897
G1 X115.093 Y99.633 E10.98205
G1 X114.663 Y100.092 E11.01134
G1 X114.149 Y100.486 E11.04149
G1 X113.707 Y100.713 E11.06463
G1 X113.346 Y100.83 E11.0823
G1 X113.865 Y102.169 E11.14917
G1 X113.907 Y102.311 E11.15606
G1 X114.497 Y102.124 E11.18488
G1 X114.99 Y102.069 E11.20798
G1 X115.485 Y102.093 E11.23106
G1 X115.97 Y102.196 E11.25415
G1 X116.432 Y102.375 E11.27722
G1 X116.86 Y102.627 E11.30034
G1 X117.241 Y102.944 E11.32342
G1 X117.567 Y103.318 E11.34653
G1 X117.829 Y103.739 E11.36962
G1 X118.046 Y104.287 E11.39706
G1 X118.279 Y105.088 E11.4359
G1 X118.379 Y105.574 E11.45901
G1 X118.4 Y106.069 E11.48208
G1 X118.319 Y106.657 E11.50972
G1 X117.966 Y108.149 E11.58111
G1 X117.669 Y109.368 E11.63953
G1 X117.514 Y109.839 E11.66262
G1 X117.284 Y110.279 E11.68574
G1 X117.076 Y110.57 E11.70239
G1 X116.44 Y111.36 E11.74962
G1 X116.103 Y111.717 E11.77248
G1 X115.395 Y112.355 E11.81686
G1 X114.979 Y112.671 E11.84118
G1 X114.381 Y113.049 E11.87412
G1 X113.318 Y114.055 E11.94227
G1 X112.922 Y114.372 E11.96589
G1 X112.351 Y114.757 E11.99796
G1 X111.679 Y115.407 E12.0415
G1 X110.628 Y116.405 E12.10898
G1 X110.105 Y116.805 E12.13964
G1 X109.036 Y117.454 E12.19787
G1 X108.593 Y117.676 E12.22095
G1 X108.12 Y117.825 E12.24404
G1 X107.687 Y117.891 E12.26443
G1 X106.59 Y117.98 E12.31568
G1 X105.667 Y118.077 E12.3589
G1 X105.472 Y118.091 E12.368
G1 X104.201 Y118.143 E12.42723
G1 X103.534 Y118.098 E12.45836
G1 X102.38 Y117.892 E12.51295
G1 X101.9 Y117.766 E12.53606
G1 X101.447 Y117.564 E12.55915
G1 X101.105 Y117.347 E12.57801
G1 X100.423 Y116.849 E12.61733
G1 X100.047 Y116.526 E12.64042
G1 X99.728 Y116.146 E12.66352
G1 X99.474 Y115.72 E12.68661
G1 X99.311 Y115.316 E12.7069
G1 X99.05 Y114.515 E12.74613
G1 X98.934 Y114.033 E12.76921
G1 X98.898 Y113.538 E12.79232
G1 X98.942 Y113.044 E12.81541
G1 X99.064 Y112.564 E12.83848
G1 X99.503 Y111.281 E12.90162
G1 X99.701 Y110.826 E12.92472
G1 X99.918 Y110.477 E12.94386
G1 X100.749 Y109.324 E13.01004
G1 X101.389 Y108.417 E13.06173
G1 X101.969 Y107.529 E13.11112
G1 X102.063 Y107.393 E13.11882
G1 X102.811 Y106.373 E13.17771
G1 X103.031 Y106.106 E13.19382
G1 X103.421 Y105.683 E13.22061
G1 X103.785 Y105.347 E13.24368
G1 X104.257 Y105.047 E13.26972
G1 X104.098 Y104.769 E13.28463
G1 X103.858 Y104.036 E13.32055
G1 X103.796 Y103.71 E13.336
G1 X103.328 Y103.999 E13.36161
G1 X102.867 Y104.182 E13.38471
G1 X102.383 Y104.289 E13.40779
G1 X101.887 Y104.316 E13.43092
G1 X101.294 Y104.243 E13.45874
G1 X100.359 Y104.034 E13.50335
G1 X99.885 Y103.887 E13.52646
G1 X99.415 Y103.65 E13.55097
G1 X99.345 Y103.607 E13.5548
G1 X98.666 Y103.597 E13.58642
G1 X98.182 Y103.489 E13.60951
G1 X97.642 Y103.257 E13.63688
G1 X96.952 Y103.703 E13.67513
G1 X96.492 Y103.887 E13.6982
G1 X96.008 Y103.995 E13.72129
G1 X95.581 Y104.025 E13.74123
G1 X94.889 Y104.025 E13.77345
G1 X94.395 Y103.985 E13.79653
G1 X93.913 Y103.866 E13.81964
G1 X93.457 Y103.672 E13.84272
G1 X93.077 Y103.435 E13.86357
G1 X92.515 Y103.026 E13.89594
G1 X92.138 Y102.703 E13.91905
G1 X91.819 Y102.324 E13.94212
G1 X91.565 Y101.898 E13.96522
G1 X91.327 Y101.233 E13.9981
G1 X91.136 Y100.411 E14.0374
G1 X91.063 Y99.921 E14.06047
G1 X91.07 Y99.425 E14.08357
G1 X91.209 Y98.755 E14.11543
G1 X91.425 Y98.096 E14.14772
G1 X91.617 Y97.638 E14.17085
G1 X91.88 Y97.218 E14.19392
G1 X92.207 Y96.845 E14.21702
G1 X92.842 Y96.371 E14.25392
G1 X93.298 Y96.114 E14.27829
G1 X93.495 Y95.832 E14.29431
G1 X94.173 Y94.899 E14.34801
G1 X94.503 Y94.517 E14.37152
M204 S3000
M205 X10 Y10
G0 F3000 X94.896 Y94.915
M204 S1800
M205 X8 Y8
G1 F2400 X95.746 Y94.077 E14.4271
G1 X96.092 Y93.792 E14.44797
G1 X96.576 Y93.533 E14.47353
G1 X97.617 Y93.115 E14.52577
G1 X98.046 Y92.986 E14.54663
G1 X98.6 Y92.934 E14.57254
G1 X99.663 Y92.953 E14.62204
G1 X100.814 Y91.94 E14.69344
G1 X101.175 Y91.675 E14.71429
G1 X101.579 Y91.478 E14.73522
G1 X102.01 Y91.356 E14.75608
G1 X102.434 Y91.312 E14.77593
G1 X103.628 Y91.291 E14.83153
G1 X103.812 Y91.295 E14.8401
G1 X104.999 Y91.361 E14.89546
G1 X105.443 Y91.426 E14.91635
G1 X105.974 Y91.615 E14.9426
G1 X106.608 Y91.473 E14.97285
G1 X106.943 Y91.46 E14.98846
G1 X108.195 Y91.496 E15.04679
G1 X108.641 Y91.549 E15.0677
G1 X108.98 Y91.645 E15.08411
G1 X110.128 Y92.06 E15.14095
G1 X110.534 Y92.25 E15.16182
G1 X110.871 Y92.483 E15.1809
G1 X111.285 Y92.823 E15.20584
G1 X112.027 Y92.863 E15.24044
G1 X112.459 Y92.981 E15.2613
G1 X113.063 Y93.306 E15.29323
G1 X113.563 Y93.67 E15.32203
G1 X113.901 Y93.965 E15.34292
G1 X114.181 Y94.315 E15.36379
