;FLAVOR:Marlin
;TIME:11479
;Filament used: 18.0707m
;Layer height: 0.3
;MINX:69.671
;MINY:46.116
;MINZ:0.3
;MAXX:164.884
;MAXY:188.908
;MAXZ:153.9
;Generated with Cura_SteamEngine 4.11.0
M140 S60
M105
M190 S60
M104 S200
M105
M109 S200
M82 ;absolute extrusion mode
G21 ;metric values
G90 ;absolute positioning
M82 ;set extruder to absolute mode
M107 ;start with the fan off
G28 X0 Y0 ;move X/Y to min endstops
G28 Z0 ;move Z to min endstops
G1 Z15.0 F100 ;move the platform down 15mm
G92 E0 ;zero the extruded length
G1 F200 E3 ;extrude 3mm of feed stock
G92 E0 ;zero the extruded length again
G1 F100
G0 Y20 F100
M117 Printing...
G5
G92 E0
G92 E0
G1 F2400 E-6
;LAYER_COUNT:513
;LAYER:0
M107
M204 S3000
M205 X10 Y10
G1 F600 Z0.375
G0 F3000 X70.699 Y49.167 Z0.375
M204 S1800
M205 X8 Y8
;TYPE:SKIRT
G1 F600 Z0.3
G1 F2400 E0
G1 X71.119 Y48.588 E0.04996
G1 X71.594 Y48.067 E0.0992
G1 X71.707 Y47.956 E0.11027
G1 X72.245 Y47.484 E0.16026
G1 X72.831 Y47.075 E0.21017
G1 X73.46 Y46.734 E0.26014
G1 X74.123 Y46.466 E0.31009
G1 X74.812 Y46.273 E0.36007
G1 X75.518 Y46.158 E0.41003
G1 X76.041 Y46.124 E0.44664
G1 X76.59 Y46.116 E0.48499
G1 X77.096 Y46.124 E0.52033
G1 X77.81 Y46.175 E0.57033
G1 X78.513 Y46.306 E0.62028
G1 X79.197 Y46.514 E0.67021
G1 X82.545 Y47.916 E0.92373
G1 X85.026 Y48.875 E1.10952
G1 X87.485 Y49.74 E1.29159
G1 X89.991 Y50.547 E1.47547
G1 X92.561 Y51.294 E1.66241
G1 X95.149 Y51.967 E1.84918
G1 X97.683 Y52.552 E2.03083
G1 X100.301 Y53.079 E2.21735
G1 X102.907 Y53.524 E2.40201
G1 X105.519 Y53.896 E2.58629
G1 X108.153 Y54.196 E2.77145
G1 X110.784 Y54.42 E2.95588
G1 X113.456 Y54.571 E3.14281
G1 X116.066 Y54.646 E3.32518
G1 X118.709 Y54.646 E3.50979
G1 X121.382 Y54.571 E3.69656
G1 X124.028 Y54.421 E3.88167
G1 X126.656 Y54.199 E4.06588
G1 X129.289 Y53.9 E4.25096
G1 X131.91 Y53.527 E4.43588
G1 X134.494 Y53.085 E4.61898
G1 X137.09 Y52.566 E4.80389
G1 X139.692 Y51.966 E4.9904
G1 X142.255 Y51.3 E5.17536
G1 X144.798 Y50.561 E5.36033
G1 X147.303 Y49.755 E5.54413
G1 X149.83 Y48.864 E5.73128
G1 X152.237 Y47.937 E5.91143
G1 X154.76 Y46.884 E6.10239
G1 X155.387 Y46.616 E6.15002
G1 X156.062 Y46.378 E6.20001
G1 X156.759 Y46.217 E6.24997
G1 X157.624 Y46.127 E6.31071
G1 X158.55 Y46.121 E6.37539
G1 X159.264 Y46.17 E6.42538
G1 X159.967 Y46.297 E6.47528
G1 X160.652 Y46.503 E6.52524
G1 X161.31 Y46.783 E6.57519
G1 X161.933 Y47.136 E6.6252
G1 X162.512 Y47.555 E6.67512
G1 X163.041 Y48.037 E6.72511
G1 X163.513 Y48.574 E6.77504
G1 X163.922 Y49.161 E6.82501
G1 X164.263 Y49.79 E6.87499
G1 X164.532 Y50.453 E6.92496
G1 X164.725 Y51.141 E6.97487
G1 X164.839 Y51.847 E7.02482
G1 X164.881 Y52.663 E7.08189
G1 X164.884 Y52.842 E7.09439
G1 X164.884 Y181.855 E16.10547
G1 X164.875 Y182.582 E16.15626
G1 X164.826 Y183.296 E16.20624
G1 X164.698 Y184 E16.25622
G1 X164.492 Y184.685 E16.30618
G1 X164.211 Y185.342 E16.35609
G1 X163.858 Y185.965 E16.40611
G1 X163.438 Y186.544 E16.45607
G1 X162.956 Y187.072 E16.506
G1 X162.419 Y187.544 E16.55594
G1 X161.831 Y187.952 E16.60593
G1 X161.202 Y188.293 E16.6559
G1 X160.539 Y188.561 E16.70585
G1 X159.85 Y188.753 E16.75581
G1 X159.144 Y188.868 E16.80577
G1 X158.642 Y188.901 E16.84091
G1 X157.744 Y188.9 E16.90363
G1 X157.03 Y188.849 E16.95363
G1 X156.327 Y188.718 E17.00357
G1 X155.643 Y188.51 E17.05351
G1 X152.308 Y187.113 E17.30606
G1 X149.817 Y186.15 E17.49259
G1 X147.388 Y185.295 E17.67245
G1 X144.828 Y184.472 E17.86027
G1 X142.29 Y183.733 E18.0449
G1 X139.729 Y183.066 E18.22975
G1 X137.171 Y182.476 E18.4131
G1 X134.53 Y181.945 E18.60126
G1 X131.968 Y181.506 E18.78281
G1 X129.333 Y181.131 E18.96871
G1 X126.701 Y180.831 E19.15374
G1 X124.073 Y180.607 E19.33796
G1 X121.393 Y180.455 E19.52545
G1 X118.788 Y180.38 E19.70747
G1 X116.145 Y180.38 E19.89208
G1 X113.467 Y180.455 E20.0792
G1 X110.829 Y180.603 E20.26374
G1 X108.198 Y180.826 E20.44817
G1 X105.565 Y181.125 E20.63326
G1 X102.944 Y181.498 E20.81817
G1 X100.36 Y181.94 E21.00127
G1 X97.747 Y182.463 E21.1874
G1 X95.183 Y183.052 E21.37115
G1 X92.59 Y183.727 E21.5583
G1 X90.056 Y184.463 E21.7426
G1 X87.559 Y185.265 E21.92578
G1 X85.032 Y186.156 E22.11294
G1 X82.596 Y187.094 E22.29526
G1 X80.593 Y187.922 E22.44664
G1 X79.5 Y188.388 E22.52963
G1 X78.827 Y188.632 E22.57963
G1 X78.132 Y188.799 E22.62956
G1 X77.139 Y188.9 E22.69927
G1 X76.601 Y188.908 E22.73686
G1 X76.104 Y188.901 E22.77157
G1 X75.39 Y188.851 E22.82157
G1 X74.687 Y188.722 E22.87149
G1 X74.002 Y188.515 E22.92147
G1 X73.345 Y188.233 E22.97141
G1 X72.723 Y187.879 E23.02139
G1 X72.145 Y187.458 E23.07134
G1 X71.669 Y187.027 E23.11619
G1 X71.556 Y186.914 E23.12735
G1 X71.079 Y186.381 E23.17731
G1 X70.665 Y185.798 E23.22725
G1 X70.318 Y185.172 E23.27725
G1 X70.043 Y184.512 E23.32719
G1 X69.844 Y183.825 E23.37714
G1 X69.723 Y183.12 E23.4271
G1 X69.685 Y182.617 E23.46234
G1 X69.671 Y181.849 E23.51599
G1 X69.671 Y53.231 E32.49948
G1 X69.68 Y52.549 E32.54712
G1 X69.729 Y51.835 E32.5971
G1 X69.858 Y51.131 E32.6471
G1 X70.064 Y50.447 E32.69699
G1 X70.346 Y49.789 E32.74699
G1 X70.699 Y49.167 E32.79694
M204 S3000
M205 X10 Y10
G0 F3000 X71.254 Y49.343
M204 S1800
M205 X8 Y8
G1 F2400 X71.671 Y48.802 E32.84465
G1 X72.1 Y48.356 E32.88788
G1 X72.614 Y47.906 E32.93559
G1 X73.178 Y47.52 E32.98333
G1 X73.782 Y47.202 E33.03101
G1 X74.42 Y46.957 E33.07874
G1 X75.082 Y46.788 E33.12646
G1 X76.054 Y46.684 E33.19474
G1 X76.581 Y46.676 E33.23155
G1 X77.087 Y46.684 E33.2669
G1 X77.769 Y46.734 E33.31466
G1 X78.439 Y46.864 E33.36233
G1 X79.332 Y47.171 E33.42829
G1 X79.821 Y47.384 E33.46554
G1 X82.297 Y48.42 E33.65301
G1 X84.836 Y49.401 E33.84313
G1 X87.328 Y50.278 E34.02765
G1 X89.84 Y51.086 E34.21195
G1 X92.398 Y51.83 E34.39802
G1 X94.985 Y52.503 E34.58473
G1 X97.592 Y53.104 E34.7716
G1 X100.2 Y53.629 E34.95741
G1 X102.808 Y54.075 E35.14221
G1 X105.447 Y54.451 E35.3284
G1 X108.112 Y54.754 E35.51574
G1 X110.742 Y54.978 E35.7001
G1 X113.408 Y55.129 E35.88661
G1 X116.085 Y55.206 E36.07366
G1 X118.725 Y55.206 E36.25806
G1 X121.394 Y55.131 E36.44455
G1 X124.072 Y54.98 E36.6319
G1 X126.694 Y54.757 E36.81569
G1 X129.361 Y54.455 E37.00317
G1 X132.009 Y54.078 E37.18998
G1 X134.595 Y53.636 E37.37323
G1 X137.215 Y53.112 E37.55985
G1 X139.823 Y52.511 E37.74678
G1 X142.408 Y51.839 E37.93333
G1 X144.959 Y51.098 E38.11888
G1 X147.473 Y50.289 E38.30334
G1 X150.009 Y49.395 E38.49115
G1 X152.477 Y48.444 E38.67589
G1 X154.971 Y47.403 E38.86465
G1 X155.603 Y47.133 E38.91265
G1 X156.248 Y46.907 E38.96039
G1 X156.914 Y46.758 E39.00806
G1 X157.644 Y46.687 E39.05928
G1 X158.543 Y46.681 E39.12208
G1 X159.225 Y46.729 E39.16983
G1 X159.896 Y46.857 E39.21754
G1 X160.548 Y47.061 E39.26526
G1 X161.171 Y47.341 E39.31297
G1 X161.758 Y47.691 E39.3607
G1 X162.3 Y48.108 E39.40847
G1 X162.789 Y48.585 E39.45618
G1 X163.219 Y49.115 E39.50385
G1 X163.584 Y49.693 E39.5516
G1 X163.88 Y50.309 E39.59933
G1 X164.101 Y50.955 E39.64702
G1 X164.246 Y51.623 E39.69476
G1 X164.313 Y52.357 E39.74624
G1 X164.324 Y52.842 E39.78013
G1 X164.324 Y181.848 E48.79072
G1 X164.315 Y182.575 E48.8415
G1 X164.266 Y183.257 E48.88926
G1 X164.138 Y183.928 E48.93697
G1 X163.933 Y184.58 E48.98471
G1 X163.653 Y185.203 E49.03241
G1 X163.303 Y185.789 E49.08009
G1 X162.886 Y186.331 E49.12785
G1 X162.409 Y186.82 E49.17557
G1 X161.878 Y187.249 E49.22325
G1 X161.3 Y187.614 E49.27099
G1 X160.684 Y187.909 E49.3187
G1 X160.037 Y188.13 E49.36645
G1 X159.369 Y188.274 E49.41418
G1 X158.628 Y188.341 E49.46615
G1 X157.753 Y188.34 E49.52726
G1 X157.071 Y188.289 E49.57503
G1 X156.401 Y188.159 E49.6227
G1 X155.507 Y187.852 E49.68872
G1 X155.038 Y187.647 E49.72447
G1 X152.541 Y186.603 E49.91351
G1 X149.997 Y185.62 E50.104
G1 X147.569 Y184.765 E50.2838
G1 X144.979 Y183.932 E50.47382
G1 X142.476 Y183.204 E50.65589
G1 X139.86 Y182.522 E50.84472
G1 X137.262 Y181.924 E51.03093
G1 X134.632 Y181.394 E51.21831
G1 X132.067 Y180.955 E51.40007
G1 X129.371 Y180.571 E51.59028
G1 X126.777 Y180.276 E51.77263
G1 X124.115 Y180.049 E51.95924
G1 X121.441 Y179.897 E52.14631
G1 X118.769 Y179.82 E52.33301
G1 X116.129 Y179.82 E52.51741
G1 X113.455 Y179.895 E52.70425
G1 X110.785 Y180.045 E52.89103
G1 X108.16 Y180.268 E53.07504
G1 X105.493 Y180.57 E53.26251
G1 X102.845 Y180.947 E53.44933
G1 X100.259 Y181.389 E53.63257
G1 X97.648 Y181.911 E53.81855
G1 X95.028 Y182.514 E54.00633
G1 X92.437 Y183.188 E54.19332
G1 X89.906 Y183.923 E54.37741
G1 X87.335 Y184.749 E54.56602
G1 X84.864 Y185.621 E54.74904
G1 X82.382 Y186.576 E54.93479
G1 X80.379 Y187.404 E55.08618
G1 X79.28 Y187.873 E55.16964
G1 X78.637 Y188.104 E55.21736
G1 X77.972 Y188.259 E55.26505
G1 X77.126 Y188.34 E55.32441
G1 X76.609 Y188.348 E55.36052
G1 X76.112 Y188.341 E55.39524
G1 X75.43 Y188.292 E55.443
G1 X74.759 Y188.163 E55.49072
G1 X74.108 Y187.957 E55.53842
G1 X73.485 Y187.676 E55.58615
G1 X72.9 Y187.324 E55.63384
G1 X72.359 Y186.906 E55.68159
G1 X71.951 Y186.519 E55.72087
G1 X71.497 Y186.008 E55.76861
G1 X71.106 Y185.448 E55.81632
G1 X70.783 Y184.846 E55.86403
G1 X70.532 Y184.21 E55.91179
G1 X70.358 Y183.55 E55.95946
G1 X70.245 Y182.597 E56.02649
G1 X70.231 Y181.844 E56.0791
G1 X70.231 Y53.238 E65.06175
G1 X70.24 Y52.556 E65.10939
G1 X70.288 Y51.874 E65.15714
G1 X70.417 Y51.203 E65.20487
G1 X70.622 Y50.552 E65.25254
G1 X70.903 Y49.929 E65.30027
G1 X71.254 Y49.343 E65.34798
M204 S3000
M205 X10 Y10
G0 F3000 X71.809 Y49.528
M204 S1800
M205 X8 Y8
G1 F2400 X72.379 Y48.866 E65.409
G1 X72.492 Y48.755 E65.42006
G1 X72.983 Y48.329 E65.46547
G1 X73.522 Y47.967 E65.51082
G1 X74.101 Y47.674 E65.55614
G1 X74.712 Y47.454 E65.6015
G1 X75.346 Y47.31 E65.64691
G1 X76.068 Y47.243 E65.69755
G1 X76.572 Y47.236 E65.73276
G1 X77.078 Y47.244 E65.76811
G1 X77.726 Y47.294 E65.8135
G1 X78.363 Y47.423 E65.8589
G1 X79.108 Y47.684 E65.91403
G1 X79.632 Y47.913 E65.95398
G1 X82.107 Y48.948 E66.14135
G1 X84.616 Y49.917 E66.32921
G1 X87.147 Y50.808 E66.51663
G1 X89.689 Y51.626 E66.70314
G1 X92.245 Y52.369 E66.88906
G1 X94.862 Y53.05 E67.07793
G1 X97.465 Y53.65 E67.26451
G1 X100.092 Y54.179 E67.45168
G1 X102.745 Y54.632 E67.63967
G1 X105.378 Y55.007 E67.82543
G1 X108.035 Y55.31 E68.01221
G1 X110.695 Y55.536 E68.19867
G1 X113.397 Y55.689 E68.3877
G1 X116.069 Y55.766 E68.57441
G1 X118.741 Y55.766 E68.76103
G1 X121.405 Y55.692 E68.94718
G1 X124.116 Y55.538 E69.13684
G1 X126.769 Y55.313 E69.3228
G1 X129.434 Y55.011 E69.51013
G1 X132.079 Y54.635 E69.69674
G1 X134.725 Y54.182 E69.88424
G1 X137.315 Y53.664 E70.06872
G1 X139.946 Y53.058 E70.2573
G1 X142.537 Y52.384 E70.44429
G1 X145.142 Y51.627 E70.63377
G1 X147.643 Y50.822 E70.81728
G1 X150.219 Y49.914 E71.00806
G1 X152.686 Y48.964 E71.1927
G1 X155.182 Y47.922 E71.38162
G1 X155.818 Y47.65 E71.42993
G1 X156.432 Y47.437 E71.47533
G1 X157.067 Y47.301 E71.52068
G1 X157.663 Y47.246 E71.56249
G1 X158.537 Y47.241 E71.62354
G1 X159.185 Y47.289 E71.66892
G1 X159.822 Y47.416 E71.71429
G1 X160.439 Y47.62 E71.75968
G1 X161.026 Y47.898 E71.80504
G1 X161.574 Y48.246 E71.85038
G1 X162.075 Y48.659 E71.89573
G1 X162.522 Y49.13 E71.94109
G1 X162.908 Y49.653 E71.98649
G1 X163.227 Y50.219 E72.03187
G1 X163.474 Y50.82 E72.07725
G1 X163.645 Y51.447 E72.12265
G1 X163.753 Y52.373 E72.18776
G1 X163.764 Y52.842 E72.22053
G1 X163.764 Y181.841 E81.23063
G1 X163.755 Y182.568 E81.28141
G1 X163.707 Y183.216 E81.3268
G1 X163.579 Y183.853 E81.37218
G1 X163.375 Y184.47 E81.41757
G1 X163.096 Y185.057 E81.46296
G1 X162.748 Y185.605 E81.50831
G1 X162.335 Y186.106 E81.55366
G1 X161.863 Y186.553 E81.59906
G1 X161.34 Y186.938 E81.64442
G1 X160.774 Y187.256 E81.68977
G1 X160.172 Y187.503 E81.73521
G1 X159.546 Y187.673 E81.78052
G1 X158.613 Y187.781 E81.84612
G1 X157.762 Y187.78 E81.90556
G1 X157.114 Y187.73 E81.95096
G1 X156.477 Y187.601 E81.99635
G1 X155.732 Y187.339 E82.05151
G1 X155.25 Y187.129 E82.08824
G1 X152.743 Y186.08 E82.27805
G1 X150.218 Y185.104 E82.46713
G1 X147.706 Y184.22 E82.65313
G1 X145.195 Y183.412 E82.83737
G1 X142.606 Y182.659 E83.0257
G1 X139.983 Y181.976 E83.21501
G1 X137.389 Y181.378 E83.40095
G1 X134.734 Y180.843 E83.59011
G1 X132.137 Y180.399 E83.77414
G1 X129.475 Y180.02 E83.96194
G1 X126.818 Y179.717 E84.14873
G1 X124.127 Y179.488 E84.33736
G1 X121.487 Y179.337 E84.52206
G1 X118.785 Y179.26 E84.71086
G1 X116.113 Y179.26 E84.89749
G1 X113.444 Y179.335 E85.08398
G1 X110.741 Y179.487 E85.27308
G1 X108.085 Y179.712 E85.45925
G1 X105.42 Y180.014 E85.64658
G1 X102.775 Y180.39 E85.83318
G1 X100.129 Y180.843 E86.02069
G1 X97.556 Y181.358 E86.20397
G1 X94.897 Y181.969 E86.39453
G1 X92.308 Y182.643 E86.58139
G1 X89.722 Y183.394 E86.76947
G1 X87.165 Y184.215 E86.95705
G1 X84.654 Y185.101 E87.14303
G1 X82.203 Y186.045 E87.32648
G1 X80.165 Y186.887 E87.4805
G1 X79.06 Y187.358 E87.5644
G1 X78.448 Y187.576 E87.60977
G1 X77.814 Y187.717 E87.65514
G1 X77.112 Y187.781 E87.70437
G1 X76.12 Y187.781 E87.77366
G1 X75.472 Y187.732 E87.81905
G1 X74.835 Y187.604 E87.86443
G1 X74.219 Y187.399 E87.90978
G1 X73.632 Y187.119 E87.9552
G1 X73.085 Y186.77 E88.00052
G1 X72.46 Y186.236 E88.05794
G1 X72.347 Y186.123 E88.0691
G1 X71.917 Y185.636 E88.11448
G1 X71.55 Y185.1 E88.15985
G1 X71.251 Y184.523 E88.20524
G1 X71.026 Y183.914 E88.25059
G1 X70.877 Y183.281 E88.29601
G1 X70.804 Y182.577 E88.34545
G1 X70.791 Y181.839 E88.397
G1 X70.79 Y53.245 E97.37881
G1 X70.799 Y52.563 E97.42645
G1 X70.848 Y51.916 E97.47177
G1 X70.976 Y51.279 E97.51715
G1 X71.181 Y50.662 E97.56257
G1 X71.46 Y50.076 E97.6079
G1 X71.809 Y49.528 E97.65328
M204 S3000
M205 X10 Y10
G0 F3000 X76.35 Y52.792
M204 S1800
M205 X8 Y8
;TYPE:SUPPORT
G1 F1800 X76.83 Y52.792 E97.6868
G1 X76.83 Y182.232 E106.72771
G1 X76.351 Y182.232 E106.76116
G1 X76.35 Y52.792 E115.80207
M204 S3000
M205 X10 Y10
G1 F2400 E109.80207
;MESH:plate1.stl
G0 F3000 X157.183 Y52.806
G0 X158.142 Y52.806
G0 X158.154 Y182.162
G1 F2400 E115.80207
G0 F3000 X158.204 Y182.232
M204 S1800
M205 X8 Y8
;TYPE:WALL-OUTER
G1 F1800 X158.128 Y182.232 E115.80737
G1 X158.128 Y52.792 E124.84828
G1 X158.204 Y52.792 E124.85359
G1 X158.204 Y182.232 E126.08056
M204 S3000
M205 X10 Y10
G0 F3000 X158.128 Y182.232
G0 X158.128 Y182.108
G1 F2400 E120.08056
;MESH:NONMESH
G0 F600 X158.128 Y182.108 Z0.6
G0 F3000 X158.154 Y182.108
G0 X157.183 Y182.218
G0 X76.91 Y182.312
;TIME_ELAPSED:62.239542
;LAYER:1
M106 S255
M204 S1800
M205 X8 Y8
;TYPE:SUPPORT-INTERFACE
G1 F2400 E126.08056
G1 F2100 X76.271 Y182.312 E126.11244
G1 X76.27 Y52.712 E132.57821
G1 X76.91 Y52.712 E132.61014
G1 X76.91 Y182.312 E139.07591
M204 S3000
M205 X10 Y10
G1 F2400 E133.07591
;MESH:plate1.stl
G0 F4500 X157.106 Y182.298
G0 X157.985 Y182.298
G1 F2400 E139.07591
G0 F4500 X158.171 Y182.312
M204 S1800
M205 X8 Y8
;TYPE:WALL-OUTER
G1 F2700 X157.971 Y182.312 E139.08589
G1 X157.971 Y182.112 E139.09235
G1 X157.972 Y52.712 E145.54815
G1 X158.603 Y52.712 E145.57963
G1 X158.603 Y182.312 E152.0454
G1 X158.171 Y182.312 E152.06695
M204 S3000
M205 X10 Y10
G0 F4500 X157.971 Y182.312
G0 X158.286 Y181.972
M204 S1800
M205 X8 Y8
;TYPE:SKIN
G1 F1800 X158.286 Y181.689 E152.07546
G1 X158.286 Y53.278 E155.93849
G1 X158.271 Y53.011 E155.94654
M204 S3000
M205 X10 Y10
G0 F4500 X158.203 Y53.112
G1 F2400 E149.94654
;MESH:NONMESH
G0 F600 X158.203 Y53.112 Z0.9
G0 F4500 X157.985 Y182.298
G0 X157.106 Y182.298
G0 X76.91 Y182.312
;TIME_ELAPSED:84.648478
;LAYER:2
M204 S1800
M205 X8 Y8
;TYPE:SUPPORT-INTERFACE
G1 F2400 E155.94654
G1 X76.271 Y182.312 E155.97842
G1 X76.27 Y52.712 E162.44419
G1 X76.91 Y52.712 E162.47612
G1 X76.91 Y182.312 E168.94189
M204 S3000
M205 X10 Y10
G1 F2400 E162.94189
;MESH:plate1.stl
G0 F6000 X157.031 Y182.298
G0 X157.91 Y182.298
G1 F2400 E168.94189
G0 F6000 X158.096 Y182.312
M204 S1800
M205 X8 Y8
;TYPE:WALL-OUTER
G1 F3600 X157.896 Y182.312 E168.95187
G1 X157.896 Y182.112 E168.95833
G1 X157.897 Y52.712 E175.41412
G1 X158.528 Y52.712 E175.4456
G1 X158.528 Y182.312 E181.91137
G1 X158.096 Y182.312 E181.93292
M204 S3000
M205 X10 Y10
G0 F6000 X157.896 Y182.312
G0 X158.212 Y181.971
M204 S1800
M205 X8 Y8
;TYPE:SKIN
G1 F1800 X158.212 Y181.688 E181.94148
G1 X158.212 Y53.277 E185.82394
G1 X158.228 Y53.011 E185.832
M204 S3000
M205 X10 Y10
G0 F6000 X158.296 Y53.112
G1 F2400 E179.832
;MESH:NONMESH
G0 F600 X158.296 Y53.112 Z1.2
G0 F6000 X157.91 Y182.298
G0 X157.031 Y182.298
