;FLAVOR:Marlin
;TIME:1786
;Filament used: 2.55748m
;Layer height: 0.3
;MINX:70.665
;MINY:93.679
;MINZ:0.3
;MAXX:140.674
;MAXY:116.336
;MAXZ:39.9
;Generated with Cura_SteamEngine 4.11.0
M140 S60
M105
M190 S60
M104 S200
M105
M109 S200
M82 ;absolute extrusion mode
G21 ;metric values
G90 ;absolute positioning
M82 ;set extruder to absolute mode
M107 ;start with the fan off
G28 X0 Y0 ;move X/Y to min endstops
G28 Z0 ;move Z to min endstops
G1 Z15.0 F100 ;move the platform down 15mm
G92 E0 ;zero the extruded length
G1 F200 E3 ;extrude 3mm of feed stock
G92 E0 ;zero the extruded length again
G1 F100
G0 Y20 F100
M117 Printing...
G5
G92 E0
G92 E0
G1 F2400 E-6
;LAYER_COUNT:133
;LAYER:0
M107
M204 S3000
M205 X10 Y10
G1 F600 Z0.375
G0 F3000 X72.286 Y101.081 Z0.375
M204 S1800
M205 X8 Y8
;TYPE:SKIRT
G1 F600 Z0.3
G1 F2400 E0
G1 X72.76 Y100.748 E0.04046
G1 X73.275 Y100.483 E0.08091
G1 X73.789 Y100.301 E0.119
G1 X74.181 Y100.19 E0.14746
G1 X74.748 Y100.071 E0.18792
G1 X75.112 Y100.036 E0.21346
G1 X75.692 Y100.042 E0.25398
G1 X76.217 Y100.118 E0.29103
G1 X76.514 Y100.18 E0.31222
G1 X77.072 Y100.337 E0.35271
G1 X77.4 Y100.47 E0.37743
G1 X78.092 Y100.865 E0.43308
G1 X78.274 Y100.993 E0.44862
G1 X78.724 Y101.358 E0.48909
G1 X78.976 Y101.614 E0.51418
G1 X79.451 Y102.242 E0.56918
G1 X79.615 Y102.507 E0.59095
G1 X79.958 Y103.195 E0.64464
G1 X79.972 Y103.231 E0.64734
G1 X80.145 Y103.784 E0.68781
G1 X80.247 Y104.366 E0.72908
G1 X80.293 Y104.987 E0.77257
G1 X80.293 Y105.024 E0.77516
G1 X80.21 Y105.853 E0.83335
G1 X80.152 Y106.141 E0.85387
G1 X79.926 Y106.893 E0.90872
G1 X79.913 Y106.925 E0.91113
G1 X79.659 Y107.445 E0.95155
G1 X79.343 Y107.927 E0.99181
G1 X78.982 Y108.38 E1.03226
G1 X78.435 Y108.882 E1.08412
G1 X78.252 Y109.022 E1.10021
G1 X77.578 Y109.443 E1.15572
G1 X77.532 Y109.466 E1.15931
G1 X76.998 Y109.688 E1.1997
G1 X76.25 Y109.876 E1.25357
G1 X75.676 Y109.958 E1.29407
G1 X75.074 Y109.958 E1.33612
G1 X75.018 Y109.954 E1.34004
G1 X74.17 Y109.805 E1.40018
G1 X73.779 Y109.694 E1.42857
G1 X73.234 Y109.498 E1.46902
G1 X72.721 Y109.229 E1.50948
G1 X72.25 Y108.891 E1.54997
G1 X71.849 Y108.513 E1.58846
G1 X71.476 Y108.069 E1.62896
G1 X71.169 Y107.579 E1.66935
G1 X70.932 Y107.05 E1.70984
G1 X70.769 Y106.494 E1.75031
G1 X70.685 Y105.921 E1.79076
G1 X70.681 Y105.341 E1.83127
G1 X70.721 Y105.037 E1.85269
G1 X70.692 Y104.884 E1.86356
G1 X70.665 Y104.305 E1.90405
G1 X70.718 Y103.729 E1.94445
G1 X70.849 Y103.164 E1.98496
G1 X71.057 Y102.624 E2.02538
G1 X71.338 Y102.117 E2.06586
G1 X71.685 Y101.653 E2.10633
G1 X72.217 Y101.137 E2.1581
G1 X72.286 Y101.081 E2.16431
M204 S3000
M205 X10 Y10
G0 F3000 X72.639 Y101.516
M204 S1800
M205 X8 Y8
G1 F2400 X73.082 Y101.208 E2.20199
G1 X73.565 Y100.969 E2.23963
G1 X74.333 Y100.729 E2.29583
G1 X75.111 Y100.597 E2.35095
G1 X75.145 Y100.595 E2.35333
G1 X75.684 Y100.604 E2.39098
G1 X76.4 Y100.728 E2.44173
G1 X77.15 Y100.972 E2.49682
G1 X77.17 Y100.981 E2.49835
G1 X77.77 Y101.323 E2.54659
G1 X77.952 Y101.451 E2.56213
G1 X78.541 Y101.968 E2.61687
G1 X78.563 Y101.992 E2.61915
G1 X78.975 Y102.536 E2.66681
G1 X79.139 Y102.801 E2.68858
G1 X79.436 Y103.398 E2.73515
G1 X79.45 Y103.434 E2.73785
G1 X79.658 Y104.215 E2.7943
G1 X79.693 Y104.449 E2.81082
G1 X79.733 Y104.987 E2.84851
G1 X79.733 Y105.024 E2.85109
G1 X79.661 Y105.743 E2.90156
G1 X79.603 Y106.031 E2.92208
G1 X79.407 Y106.682 E2.96957
G1 X79.394 Y106.714 E2.97198
G1 X79.021 Y107.407 E3.02695
G1 X78.882 Y107.609 E3.04407
G1 X78.544 Y108.03 E3.08178
G1 X78.095 Y108.437 E3.12411
G1 X77.912 Y108.577 E3.1402
G1 X77.328 Y108.942 E3.18831
G1 X77.282 Y108.965 E3.1919
G1 X76.783 Y109.169 E3.22955
G1 X76.133 Y109.329 E3.27631
G1 X75.599 Y109.402 E3.31395
G1 X75.058 Y109.396 E3.35174
G1 X74.323 Y109.267 E3.40386
G1 X73.932 Y109.156 E3.43225
G1 X73.426 Y108.97 E3.46991
G1 X72.952 Y108.712 E3.5076
G1 X72.522 Y108.387 E3.54525
G1 X72.252 Y108.125 E3.57153
G1 X71.908 Y107.71 E3.60918
G1 X71.628 Y107.249 E3.64685
G1 X71.42 Y106.751 E3.68454
G1 X71.288 Y106.228 E3.72222
G1 X71.234 Y105.692 E3.75985
G1 X71.26 Y105.153 E3.79754
G1 X71.286 Y105.023 E3.8068
G1 X71.232 Y104.634 E3.83423
G1 X71.237 Y104.094 E3.87195
G1 X71.321 Y103.562 E3.90956
G1 X71.484 Y103.048 E3.94723
G1 X71.72 Y102.563 E3.9849
G1 X72.026 Y102.119 E4.02256
G1 X72.57 Y101.572 E4.07645
G1 X72.639 Y101.516 E4.08265
M204 S3000
M205 X10 Y10
G0 F3000 X72.923 Y102.007
M204 S1800
M205 X8 Y8
G1 F2400 X73.401 Y101.67 E4.1235
G1 X74.094 Y101.379 E4.176
G1 X74.486 Y101.268 E4.20446
G1 X75.144 Y101.156 E4.25108
G1 X75.674 Y101.165 E4.2881
G1 X76.285 Y101.276 E4.33148
G1 X76.92 Y101.482 E4.3781
G1 X76.94 Y101.491 E4.37964
G1 X77.448 Y101.781 E4.42049
G1 X77.63 Y101.909 E4.43603
G1 X78.128 Y102.347 E4.48236
G1 X78.15 Y102.371 E4.48463
G1 X78.499 Y102.831 E4.52496
G1 X78.663 Y103.096 E4.54673
G1 X78.915 Y103.601 E4.58615
G1 X78.929 Y103.637 E4.58885
G1 X79.104 Y104.297 E4.63654
G1 X79.173 Y104.987 E4.68497
G1 X79.173 Y105.024 E4.68756
G1 X79.112 Y105.632 E4.73024
G1 X79.054 Y105.92 E4.75075
G1 X78.889 Y106.471 E4.79093
G1 X78.876 Y106.503 E4.79334
G1 X78.559 Y107.09 E4.83994
G1 X78.107 Y107.677 E4.89168
G1 X77.571 Y108.132 E4.94079
G1 X77.077 Y108.441 E4.98149
G1 X76.571 Y108.649 E5.0197
G1 X76.016 Y108.781 E5.05955
G1 X75.524 Y108.845 E5.0942
G1 X75.098 Y108.837 E5.12396
G1 X74.476 Y108.728 E5.16807
G1 X73.62 Y108.443 E5.23108
G1 X73.189 Y108.198 E5.26571
G1 X72.708 Y107.791 E5.30972
G1 X72.341 Y107.352 E5.34969
G1 X72.092 Y106.923 E5.38433
G1 X71.916 Y106.46 E5.41893
G1 X71.816 Y105.974 E5.45358
G1 X71.795 Y105.478 E5.48826
G1 X71.852 Y105.008 E5.52133
G1 X71.784 Y104.398 E5.5642
G1 X71.824 Y103.904 E5.59881
G1 X71.943 Y103.423 E5.63342
G1 X72.137 Y102.966 E5.6681
G1 X72.402 Y102.547 E5.70273
G1 X72.923 Y102.007 E5.75514
M204 S3000
M205 X10 Y10
G0 F3000 X73.276 Y102.441
M204 S1800
M205 X8 Y8
G1 F2400 X73.717 Y102.135 E5.79263
G1 X74.246 Y101.917 E5.83259
G1 X74.638 Y101.806 E5.86105
G1 X75.177 Y101.715 E5.89923
G1 X75.211 Y101.713 E5.90161
G1 X75.874 Y101.762 E5.94804
G1 X76.171 Y101.824 E5.96923
G1 X76.69 Y101.993 E6.00736
G1 X77.126 Y102.239 E6.04232
G1 X77.308 Y102.367 E6.05786
G1 X77.716 Y102.725 E6.09578
G1 X78.023 Y103.126 E6.13105
G1 X78.393 Y103.804 E6.185
G1 X78.407 Y103.84 E6.1877
G1 X78.55 Y104.38 E6.22671
G1 X78.613 Y104.987 E6.26934
G1 X78.613 Y105.024 E6.27192
G1 X78.563 Y105.522 E6.30688
G1 X78.37 Y106.26 E6.36016
G1 X78.357 Y106.292 E6.36257
G1 X78.098 Y106.773 E6.40073
G1 X77.673 Y107.32 E6.44911
G1 X77.231 Y107.687 E6.48924
G1 X76.781 Y107.963 E6.52611
G1 X76.18 Y108.173 E6.57058
G1 X75.454 Y108.288 E6.62192
G1 X75.137 Y108.279 E6.64407
G1 X74.629 Y108.189 E6.6801
G1 X73.819 Y107.918 E6.73976
G1 X73.435 Y107.686 E6.7711
G1 X73.058 Y107.348 E6.80646
G1 X72.777 Y106.998 E6.83781
G1 X72.562 Y106.604 E6.86916
G1 X72.421 Y106.179 E6.90044
G1 X72.357 Y105.735 E6.93177
G1 X72.372 Y105.287 E6.96308
G1 X72.428 Y105.029 E6.98152
G1 X72.355 Y104.633 E7.00964
G1 X72.353 Y104.184 E7.041
G1 X72.431 Y103.742 E7.07235
G1 X72.586 Y103.321 E7.10369
G1 X72.813 Y102.934 E7.13503
G1 X73.276 Y102.441 E7.18226
M204 S3000
M205 X10 Y10
G0 F3000 X73.629 Y102.876
M204 S1800
M205 X8 Y8
G1 F2400 X74.029 Y102.603 E7.21609
G1 X74.791 Y102.345 E7.27228
G1 X75.244 Y102.272 E7.30433
G1 X75.76 Y102.31 E7.34047
G1 X76.46 Y102.504 E7.3912
G1 X76.986 Y102.825 E7.43424
G1 X77.325 Y103.128 E7.466
G1 X77.711 Y103.686 E7.51339
G1 X77.885 Y104.043 E7.54113
G1 X78.031 Y104.697 E7.58793
G1 X78.053 Y105.024 E7.61083
G1 X77.956 Y105.699 E7.65846
G1 X77.838 Y106.082 E7.68645
G1 X77.498 Y106.657 E7.73311
G1 X77.074 Y107.103 E7.77609
G1 X76.577 Y107.439 E7.81799
G1 X76.063 Y107.626 E7.85619
G1 X75.782 Y107.686 E7.87626
G1 X75.233 Y107.724 E7.9147
G1 X74.782 Y107.65 E7.94662
G1 X74.023 Y107.394 E8.00257
G1 X73.515 Y107.014 E8.04688
G1 X73.217 Y106.648 E8.07985
G1 X73.04 Y106.294 E8.10749
G1 X72.938 Y105.912 E8.13511
G1 X72.915 Y105.518 E8.16267
G1 X73.012 Y105.011 E8.19873
G1 X72.943 Y104.787 E8.2151
G1 X72.904 Y104.394 E8.24268
G1 X72.945 Y104 E8.27035
G1 X73.064 Y103.623 E8.29796
G1 X73.256 Y103.277 E8.3256
G1 X73.629 Y102.876 E8.36385
M204 S3000
M205 X10 Y10
G0 F3000 X74.051 Y103.255
M204 S1800
M205 X8 Y8
G1 F2400 X74.333 Y103.077 E8.38714
G1 X74.944 Y102.884 E8.4319
G1 X75.277 Y102.831 E8.45545
G1 X75.942 Y102.921 E8.50232
G1 X76.251 Y103.023 E8.52505
G1 X76.663 Y103.283 E8.55908
G1 X76.912 Y103.506 E8.58242
G1 X77.234 Y103.98 E8.62245
G1 X77.363 Y104.246 E8.6431
G1 X77.478 Y104.78 E8.68125
G1 X77.465 Y105.3 E8.71758
G1 X77.332 Y105.839 E8.75636
G1 X77.036 Y106.34 E8.797
G1 X76.551 Y106.798 E8.84359
G1 X76.28 Y106.961 E8.86568
G1 X75.665 Y107.138 E8.91038
G1 X75.217 Y107.161 E8.94171
G1 X74.544 Y107.001 E8.99003
G1 X74.235 Y106.872 E9.01342
G1 X73.865 Y106.57 E9.04678
G1 X73.663 Y106.304 E9.07011
G1 X73.531 Y105.997 E9.09345
G1 X73.475 Y105.668 E9.11676
G1 X73.498 Y105.335 E9.14007
G1 X73.611 Y104.999 E9.16483
G1 X73.539 Y104.849 E9.17645
G1 X73.469 Y104.522 E9.19981
G1 X73.48 Y104.188 E9.22315
G1 X73.569 Y103.866 E9.24649
G1 X73.732 Y103.574 E9.26984
G1 X74.051 Y103.255 E9.30135
M204 S3000
M205 X10 Y10
G0 F3000 X74.404 Y103.69
M204 S1800
M205 X8 Y8
G1 F2400 X74.704 Y103.534 E9.32497
G1 X75.276 Y103.392 E9.36614
G1 X75.31 Y103.39 E9.36851
G1 X75.828 Y103.469 E9.40511
G1 X76.159 Y103.613 E9.43033
G1 X76.499 Y103.884 E9.46069
G1 X76.827 Y104.413 E9.50417
G1 X76.924 Y104.863 E9.53632
G1 X76.916 Y105.19 E9.55917
G1 X76.8 Y105.66 E9.59298
G1 X76.575 Y106.022 E9.62275
G1 X76.21 Y106.353 E9.65717
G1 X75.829 Y106.53 E9.68651
G1 X75.313 Y106.607 E9.72295
G1 X74.697 Y106.462 E9.76715
G1 X74.462 Y106.354 E9.78521
G1 X74.268 Y106.182 E9.80332
G1 X74.12 Y105.97 E9.82138
G1 X74.042 Y105.724 E9.83941
G1 X74.044 Y105.465 E9.8575
G1 X74.124 Y105.219 E9.87557
G1 X74.282 Y105.003 E9.89426
G1 X74.126 Y104.799 E9.9122
G1 X74.039 Y104.555 E9.93029
G1 X74.03 Y104.297 E9.94832
G1 X74.1 Y104.048 E9.96639
G1 X74.404 Y103.69 E9.99919
M204 S3000
M205 X10 Y10
G0 F3000 X74.757 Y104.125
M204 S1800
M205 X8 Y8
G1 F2400 X75.249 Y103.962 E10.03539
G1 X75.343 Y103.949 E10.04202
G1 X75.791 Y104.045 E10.07402
G1 X76.086 Y104.263 E10.09964
G1 X76.319 Y104.652 E10.13131
G1 X76.367 Y105.079 E10.16132
G1 X76.253 Y105.503 E10.19199
G1 X76.053 Y105.768 E10.21518
G1 X75.712 Y105.983 E10.24334
G1 X75.297 Y106.044 E10.27263
G1 X74.85 Y105.923 E10.30498
G1 X74.671 Y105.793 E10.32043
G1 X74.6 Y105.663 E10.33078
G1 X74.606 Y105.515 E10.34112
G1 X74.677 Y105.399 E10.35062
G1 X75.002 Y105.081 E10.38238
G1 X75.001 Y104.918 E10.39377
G1 X74.67 Y104.6 E10.42583
G1 X74.594 Y104.473 E10.43616
G1 X74.594 Y104.324 E10.44657
G1 X74.757 Y104.125 E10.46454
M204 S3000
M205 X10 Y10
G0 F3000 X79.446 Y100.295
M204 S1800
M205 X8 Y8
G1 F2400 X79.379 Y99.7 E10.50636
G1 X79.359 Y99.207 E10.54082
G1 X79.413 Y98.347 E10.60101
G1 X79.42 Y98.305 E10.60398
G1 X79.639 Y97.498 E10.66239
G1 X79.729 Y97.262 E10.68003
G1 X79.972 Y96.737 E10.72043
G1 X80.373 Y96.135 E10.77096
G1 X80.413 Y96.085 E10.77543
G1 X80.806 Y95.659 E10.81591
G1 X81.32 Y95.244 E10.86205
G1 X81.612 Y95.044 E10.88677
G1 X82.107 Y94.752 E10.92691
G1 X82.466 Y94.592 E10.95437
G1 X82.87 Y94.352 E10.98719
G1 X83.433 Y94.107 E11.03007
G1 X83.965 Y93.92 E11.06946
G1 X84.524 Y93.766 E11.10996
G1 X85.298 Y93.682 E11.16434
G1 X85.509 Y93.679 E11.17908
G1 X86.088 Y93.711 E11.21958
G1 X86.656 Y93.822 E11.26
G1 X87.416 Y94.107 E11.3167
G1 X88.544 Y94.659 E11.40441
G1 X88.703 Y94.644 E11.41556
G1 X89.281 Y94.669 E11.45597
G1 X89.811 Y94.745 E11.49337
G1 X90.531 Y94.735 E11.54367
G1 X90.882 Y94.71 E11.56824
G1 X91.46 Y94.748 E11.6087
G1 X91.916 Y94.843 E11.64124
G1 X92.486 Y94.841 E11.68105
G1 X93.06 Y94.92 E11.72152
G1 X93.953 Y95.203 E11.78695
G1 X94.379 Y95.388 E11.81939
G1 X94.893 Y95.654 E11.85981
G1 X95.348 Y95.975 E11.8987
G1 X95.761 Y96.324 E11.93647
G1 X96.147 Y96.184 E11.96515
G1 X96.704 Y96.026 E12.00559
G1 X97.278 Y95.945 E12.04608
G1 X97.857 Y95.945 E12.08652
G1 X98.431 Y96.024 E12.12699
G1 X98.988 Y96.181 E12.16741
G1 X99.219 Y96.287 E12.18516
G1 X99.812 Y96.324 E12.22666
G1 X100.388 Y96.385 E12.26712
G1 X100.95 Y96.525 E12.30757
G1 X101.488 Y96.741 E12.34806
G1 X101.819 Y96.882 E12.37319
G1 X102.356 Y97.1 E12.41367
G1 X102.781 Y97.345 E12.44794
G1 X103.932 Y97.371 E12.52835
G1 X104.509 Y97.424 E12.56882
G1 X105.073 Y97.555 E12.60926
G1 X105.28 Y97.635 E12.62476
G1 X105.345 Y97.62 E12.62942
G1 X105.922 Y97.571 E12.66987
G1 X106.236 Y97.583 E12.69182
G1 X106.813 Y97.533 E12.73227
G1 X107.226 Y97.517 E12.76114
G1 X107.804 Y97.478 E12.8016
G1 X108.125 Y97.501 E12.82408
G1 X108.268 Y97.47 E12.8343
G1 X108.846 Y97.427 E12.87478
G1 X109.424 Y97.464 E12.91523
G1 X109.992 Y97.581 E12.95574
G1 X110.712 Y97.714 E13.00688
G1 X111.484 Y97.323 E13.06732
G1 X112.018 Y97.097 E13.10782
G1 X112.577 Y96.948 E13.14823
G1 X113.152 Y96.876 E13.18871
G1 X113.731 Y96.885 E13.22915
G1 X114.304 Y96.973 E13.26964
G1 X114.859 Y97.139 E13.3101
G1 X115.386 Y97.379 E13.35055
G1 X115.596 Y97.513 E13.36795
G1 X115.882 Y96.903 E13.41501
G1 X115.968 Y96.756 E13.4269
G1 X116.294 Y96.277 E13.46737
G1 X116.683 Y95.848 E13.50782
G1 X117.128 Y95.477 E13.54829
G1 X117.771 Y95.093 E13.6006
G1 X118.068 Y94.95 E13.62362
G1 X118.606 Y94.735 E13.66409
G1 X119.175 Y94.595 E13.70502
G1 X119.256 Y94.581 E13.71076
G1 X119.832 Y94.522 E13.7512
G1 X120.498 Y94.553 E13.79777
G1 X120.743 Y94.584 E13.81502
G1 X121.312 Y94.696 E13.85552
G1 X121.349 Y94.706 E13.8582
G1 X121.976 Y94.931 E13.90473
G1 X122.514 Y95.173 E13.94593
G1 X123.025 Y95.446 E13.9864
G1 X123.414 Y95.722 E14.01971
G1 X123.847 Y96.107 E14.06018
G1 X124.18 Y96.49 E14.09563
G1 X124.335 Y96.692 E14.11341
G1 X124.655 Y97.175 E14.15388
G1 X124.881 Y97.645 E14.19031
G1 X125.423 Y97.614 E14.22822
G1 X125.984 Y97.66 E14.26754
G1 X126.025 Y97.645 E14.27059
G1 X126.583 Y97.489 E14.31106
G1 X127.157 Y97.411 E14.35152
G1 X127.736 Y97.413 E14.39196
G1 X128.332 Y97.499 E14.43402
G1 X130.302 Y97.93 E14.57487
G1 X130.858 Y98.093 E14.61534
G1 X131.386 Y98.33 E14.65576
G1 X131.825 Y98.605 E14.69194
G1 X132.292 Y98.625 E14.72459
G1 X132.867 Y98.689 E14.765
G1 X133.371 Y98.816 E14.80131
G1 X133.689 Y98.83 E14.82354
G1 X134.259 Y98.934 E14.86401
G1 X134.587 Y99.032 E14.88792
G1 X136.522 Y99.697 E15.03083
G1 X137.26 Y100.013 E15.0869
G1 X137.427 Y100.067 E15.09916
G1 X137.965 Y100.282 E15.13963
G1 X138.468 Y100.57 E15.18011
G1 X138.927 Y100.923 E15.22056
G1 X139.385 Y101.399 E15.26669
G1 X139.537 Y101.584 E15.28342
G1 X139.873 Y102.056 E15.32388
G1 X140.207 Y102.729 E15.37636
G1 X140.334 Y103.056 E15.40086
G1 X140.506 Y103.61 E15.44138
G1 X140.602 Y104.198 E15.48299
G1 X140.662 Y104.861 E15.52949
G1 X140.674 Y105.441 E15.57001
G1 X140.606 Y106.02 E15.61073
G1 X140.53 Y106.422 E15.63931
G1 X140.375 Y107.007 E15.68158
G1 X140.364 Y107.039 E15.68394
G1 X140.138 Y107.573 E15.72444
G1 X139.705 Y108.255 E15.78086
G1 X139.395 Y108.653 E15.8161
G1 X139.009 Y109.084 E15.85651
G1 X138.566 Y109.458 E15.89701
G1 X138.077 Y109.768 E15.93745
G1 X137.396 Y110.061 E15.98923
G1 X134.115 Y111.142 E16.23051
G1 X133.554 Y111.285 E16.27095
G1 X132.966 Y111.35 E16.31227
G1 X131.628 Y111.403 E16.4058
G1 X131.424 Y111.533 E16.42269
G1 X130.897 Y111.774 E16.46317
G1 X130.343 Y111.941 E16.50358
G1 X129.77 Y112.03 E16.54408
G1 X129.383 Y112.045 E16.57113
G1 X127.06 Y112.028 E16.73339
G1 X126.876 Y112.031 E16.74624
G1 X126.322 Y112.201 E16.78672
G1 X125.75 Y112.294 E16.8272
G1 X125.171 Y112.308 E16.86765
G1 X124.911 Y112.278 E16.88593
G1 X124.848 Y112.463 E16.89958
G1 X124.587 Y112.98 E16.94003
G1 X124.257 Y113.457 E16.98054
G1 X123.864 Y113.883 E17.02103
G1 X123.288 Y114.357 E17.07313
G1 X122.695 Y114.744 E17.12259
G1 X122.656 Y114.765 E17.12568
G1 X122.109 Y115.011 E17.16757
G1 X121.53 Y115.223 E17.21064
G1 X120.974 Y115.384 E17.25107
G1 X120.229 Y115.477 E17.30351
G1 X120.141 Y115.48 E17.30966
G1 X119.562 Y115.459 E17.35013
G1 X118.863 Y115.326 E17.39983
G1 X118.578 Y115.246 E17.4205
G1 X118.032 Y115.051 E17.461
G1 X117.519 Y114.783 E17.50142
G1 X117.088 Y114.482 E17.53814
G1 X116.651 Y114.101 E17.57863
G1 X116.272 Y113.663 E17.61909
G1 X115.914 Y113.112 E17.66499
