;FLAVOR:Marlin
;TIME:2677
;Filament used: 4.72511m
;Layer height: 0.3
;MINX:83.6
;MINY:83.695
;MINZ:0.3
;MAXX:126.4
;MAXY:126.495
;MAXZ:67.5
;Generated with Cura_SteamEngine 4.11.0
M140 S60
M105
M190 S60
M104 S200
M105
M109 S200
M82 ;absolute extrusion mode
G21 ;metric values
G90 ;absolute positioning
M82 ;set extruder to absolute mode
M107 ;start with the fan off
G28 X0 Y0 ;move X/Y to min endstops
G28 Z0 ;move Z to min endstops
G1 Z15.0 F100 ;move the platform down 15mm
G92 E0 ;zero the extruded length
G1 F200 E3 ;extrude 3mm of feed stock
G92 E0 ;zero the extruded length again
G1 F100
G0 Y20 F100
M117 Printing...
G5
G92 E0
G92 E0
G1 F2400 E-6
;LAYER_COUNT:225
;LAYER:0
M107
M204 S3000
M205 X10 Y10
G1 F600 Z0.375
G0 F3000 X85.533 Y85.53 Z0.375
M204 S1800
M205 X8 Y8
;TYPE:SKIRT
G1 F600 Z0.3
G1 F2400 E0
G1 X86.071 Y85.059 E0.04994
G1 X86.659 Y84.651 E0.09993
G1 X87.288 Y84.311 E0.14987
G1 X87.952 Y84.044 E0.19986
G1 X88.641 Y83.852 E0.24982
G1 X89.347 Y83.738 E0.29977
G1 X90.151 Y83.698 E0.35599
G1 X90.33 Y83.695 E0.3685
G1 X119.293 Y83.695 E2.39145
G1 X120.083 Y83.706 E2.44664
G1 X120.796 Y83.756 E2.49656
G1 X121.5 Y83.885 E2.54655
G1 X122.184 Y84.093 E2.59649
G1 X122.841 Y84.375 E2.64642
G1 X123.463 Y84.729 E2.69641
G1 X124.041 Y85.15 E2.74636
G1 X124.569 Y85.633 E2.79634
G1 X125.039 Y86.171 E2.84624
G1 X125.447 Y86.759 E2.89622
G1 X125.786 Y87.389 E2.94619
G1 X126.053 Y88.052 E2.99612
G1 X126.244 Y88.742 E3.04612
G1 X126.357 Y89.448 E3.09606
G1 X126.397 Y90.245 E3.1518
G1 X126.4 Y90.425 E3.16437
G1 X126.4 Y119.438 E5.19082
G1 X126.391 Y120.165 E5.2416
G1 X126.342 Y120.879 E5.29159
G1 X126.214 Y121.583 E5.34157
G1 X126.008 Y122.268 E5.39153
G1 X125.727 Y122.925 E5.44144
G1 X125.374 Y123.548 E5.49146
G1 X124.954 Y124.127 E5.54142
G1 X124.472 Y124.655 E5.59135
G1 X123.935 Y125.127 E5.64129
G1 X123.347 Y125.535 E5.69127
G1 X122.718 Y125.876 E5.74125
G1 X122.055 Y126.144 E5.7912
G1 X121.366 Y126.336 E5.84115
G1 X120.66 Y126.451 E5.89112
G1 X119.849 Y126.492 E5.94783
G1 X119.67 Y126.495 E5.96034
G1 X90.624 Y126.494 E7.98909
G1 X89.926 Y126.485 E8.03785
G1 X89.213 Y126.436 E8.08777
G1 X88.509 Y126.308 E8.13775
G1 X87.824 Y126.102 E8.18771
G1 X87.167 Y125.82 E8.23764
G1 X86.545 Y125.467 E8.2876
G1 X85.966 Y125.047 E8.33756
G1 X85.437 Y124.565 E8.38754
G1 X84.966 Y124.027 E8.43749
G1 X84.558 Y123.44 E8.48742
G1 X84.218 Y122.81 E8.53742
G1 X83.95 Y122.147 E8.58737
G1 X83.758 Y121.458 E8.63733
G1 X83.644 Y120.752 E8.68728
G1 X83.602 Y119.926 E8.74504
G1 X83.6 Y119.753 E8.75713
G1 X83.601 Y90.682 E10.78763
G1 X83.61 Y90.017 E10.83408
G1 X83.659 Y89.304 E10.884
G1 X83.788 Y88.6 E10.93399
G1 X83.995 Y87.916 E10.9839
G1 X84.277 Y87.258 E11.03391
G1 X84.63 Y86.636 E11.08386
G1 X85.05 Y86.058 E11.13376
G1 X85.533 Y85.53 E11.18375
M204 S3000
M205 X10 Y10
G0 F3000 X86.08 Y85.783
M204 S1800
M205 X8 Y8
G1 F2400 X86.612 Y85.354 E11.23148
G1 X87.19 Y84.989 E11.27923
G1 X87.807 Y84.695 E11.32696
G1 X88.453 Y84.475 E11.37463
G1 X89.121 Y84.332 E11.42234
G1 X89.845 Y84.266 E11.47312
G1 X90.33 Y84.255 E11.50701
G1 X119.293 Y84.255 E13.52996
G1 X120.075 Y84.266 E13.58459
G1 X120.756 Y84.315 E13.63228
G1 X121.427 Y84.444 E13.68
G1 X122.078 Y84.651 E13.72772
G1 X122.701 Y84.932 E13.77545
G1 X123.287 Y85.284 E13.8232
G1 X123.827 Y85.702 E13.87089
G1 X124.315 Y86.18 E13.91861
G1 X124.744 Y86.712 E13.96634
G1 X125.108 Y87.29 E14.01405
G1 X125.402 Y87.907 E14.06179
G1 X125.621 Y88.554 E14.1095
G1 X125.764 Y89.222 E14.15721
G1 X125.829 Y89.941 E14.20764
G1 X125.84 Y90.425 E14.24145
G1 X125.84 Y119.431 E16.26741
G1 X125.831 Y120.158 E16.31819
G1 X125.782 Y120.84 E16.36595
G1 X125.654 Y121.511 E16.41366
G1 X125.449 Y122.163 E16.4614
G1 X125.169 Y122.786 E16.50911
G1 X124.819 Y123.372 E16.55678
G1 X124.402 Y123.914 E16.60455
G1 X123.925 Y124.403 E16.65226
G1 X123.394 Y124.832 E16.69994
G1 X122.816 Y125.197 E16.74769
G1 X122.2 Y125.492 E16.79539
G1 X121.553 Y125.713 E16.84315
G1 X120.885 Y125.857 E16.89088
G1 X120.155 Y125.924 E16.94208
G1 X119.67 Y125.935 E16.97596
G1 X90.632 Y125.935 E19.00416
G1 X89.934 Y125.926 E19.05292
G1 X89.252 Y125.877 E19.10067
G1 X88.581 Y125.749 E19.14839
G1 X87.93 Y125.543 E19.19608
G1 X87.306 Y125.263 E19.24385
G1 X86.72 Y124.912 E19.29156
G1 X86.179 Y124.495 E19.33927
G1 X85.69 Y124.017 E19.38703
G1 X85.261 Y123.486 E19.43471
G1 X84.896 Y122.908 E19.48246
G1 X84.602 Y122.292 E19.53013
G1 X84.381 Y121.645 E19.57789
G1 X84.237 Y120.977 E19.62561
G1 X84.171 Y120.244 E19.67702
G1 X84.16 Y119.753 E19.71132
G1 X84.161 Y90.69 E21.74127
G1 X84.17 Y90.025 E21.78772
G1 X84.219 Y89.344 E21.83541
G1 X84.347 Y88.672 E21.88319
G1 X84.553 Y88.021 E21.93088
G1 X84.834 Y87.398 E21.97861
G1 X85.185 Y86.812 E22.02632
G1 X85.603 Y86.271 E22.07408
G1 X86.08 Y85.783 E22.12174
M204 S3000
M205 X10 Y10
G0 F3000 X86.154 Y86.496
M204 S1800
M205 X8 Y8
G1 F2400 X86.626 Y86.05 E22.1671
G1 X87.149 Y85.666 E22.21242
G1 X87.716 Y85.348 E22.25782
G1 X88.317 Y85.102 E22.30318
G1 X88.944 Y84.932 E22.34855
G1 X89.861 Y84.826 E22.41303
G1 X90.33 Y84.815 E22.4458
G1 X119.293 Y84.815 E24.46875
G1 X120.067 Y84.826 E24.52282
G1 X120.714 Y84.875 E24.56814
G1 X121.351 Y85.003 E24.61352
G1 X121.967 Y85.209 E24.65889
G1 X122.554 Y85.489 E24.70431
G1 X123.101 Y85.838 E24.74963
G1 X123.602 Y86.252 E24.79503
G1 X124.047 Y86.725 E24.84039
G1 X124.432 Y87.249 E24.88581
G1 X124.749 Y87.816 E24.93118
G1 X124.994 Y88.417 E24.97651
G1 X125.163 Y89.044 E25.02187
G1 X125.269 Y89.957 E25.08606
G1 X125.28 Y90.425 E25.11876
G1 X125.28 Y119.424 E27.14423
G1 X125.271 Y120.151 E27.19502
G1 X125.223 Y120.799 E27.2404
G1 X125.095 Y121.436 E27.28578
G1 X124.891 Y122.053 E27.33117
G1 X124.612 Y122.64 E27.37657
G1 X124.264 Y123.188 E27.42191
G1 X123.851 Y123.689 E27.46726
G1 X123.379 Y124.136 E27.51266
G1 X122.856 Y124.521 E27.55802
G1 X122.29 Y124.839 E27.60337
G1 X121.688 Y125.086 E27.64882
G1 X121.062 Y125.256 E27.69412
G1 X120.139 Y125.364 E27.75903
G1 X119.67 Y125.375 E27.7918
G1 X90.639 Y125.375 E29.81951
G1 X89.941 Y125.366 E29.86826
G1 X89.293 Y125.317 E29.91365
G1 X88.656 Y125.19 E29.95902
G1 X88.04 Y124.985 E30.00437
G1 X87.453 Y124.706 E30.04976
G1 X86.905 Y124.357 E30.09514
G1 X86.404 Y123.944 E30.14049
G1 X85.957 Y123.472 E30.1859
G1 X85.572 Y122.949 E30.23126
G1 X85.254 Y122.382 E30.27666
G1 X85.008 Y121.781 E30.32202
G1 X84.838 Y121.154 E30.36739
G1 X84.731 Y120.229 E30.43243
G1 X84.72 Y119.753 E30.46569
G1 X84.72 Y90.698 E32.49507
G1 X84.729 Y90.033 E32.54152
G1 X84.778 Y89.385 E32.58691
G1 X84.906 Y88.748 E32.6323
G1 X85.111 Y88.131 E32.67771
G1 X85.391 Y87.545 E32.72307
G1 X85.74 Y86.997 E32.76845
G1 X86.154 Y86.496 E32.81384
M204 S3000
M205 X10 Y10
G1 F2400 E26.81384
;MESH:hannkomotitehina2.stl
G0 F3000 X89.335 Y90.949
G0 X90.854 Y90.949
G0 X118.6 Y118.695
M204 S1800
M205 X8 Y8
;TYPE:WALL-INNER
G1 F2400 E32.81384
G1 F1800 X91.4 Y118.695 E34.71366
G1 X91.4 Y91.495 E36.61348
G1 X118.6 Y91.495 E38.5133
G1 X118.6 Y118.695 E40.41312
M204 S3000
M205 X10 Y10
G0 F3000 X119.16 Y119.255
M204 S1800
M205 X8 Y8
G1 F1800 X90.84 Y119.255 E42.39117
G1 X90.84 Y90.935 E44.36921
G1 X119.16 Y90.935 E46.34726
G1 X119.16 Y119.255 E48.32531
M204 S3000
M205 X10 Y10
G0 F3000 X119.72 Y119.815
M204 S1800
M205 X8 Y8
;TYPE:WALL-OUTER
G1 F1800 X90.28 Y119.815 E50.38158
G1 X90.28 Y90.375 E52.43785
G1 X119.72 Y90.375 E54.49413
G1 X119.72 Y119.815 E56.5504
M204 S3000
M205 X10 Y10
G0 F3000 X119.52 Y119.815
G0 X119.09 Y119.185
G0 X118.05 Y118.145
M204 S1800
M205 X8 Y8
;TYPE:SKIN
G1 F1800 X91.95 Y118.145 E58.37339
G1 X91.95 Y92.045 E60.19638
G1 X118.05 Y92.045 E62.01937
G1 X118.05 Y118.145 E63.84236
M204 S3000
M205 X10 Y10
G0 F3000 X117.789 Y92.447
M204 S1800
M205 X8 Y8
G1 F1800 X117.647 Y92.305 E63.85638
M204 S3000
M205 X10 Y10
G0 F3000 X116.855 Y92.305
M204 S1800
M205 X8 Y8
G1 F1800 X117.789 Y93.239 E63.94864
M204 S3000
M205 X10 Y10
G0 F3000 X117.789 Y94.031
M204 S1800
M205 X8 Y8
G1 F1800 X116.063 Y92.305 E64.11913
M204 S3000
M205 X10 Y10
G0 F3000 X115.271 Y92.305
M204 S1800
M205 X8 Y8
G1 F1800 X117.789 Y94.823 E64.36785
M204 S3000
M205 X10 Y10
G0 F3000 X117.789 Y95.614
M204 S1800
M205 X8 Y8
G1 F1800 X114.479 Y92.305 E64.69476
M204 S3000
M205 X10 Y10
G0 F3000 X113.687 Y92.305
M204 S1800
M205 X8 Y8
G1 F1800 X117.789 Y96.406 E65.09989
M204 S3000
M205 X10 Y10
G0 F3000 X117.789 Y97.198
M204 S1800
M205 X8 Y8
G1 F1800 X112.895 Y92.305 E65.58326
M204 S3000
M205 X10 Y10
G0 F3000 X112.104 Y92.305
M204 S1800
M205 X8 Y8
G1 F1800 X117.789 Y97.99 E66.14481
M204 S3000
M205 X10 Y10
G0 F3000 X117.789 Y98.782
M204 S1800
M205 X8 Y8
G1 F1800 X111.312 Y92.305 E66.78459
M204 S3000
M205 X10 Y10
G0 F3000 X110.52 Y92.305
M204 S1800
M205 X8 Y8
G1 F1800 X117.789 Y99.574 E67.50261
M204 S3000
M205 X10 Y10
G0 F3000 X117.789 Y100.366
M204 S1800
M205 X8 Y8
G1 F1800 X109.728 Y92.305 E68.29885
M204 S3000
M205 X10 Y10
G0 F3000 X108.936 Y92.305
M204 S1800
M205 X8 Y8
G1 F1800 X117.789 Y101.158 E69.17333
M204 S3000
M205 X10 Y10
G0 F3000 X117.789 Y101.95
M204 S1800
M205 X8 Y8
G1 F1800 X108.144 Y92.305 E70.12604
M204 S3000
M205 X10 Y10
G0 F3000 X107.352 Y92.305
M204 S1800
M205 X8 Y8
G1 F1800 X117.789 Y102.742 E71.15698
M204 S3000
M205 X10 Y10
G0 F3000 X117.789 Y103.534
M204 S1800
M205 X8 Y8
G1 F1800 X106.56 Y92.305 E72.26616
M204 S3000
M205 X10 Y10
G0 F3000 X105.768 Y92.305
M204 S1800
M205 X8 Y8
G1 F1800 X117.789 Y104.326 E73.45356
M204 S3000
M205 X10 Y10
G0 F3000 X117.789 Y105.118
M204 S1800
M205 X8 Y8
G1 F1800 X104.976 Y92.305 E74.7192
M204 S3000
M205 X10 Y10
G0 F3000 X104.184 Y92.305
M204 S1800
M205 X8 Y8
G1 F1800 X117.789 Y105.91 E76.06307
M204 S3000
M205 X10 Y10
G0 F3000 X117.789 Y106.702
M204 S1800
M205 X8 Y8
G1 F1800 X103.392 Y92.305 E77.48517
M204 S3000
M205 X10 Y10
G0 F3000 X102.6 Y92.305
M204 S1800
M205 X8 Y8
G1 F1800 X117.789 Y107.494 E78.9855
M204 S3000
M205 X10 Y10
G0 F3000 X117.789 Y108.286
M204 S1800
M205 X8 Y8
G1 F1800 X101.808 Y92.305 E80.56406
M204 S3000
M205 X10 Y10
G0 F3000 X101.016 Y92.305
M204 S1800
M205 X8 Y8
G1 F1800 X117.789 Y109.078 E82.22086
M204 S3000
M205 X10 Y10
G0 F3000 X117.789 Y109.87
M204 S1800
M205 X8 Y8
G1 F1800 X100.224 Y92.305 E83.95589
M204 S3000
M205 X10 Y10
G0 F3000 X99.432 Y92.305
M204 S1800
M205 X8 Y8
G1 F1800 X117.789 Y110.662 E85.76915
M204 S3000
M205 X10 Y10
G0 F3000 X117.789 Y111.454
M204 S1800
M205 X8 Y8
G1 F1800 X98.64 Y92.305 E87.66064
M204 S3000
M205 X10 Y10
G0 F3000 X97.848 Y92.305
M204 S1800
M205 X8 Y8
G1 F1800 X117.789 Y112.246 E89.63036
M204 S3000
M205 X10 Y10
G0 F3000 X117.789 Y113.038
M204 S1800
M205 X8 Y8
G1 F1800 X97.056 Y92.305 E91.67832
M204 S3000
M205 X10 Y10
G0 F3000 X96.264 Y92.305
M204 S1800
M205 X8 Y8
G1 F1800 X117.789 Y113.83 E93.8045
M204 S3000
M205 X10 Y10
G0 F3000 X117.789 Y114.622
M204 S1800
M205 X8 Y8
G1 F1800 X95.472 Y92.305 E96.00892
M204 S3000
M205 X10 Y10
G0 F3000 X94.68 Y92.305
M204 S1800
M205 X8 Y8
G1 F1800 X117.789 Y115.413 E98.29152
M204 S3000
M205 X10 Y10
G0 F3000 X117.789 Y116.205
M204 S1800
M205 X8 Y8
G1 F1800 X93.888 Y92.305 E100.65236
M204 S3000
M205 X10 Y10
G0 F3000 X93.096 Y92.305
M204 S1800
M205 X8 Y8
G1 F1800 X117.789 Y116.997 E103.09142
M204 S3000
M205 X10 Y10
G0 F3000 X117.789 Y117.789
M204 S1800
M205 X8 Y8
G1 F1800 X92.305 Y92.305 E105.60867
M204 S3000
M205 X10 Y10
G0 F3000 X92.209 Y93.001
M204 S1800
M205 X8 Y8
G1 F1800 X117.091 Y117.883 E108.06645
M204 S3000
M205 X10 Y10
G0 F3000 X116.299 Y117.883
M204 S1800
M205 X8 Y8
G1 F1800 X92.209 Y93.793 E110.446
M204 S3000
M205 X10 Y10
G0 F3000 X92.209 Y94.585
M204 S1800
M205 X8 Y8
G1 F1800 X115.508 Y117.883 E112.74737
M204 S3000
M205 X10 Y10
G0 F3000 X114.716 Y117.883
M204 S1800
M205 X8 Y8
G1 F1800 X92.209 Y95.377 E114.97051
M204 S3000
M205 X10 Y10
G0 F3000 X92.209 Y96.169
M204 S1800
M205 X8 Y8
G1 F1800 X113.924 Y117.883 E117.11542
M204 S3000
M205 X10 Y10
G0 F3000 X113.132 Y117.883
M204 S1800
M205 X8 Y8
G1 F1800 X92.209 Y96.961 E119.18209
M204 S3000
M205 X10 Y10
G0 F3000 X92.209 Y97.753
M204 S1800
M205 X8 Y8
G1 F1800 X112.34 Y117.883 E121.17053
M204 S3000
M205 X10 Y10
G0 F3000 X111.548 Y117.883
M204 S1800
M205 X8 Y8
G1 F1800 X92.209 Y98.545 E123.08074
M204 S3000
M205 X10 Y10
G0 F3000 X92.209 Y99.337
M204 S1800
M205 X8 Y8
G1 F1800 X110.756 Y117.883 E124.91272
M204 S3000
M205 X10 Y10
G0 F3000 X109.964 Y117.883
M204 S1800
M205 X8 Y8
G1 F1800 X92.209 Y100.129 E126.66647
M204 S3000
M205 X10 Y10
G0 F3000 X92.209 Y100.921
M204 S1800
M205 X8 Y8
G1 F1800 X109.172 Y117.883 E128.34198
M204 S3000
M205 X10 Y10
G0 F3000 X108.38 Y117.883
M204 S1800
M205 X8 Y8
G1 F1800 X92.209 Y101.713 E129.93926
M204 S3000
M205 X10 Y10
G0 F3000 X92.209 Y102.505
M204 S1800
M205 X8 Y8
G1 F1800 X107.588 Y117.883 E131.45831
M204 S3000
M205 X10 Y10
G0 F3000 X106.796 Y117.883
M204 S1800
M205 X8 Y8
G1 F1800 X92.209 Y103.296 E132.89918
M204 S3000
M205 X10 Y10
G0 F3000 X92.209 Y104.088
M204 S1800
M205 X8 Y8
G1 F1800 X106.004 Y117.883 E134.26182
M204 S3000
M205 X10 Y10
G0 F3000 X105.212 Y117.883
M204 S1800
M205 X8 Y8
G1 F1800 X92.209 Y104.88 E135.54622
M204 S3000
M205 X10 Y10
G0 F3000 X92.209 Y105.672
M204 S1800
M205 X8 Y8
G1 F1800 X104.42 Y117.883 E136.7524
M204 S3000
M205 X10 Y10
G0 F3000 X103.628 Y117.883
M204 S1800
M205 X8 Y8
G1 F1800 X92.209 Y106.464 E137.88034
M204 S3000
M205 X10 Y10
G0 F3000 X92.209 Y107.256
M204 S1800
M205 X8 Y8
G1 F1800 X102.836 Y117.883 E138.93005
M204 S3000
M205 X10 Y10
G0 F3000 X102.044 Y117.883
M204 S1800
M205 X8 Y8
G1 F1800 X92.209 Y108.048 E139.90152
M204 S3000
M205 X10 Y10
G0 F3000 X92.209 Y108.84
M204 S1800
M205 X8 Y8
G1 F1800 X101.252 Y117.883 E140.79477
M204 S3000
M205 X10 Y10
G0 F3000 X100.46 Y117.883
M204 S1800
M205 X8 Y8
G1 F1800 X92.209 Y109.632 E141.60978
M204 S3000
M205 X10 Y10
G0 F3000 X92.209 Y110.424
M204 S1800
M205 X8 Y8
G1 F1800 X99.668 Y117.883 E142.34656
M204 S3000
M205 X10 Y10
G0 F3000 X98.876 Y117.883
M204 S1800
M205 X8 Y8
G1 F1800 X92.209 Y111.216 E143.00511
M204 S3000
M205 X10 Y10
G0 F3000 X92.209 Y112.008
M204 S1800
M205 X8 Y8
G1 F1800 X98.084 Y117.883 E143.58543
M204 S3000
M205 X10 Y10
G0 F3000 X97.292 Y117.883
M204 S1800
M205 X8 Y8
G1 F1800 X92.209 Y112.8 E144.08752
M204 S3000
M205 X10 Y10
G0 F3000 X92.209 Y113.592
M204 S1800
M205 X8 Y8
G1 F1800 X96.5 Y117.883 E144.51137
M204 S3000
M205 X10 Y10
G0 F3000 X95.709 Y117.883
M204 S1800
M205 X8 Y8
G1 F1800 X92.209 Y114.384 E144.85704
M204 S3000
M205 X10 Y10
G0 F3000 X92.209 Y115.176
M204 S1800
M205 X8 Y8
G1 F1800 X94.917 Y117.883 E145.12449
M204 S3000
M205 X10 Y10
G0 F3000 X94.125 Y117.883
M204 S1800
M205 X8 Y8
G1 F1800 X92.209 Y115.968 E145.31369
M204 S3000
M205 X10 Y10
G0 F3000 X92.209 Y116.76
M204 S1800
M205 X8 Y8
G1 F1800 X93.333 Y117.883 E145.42467
M204 S3000
M205 X10 Y10
G0 F3000 X92.541 Y117.883
M204 S1800
M205 X8 Y8
G1 F1800 X92.209 Y117.552 E145.45741
M204 S3000
M205 X10 Y10
;MESH:NONMESH
G0 F600 X92.209 Y117.552 Z0.6
G0 F3000 X119 Y119.095
;TIME_ELAPSED:74.649047
;LAYER:1
M106 S255
M204 S1800
M205 X8 Y8
;TYPE:WALL-INNER
;MESH:hannkomotitehina2.stl
G1 F2700 X91 Y119.095 E146.85434
G1 X91 Y91.095 E148.25127
G1 X119 Y91.095 E149.64819
G1 X119 Y119.095 E151.04512
M204 S3000
M205 X10 Y10
G0 F4500 X119.4 Y119.495
M204 S1800
M205 X8 Y8
G1 F2700 X90.6 Y119.495 E152.48196
G1 X90.6 Y90.695 E153.91879
G1 X119.4 Y90.695 E155.35563
G1 X119.4 Y119.495 E156.79247
M204 S3000
M205 X10 Y10
G0 F4500 X119.8 Y119.895
M204 S1800
M205 X8 Y8
;TYPE:WALL-OUTER
G1 F2700 X90.2 Y119.895 E158.26922
G1 X90.2 Y90.295 E159.74597
G1 X119.8 Y90.295 E161.22272
G1 X119.8 Y119.895 E162.69947
M204 S3000
M205 X10 Y10
G0 F4500 X119.6 Y119.895
G0 X119.33 Y119.425
G0 X118.61 Y118.705
M204 S1800
M205 X8 Y8
;TYPE:SKIN
G1 F1800 X91.39 Y118.705 E164.05748
G1 X91.39 Y91.485 E165.41549
G1 X118.61 Y91.485 E166.7735
G1 X118.61 Y118.705 E168.13151
M204 S3000
M205 X10 Y10
G0 F4500 X118.429 Y118.027
M204 S1800
M205 X8 Y8
G1 F1800 X117.931 Y118.524 E168.16662
M204 S3000
M205 X10 Y10
G0 F4500 X117.366 Y118.524
M204 S1800
M205 X8 Y8
G1 F1800 X118.429 Y117.461 E168.24162
M204 S3000
M205 X10 Y10
G0 F4500 X118.429 Y116.896
M204 S1800
M205 X8 Y8
G1 F1800 X116.8 Y118.524 E168.35652
M204 S3000
M205 X10 Y10
G0 F4500 X116.234 Y118.524
M204 S1800
M205 X8 Y8
