;FLAVOR:Marlin
;TIME:2410
;Filament used: 4.32369m
;Layer height: 0.3
;MINX:81.794
;MINY:89.817
;MINZ:0.3
;MAXX:128.667
;MAXY:116.239
;MAXZ:58.8
;Generated with Cura_SteamEngine 4.11.0
M140 S60
M105
M190 S60
M104 S200
M105
M109 S200
M82 ;absolute extrusion mode
G21 ;metric values
G90 ;absolute positioning
M82 ;set extruder to absolute mode
M107 ;start with the fan off
G28 X0 Y0 ;move X/Y to min endstops
G28 Z0 ;move Z to min endstops
G1 Z15.0 F100 ;move the platform down 15mm
G92 E0 ;zero the extruded length
G1 F200 E3 ;extrude 3mm of feed stock
G92 E0 ;zero the extruded length again
G1 F100
G0 Y20 F100
M117 Printing...
G5
G92 E0
G92 E0
G1 F2400 E-6
;LAYER_COUNT:196
;LAYER:0
M107
M204 S3000
M205 X10 Y10
G1 F600 Z0.375
G0 F3000 X84.289 Y94.959 Z0.375
M204 S1800
M205 X8 Y8
;TYPE:SKIRT
G1 F600 Z0.3
G1 F2400 E0
G1 X84.847 Y94.511 E0.04998
G1 X85.462 Y94.112 E0.10119
G1 X85.7 Y93.971 E0.12051
G1 X86.233 Y93.67 E0.16326
G1 X86.874 Y93.354 E0.21318
G1 X87.547 Y93.111 E0.26315
G1 X87.992 Y92.995 E0.29527
G1 X90.715 Y92.39 E0.4901
G1 X93.264 Y91.749 E0.67368
G1 X95.832 Y91.023 E0.86008
G1 X97.157 Y90.608 E0.95706
G1 X97.92 Y90.38 E1.01268
G1 X98.811 Y90.182 E1.07643
G1 X99.086 Y90.141 E1.09585
G1 X100.586 Y89.938 E1.20158
G1 X101.124 Y89.873 E1.23943
G1 X101.677 Y89.831 E1.27816
G1 X102.372 Y89.817 E1.32672
G1 X102.682 Y89.817 E1.34837
G1 X104.036 Y89.836 E1.44295
G1 X107.333 Y89.826 E1.67323
G1 X107.869 Y89.82 E1.71067
G1 X108.411 Y89.829 E1.74854
G1 X109.296 Y89.905 E1.81058
G1 X109.7 Y89.968 E1.83914
G1 X110.313 Y90.058 E1.88241
G1 X111.186 Y90.199 E1.94418
G1 X111.708 Y90.305 E1.98138
G1 X112.819 Y90.581 E2.06134
G1 X115.395 Y91.183 E2.24611
G1 X118.047 Y91.727 E2.4352
G1 X120.607 Y92.173 E2.6167
G1 X123.037 Y92.531 E2.78826
G1 X123.739 Y92.671 E2.83826
G1 X124.42 Y92.888 E2.88818
G1 X125.073 Y93.18 E2.93814
G1 X125.689 Y93.543 E2.98808
G1 X126.261 Y93.973 E3.03806
G1 X126.782 Y94.463 E3.08802
G1 X127.338 Y95.135 E3.14894
G1 X127.473 Y95.323 E3.1651
G1 X127.857 Y95.926 E3.21504
G1 X128.171 Y96.569 E3.26502
G1 X128.412 Y97.242 E3.31494
G1 X128.576 Y97.939 E3.36496
G1 X128.661 Y98.649 E3.4149
G1 X128.667 Y99.364 E3.46484
G1 X128.592 Y100.075 E3.51478
G1 X128.435 Y100.789 E3.56584
G1 X128.426 Y100.821 E3.56816
G1 X128.194 Y101.497 E3.61808
G1 X127.838 Y102.252 E3.67639
G1 X127.573 Y102.753 E3.71597
G1 X127.237 Y103.359 E3.76437
G1 X126.746 Y104.21 E3.83299
G1 X126.352 Y104.811 E3.88319
G1 X125.995 Y105.293 E3.92508
G1 X124.987 Y106.617 E4.04131
G1 X123.45 Y108.762 E4.22562
G1 X121.195 Y112.152 E4.51
G1 X120.917 Y112.59 E4.54623
G1 X120.603 Y113.041 E4.58462
G1 X120.293 Y113.438 E4.6198
G1 X120.219 Y113.527 E4.62788
G1 X119.732 Y114.05 E4.6778
G1 X118.982 Y114.668 E4.74568
G1 X118.732 Y114.844 E4.76703
G1 X118.125 Y115.223 E4.81701
G1 X117.299 Y115.602 E4.88049
G1 X116.905 Y115.75 E4.90989
G1 X116.222 Y115.964 E4.95988
G1 X115.52 Y116.1 E5.00982
G1 X114.944 Y116.152 E5.05022
G1 X114.383 Y116.178 E5.08944
G1 X113.458 Y116.225 E5.15413
G1 X112.682 Y116.234 E5.20834
G1 X110.029 Y116.129 E5.39378
G1 X107.112 Y116.099 E5.59754
G1 X104.772 Y116.102 E5.76098
G1 X102.89 Y116.099 E5.89243
G1 X100.247 Y116.133 E6.07705
G1 X98.943 Y116.192 E6.16822
G1 X97.521 Y116.239 E6.2676
G1 X97.003 Y116.235 E6.30378
G1 X96.285 Y116.199 E6.35399
G1 X95.145 Y116.13 E6.43376
G1 X94.435 Y116.048 E6.48368
G1 X93.472 Y115.804 E6.55307
G1 X93.333 Y115.757 E6.56332
G1 X92.739 Y115.522 E6.60793
G1 X92.523 Y115.424 E6.6245
G1 X91.889 Y115.093 E6.67446
G1 X91.295 Y114.692 E6.72451
G1 X90.79 Y114.293 E6.76947
G1 X90.26 Y113.812 E6.81946
G1 X89.649 Y113.092 E6.88541
G1 X89.492 Y112.871 E6.90435
G1 X88.024 Y110.721 E7.08618
G1 X86.459 Y108.564 E7.27232
G1 X84.845 Y106.465 E7.45726
G1 X83.446 Y104.741 E7.61233
G1 X83.279 Y104.541 E7.63053
G1 X82.852 Y103.967 E7.6805
G1 X82.491 Y103.349 E7.73049
G1 X82.202 Y102.695 E7.78043
G1 X81.988 Y102.013 E7.83036
G1 X81.851 Y101.311 E7.88031
G1 X81.794 Y100.598 E7.93027
G1 X81.816 Y99.883 E7.98024
G1 X81.918 Y99.175 E8.0302
G1 X82.099 Y98.483 E8.08016
G1 X82.481 Y97.551 E8.15051
G1 X82.801 Y96.927 E8.19949
G1 X82.962 Y96.634 E8.22284
G1 X83.341 Y96.027 E8.27282
G1 X83.785 Y95.467 E8.32274
G1 X84.289 Y94.959 E8.37272
M204 S3000
M205 X10 Y10
G0 F3000 X84.733 Y95.315
M204 S1800
M205 X8 Y8
G1 F2400 X85.482 Y94.76 E8.43783
G1 X85.975 Y94.459 E8.47818
G1 X86.508 Y94.158 E8.52093
G1 X87.122 Y93.857 E8.56869
G1 X87.766 Y93.63 E8.61639
G1 X88.114 Y93.542 E8.64146
G1 X90.821 Y92.941 E8.83514
G1 X93.417 Y92.288 E9.02211
G1 X95.985 Y91.562 E9.2085
G1 X97.317 Y91.144 E9.30601
G1 X98.08 Y90.916 E9.36163
G1 X98.893 Y90.736 E9.41979
G1 X99.161 Y90.696 E9.43872
G1 X100.654 Y90.494 E9.54395
G1 X101.192 Y90.429 E9.5818
G1 X101.696 Y90.39 E9.61711
G1 X102.379 Y90.377 E9.66482
G1 X102.765 Y90.378 E9.69178
G1 X104.029 Y90.396 E9.78008
G1 X107.347 Y90.386 E10.01183
G1 X107.86 Y90.38 E10.04766
G1 X108.402 Y90.389 E10.08552
G1 X109.209 Y90.458 E10.14209
G1 X110.125 Y90.596 E10.2068
G1 X111.097 Y90.752 E10.27556
G1 X111.573 Y90.849 E10.30949
G1 X112.616 Y91.108 E10.38455
G1 X115.307 Y91.737 E10.57757
G1 X117.935 Y92.276 E10.76495
G1 X120.508 Y92.724 E10.94737
G1 X122.959 Y93.086 E11.12042
G1 X123.628 Y93.221 E11.16808
G1 X124.278 Y93.434 E11.21586
G1 X124.898 Y93.721 E11.26358
G1 X125.48 Y94.078 E11.31127
G1 X126.016 Y94.501 E11.35896
G1 X126.5 Y94.984 E11.40672
G1 X126.883 Y95.462 E11.4495
G1 X127.018 Y95.65 E11.46567
G1 X127.383 Y96.227 E11.51335
G1 X127.678 Y96.843 E11.56106
G1 X127.9 Y97.489 E11.60877
G1 X128.044 Y98.157 E11.6565
G1 X128.11 Y98.837 E11.70422
G1 X128.096 Y99.52 E11.75193
G1 X128.001 Y100.197 E11.79968
G1 X127.887 Y100.669 E11.8336
G1 X127.664 Y101.315 E11.88133
G1 X127.337 Y102.002 E11.93447
G1 X127.08 Y102.488 E11.97287
G1 X126.701 Y103.169 E12.02731
G1 X126.261 Y103.93 E12.08871
G1 X125.902 Y104.478 E12.13446
G1 X125.549 Y104.954 E12.17586
G1 X124.517 Y106.31 E12.29488
G1 X123.003 Y108.422 E12.47638
G1 X120.729 Y111.841 E12.76318
G1 X120.444 Y112.29 E12.80033
G1 X120.158 Y112.701 E12.8353
G1 X119.789 Y113.169 E12.87692
G1 X119.322 Y113.668 E12.92466
G1 X118.66 Y114.21 E12.98442
G1 X118.41 Y114.386 E13.00577
G1 X117.829 Y114.746 E13.05351
G1 X117.102 Y115.078 E13.10934
G1 X116.708 Y115.226 E13.13873
G1 X116.055 Y115.428 E13.18647
G1 X115.383 Y115.553 E13.23422
G1 X114.918 Y115.593 E13.26682
G1 X114.322 Y115.62 E13.30849
G1 X113.429 Y115.665 E13.37094
G1 X112.704 Y115.674 E13.42158
G1 X110.057 Y115.569 E13.60661
G1 X107.117 Y115.539 E13.81197
G1 X104.773 Y115.542 E13.97569
G1 X102.954 Y115.539 E14.10274
G1 X100.213 Y115.574 E14.2942
G1 X98.925 Y115.632 E14.38426
G1 X97.503 Y115.679 E14.48363
G1 X97.029 Y115.675 E14.51674
G1 X96.322 Y115.64 E14.56618
G1 X95.178 Y115.571 E14.64623
G1 X94.5 Y115.491 E14.69392
G1 X93.651 Y115.273 E14.75514
G1 X93.512 Y115.226 E14.76539
G1 X92.97 Y115.012 E14.80609
G1 X92.754 Y114.914 E14.82265
G1 X92.149 Y114.596 E14.87039
G1 X91.634 Y114.246 E14.91388
G1 X91.142 Y113.858 E14.95765
G1 X90.638 Y113.397 E15.00536
G1 X90.101 Y112.762 E15.06344
G1 X89.954 Y112.555 E15.08118
G1 X88.48 Y110.395 E15.26382
G1 X86.912 Y108.235 E15.45025
G1 X85.271 Y106.101 E15.63828
G1 X83.884 Y104.392 E15.79201
G1 X83.709 Y104.182 E15.8111
G1 X83.302 Y103.633 E15.85884
G1 X82.963 Y103.04 E15.90655
G1 X82.695 Y102.412 E15.95424
G1 X82.502 Y101.756 E16.002
G1 X82.387 Y101.083 E16.04969
G1 X82.352 Y100.4 E16.09745
G1 X82.397 Y99.718 E16.14519
G1 X82.521 Y99.047 E16.19285
G1 X82.722 Y98.394 E16.24057
G1 X82.981 Y97.804 E16.28558
G1 X83.292 Y97.197 E16.33322
G1 X83.453 Y96.904 E16.35657
G1 X83.816 Y96.325 E16.4043
G1 X84.245 Y95.793 E16.45203
G1 X84.733 Y95.315 E16.49975
M204 S3000
M205 X10 Y10
G0 F3000 X85.174 Y95.674
M204 S1800
M205 X8 Y8
G1 F2400 X85.778 Y95.235 E16.5519
G1 X86.251 Y94.946 E16.59062
G1 X86.784 Y94.645 E16.63337
G1 X87.368 Y94.361 E16.67873
G1 X88.235 Y94.089 E16.74219
G1 X90.977 Y93.48 E16.93838
G1 X93.529 Y92.838 E17.12218
G1 X96.138 Y92.101 E17.31154
G1 X97.477 Y91.681 E17.40956
G1 X98.24 Y91.453 E17.46518
G1 X98.975 Y91.289 E17.51778
G1 X99.237 Y91.251 E17.53627
G1 X100.721 Y91.05 E17.64087
G1 X101.259 Y90.985 E17.67872
G1 X101.864 Y90.945 E17.72107
G1 X102.385 Y90.937 E17.75746
G1 X102.682 Y90.937 E17.77821
G1 X104.023 Y90.956 E17.87188
G1 X107.36 Y90.946 E18.10496
G1 X107.851 Y90.94 E18.13926
G1 X108.393 Y90.949 E18.17712
G1 X109.123 Y91.012 E18.22829
G1 X109.537 Y91.077 E18.25757
G1 X110.135 Y91.164 E18.29977
G1 X111.008 Y91.305 E18.36154
G1 X111.438 Y91.393 E18.3922
G1 X112.514 Y91.66 E18.46963
G1 X115.17 Y92.281 E18.66014
G1 X117.798 Y92.82 E18.84752
G1 X120.447 Y93.281 E19.03532
G1 X122.626 Y93.604 E19.18918
G1 X122.88 Y93.64 E19.2071
G1 X123.516 Y93.771 E19.25246
G1 X124.132 Y93.979 E19.29787
G1 X124.717 Y94.26 E19.3432
G1 X125.263 Y94.612 E19.38857
G1 X125.763 Y95.028 E19.434
G1 X126.207 Y95.502 E19.47936
G1 X126.563 Y95.976 E19.52077
G1 X126.909 Y96.526 E19.56615
G1 X127.184 Y97.115 E19.61156
G1 X127.385 Y97.732 E19.65688
G1 X127.509 Y98.37 E19.70228
G1 X127.554 Y99.018 E19.74765
G1 X127.519 Y99.667 E19.79304
G1 X127.357 Y100.486 E19.85135
G1 X127.348 Y100.518 E19.85368
G1 X127.134 Y101.131 E19.89903
G1 X126.837 Y101.751 E19.94704
G1 X126.586 Y102.224 E19.98444
G1 X126.216 Y102.889 E20.0376
G1 X125.776 Y103.65 E20.099
G1 X125.451 Y104.145 E20.14036
G1 X125.104 Y104.615 E20.18116
G1 X124.061 Y105.986 E20.30148
G1 X122.529 Y108.123 E20.48514
G1 X120.269 Y111.52 E20.77011
G1 X119.971 Y111.99 E20.80899
G1 X119.571 Y112.547 E20.85688
G1 X119.358 Y112.811 E20.88057
G1 X118.913 Y113.284 E20.92593
G1 X118.337 Y113.752 E20.97777
G1 X118.087 Y113.928 E20.99913
G1 X117.534 Y114.269 E21.0445
G1 X116.905 Y114.554 E21.09274
G1 X116.511 Y114.702 E21.12213
G1 X115.89 Y114.892 E21.16749
G1 X115.25 Y115.005 E21.21289
G1 X114.893 Y115.034 E21.2379
G1 X114.297 Y115.06 E21.27957
G1 X113.293 Y115.111 E21.34979
G1 X112.726 Y115.115 E21.38939
G1 X110.05 Y115.009 E21.57645
G1 X107.123 Y114.979 E21.7809
G1 X104.774 Y114.982 E21.94497
G1 X102.948 Y114.979 E22.07251
G1 X100.212 Y115.014 E22.26362
G1 X98.906 Y115.072 E22.35493
G1 X97.484 Y115.119 E22.45431
G1 X97.056 Y115.116 E22.4842
G1 X96.359 Y115.082 E22.53294
G1 X96.056 Y115.062 E22.55415
G1 X95.211 Y115.012 E22.61327
G1 X94.566 Y114.934 E22.65865
G1 X93.831 Y114.743 E22.7117
G1 X93.692 Y114.696 E22.72194
G1 X93.201 Y114.502 E22.75882
G1 X92.985 Y114.404 E22.77539
G1 X92.412 Y114.1 E22.82069
G1 X91.973 Y113.8 E22.85783
G1 X91.495 Y113.423 E22.90035
G1 X91.017 Y112.983 E22.94573
G1 X90.554 Y112.432 E22.996
G1 X90.417 Y112.239 E23.01253
G1 X88.936 Y110.069 E23.19603
G1 X87.379 Y107.923 E23.38122
G1 X85.72 Y105.766 E23.57128
G1 X84.318 Y104.039 E23.72665
G1 X84.138 Y103.823 E23.74629
G1 X83.754 Y103.3 E23.79161
G1 X83.436 Y102.733 E23.83701
G1 X83.19 Y102.132 E23.88237
G1 X83.021 Y101.505 E23.92773
G1 X82.929 Y100.862 E23.9731
G1 X82.917 Y100.212 E24.0185
G1 X82.985 Y99.566 E24.06387
G1 X83.132 Y98.933 E24.10926
G1 X83.48 Y98.057 E24.1751
G1 X83.783 Y97.466 E24.22149
G1 X83.944 Y97.173 E24.24484
G1 X84.291 Y96.624 E24.2902
G1 X84.703 Y96.122 E24.33556
G1 X85.174 Y95.674 E24.38096
M204 S3000
M205 X10 Y10
G0 F3000 X88.773 Y99.912
M204 S1800
M205 X8 Y8
;TYPE:SUPPORT
G1 F1800 X89.324 Y99.588 E24.42561
G1 X89.776 Y100.067 E24.47161
G1 X90.225 Y100.193 E24.50418
G1 X90.265 Y100.37 E24.51686
G1 X90.659 Y100.767 E24.55592
G1 X91.917 Y101.06 E24.64614
G1 X93.256 Y102.294 E24.77333
G1 X93.837 Y102.353 E24.81411
G1 X95.022 Y101.641 E24.91067
G1 X95.245 Y101.544 E24.92766
G1 X95.669 Y101.661 E24.95838
G1 X96.717 Y101.428 E25.03337
G1 X97.464 Y101.344 E25.08587
G1 X97.773 Y101.61 E25.11435
G1 X99.565 Y101.552 E25.23958
G1 X101.024 Y101.539 E25.34149
G1 X102.385 Y101.533 E25.43655
G1 X104.785 Y101.528 E25.60418
G1 X109.243 Y101.53 E25.91556
G1 X110.842 Y101.542 E26.02724
G1 X112.661 Y101.603 E26.15437
G1 X112.99 Y101.314 E26.18495
G1 X113.663 Y101.383 E26.23221
G1 X114.598 Y101.591 E26.29911
G1 X115.111 Y101.451 E26.33625
G1 X116.32 Y101.986 E26.42859
G1 X116.872 Y101.911 E26.4675
G1 X117.382 Y101.494 E26.51351
G1 X119.085 Y101.008 E26.63721
G1 X119.467 Y100.62 E26.67524
G1 X119.517 Y100.433 E26.68876
G1 X119.581 Y100.444 E26.6933
G1 X120.1 Y100.18 E26.73397
G1 X120.296 Y99.79 E26.76446
G1 X120.358 Y99.818 E26.76921
G1 X120.904 Y99.761 E26.80755
G1 X121.533 Y99.304 E26.86185
G1 X121.911 Y99.184 E26.88956
G1 X121.621 Y99.723 E26.93231
G1 X120.938 Y100.448 E27.00188
G1 X120.938 Y100.77 E27.02437
G1 X120.559 Y100.835 E27.05122
G1 X120.144 Y101.213 E27.09043
G1 X120.006 Y101.725 E27.12747
G1 X118.391 Y102.346 E27.24832
G1 X118.24 Y102.51 E27.26389
G1 X117.912 Y102.544 E27.28693
G1 X116.161 Y103.405 E27.42321
G1 X115.868 Y103.885 E27.46249
G1 X115.902 Y105.516 E27.57644
G1 X115.836 Y106.111 E27.61825
G1 X115.783 Y106.607 E27.65309
G1 X115.447 Y108.099 E27.75991
G1 X115.372 Y108.601 E27.79536
G1 X115.265 Y109.044 E27.82719
G1 X115.098 Y109.253 E27.84588
G1 X114.892 Y109.39 E27.86316
G1 X114.686 Y109.463 E27.87842
G1 X114.266 Y109.332 E27.90915
G1 X113.114 Y109.548 E27.99102
G1 X112.623 Y109.249 E28.03117
G1 X110.877 Y109.383 E28.15348
G1 X109.518 Y109.406 E28.24842
G1 X107.129 Y109.42 E28.41528
G1 X104.771 Y109.422 E28.57998
G1 X102.639 Y109.419 E28.72889
G1 X101.019 Y109.408 E28.84205
G1 X100.444 Y109.401 E28.88221
G1 X99.472 Y109.383 E28.95011
G1 X97.588 Y109.275 E29.08192
G1 X97.149 Y109.555 E29.11829
G1 X97.108 Y109.551 E29.12117
G1 X95.939 Y109.325 E29.20433
G1 X95.495 Y109.445 E29.23645
G1 X95.344 Y109.39 E29.24768
G1 X95.026 Y109.14 E29.27593
G1 X94.972 Y109.048 E29.28338
G1 X94.834 Y108.425 E29.32795
G1 X94.79 Y108.116 E29.34975
G1 X94.639 Y107.45 E29.39745
G1 X94.418 Y106.393 E29.47287
G1 X94.411 Y106.349 E29.47598
G1 X94.324 Y105.494 E29.53601
G1 X94.388 Y104.068 E29.63571
G1 X94.074 Y103.584 E29.67601
G1 X93.155 Y103.219 E29.74507
G1 X91.468 Y101.877 E29.89564
G1 X91.097 Y101.899 E29.9216
G1 X90.916 Y101.663 E29.94237
G1 X90.502 Y101.607 E29.97155
G1 X90.346 Y101.387 E29.99039
G1 X89.878 Y101.137 E30.02745
G1 X89.559 Y101.128 E30.04974
G1 X89.512 Y100.931 E30.06389
G1 X88.548 Y100.337 E30.14297
G1 X88.773 Y99.912 E30.17656
M204 S3000
M205 X10 Y10
G0 F3000 X120 Y100.478
M204 S1800
M205 X8 Y8
G1 F1800 X120 Y101.046 E30.21623
M204 S3000
M205 X10 Y10
G0 F3000 X100.019 Y96.802
M204 S1800
M205 X8 Y8
G1 F1800 X99.705 Y96.852 E30.23844
G1 X99.825 Y96.782 E30.24814
G1 X100.019 Y96.802 E30.26177
M204 S3000
M205 X10 Y10
G0 F3000 X101.928 Y96.573
M204 S1800
M205 X8 Y8
G1 F1800 X102.004 Y96.497 E30.26927
G1 X102.783 Y96.497 E30.32368
G1 X101.928 Y96.573 E30.38364
M204 S3000
M205 X10 Y10
G0 F3000 X107.647 Y96.497
M204 S1800
M205 X8 Y8
G1 F1800 X108.186 Y96.497 E30.42129
G1 X108.261 Y96.57 E30.4286
G1 X107.647 Y96.497 E30.47178
M204 S3000
M205 X10 Y10
G0 F600 X107.647 Y96.497 Z0.6
G0 F3000 X88.712 Y99.854
;TIME_ELAPSED:18.000438
;LAYER:1
M106 S255
M204 S1800
M205 X8 Y8
;TYPE:SUPPORT
G1 F1451.9 X89.339 Y99.487 E30.50803
G1 X89.82 Y99.997 E30.543
G1 X90.291 Y100.13 E30.56742
G1 X90.337 Y100.331 E30.57771
G1 X90.698 Y100.696 E30.60332
G1 X91.956 Y100.987 E30.66774
G1 X93.292 Y102.219 E30.75841
G1 X93.822 Y102.273 E30.78499
G1 X94.988 Y101.568 E30.85296
G1 X95.238 Y101.46 E30.86655
G1 X95.67 Y101.579 E30.88891
G1 X96.702 Y101.349 E30.94166
G1 X97.492 Y101.26 E30.98132
G1 X97.805 Y101.529 E31.00191
G1 X99.566 Y101.472 E31.08981
G1 X101.02 Y101.459 E31.16236
G1 X102.383 Y101.453 E31.23036
G1 X104.783 Y101.448 E31.35009
G1 X109.251 Y101.45 E31.573
G1 X110.845 Y101.462 E31.65253
G1 X112.633 Y101.522 E31.74178
G1 X112.965 Y101.23 E31.76384
G1 X113.672 Y101.303 E31.7993
G1 X114.594 Y101.508 E31.84642
G1 X115.096 Y101.357 E31.87258
G1 X116.335 Y101.906 E31.94019
G1 X116.841 Y101.836 E31.96567
G1 X117.347 Y101.42 E31.99835
G1 X119.041 Y100.937 E32.08624
G1 X119.394 Y100.579 E32.11132
G1 X119.458 Y100.342 E32.12357
G1 X119.568 Y100.36 E32.12913
G1 X120.04 Y100.119 E32.15557
G1 X120.259 Y99.686 E32.17978
G1 X120.372 Y99.736 E32.18594
G1 X120.874 Y99.682 E32.21113
G1 X121.495 Y99.232 E32.24939
G1 X121.987 Y99.076 E32.27514
G1 X122.056 Y99.078 E32.27858
G1 X121.787 Y99.598 E32.30779
