;FLAVOR:Marlin
;TIME:4704
;Filament used: 3.4098m
;Layer height: 0.2
;MINX:77.586
;MINY:73.828
;MINZ:0.2
;MAXX:135.209
;MAXY:126.759
;MAXZ:62
;Generated with Cura_SteamEngine 4.11.0
M140 S60
M105
M190 S60
M104 S200
M105
M109 S200
M82 ;absolute extrusion mode
G21 ;metric values
G90 ;absolute positioning
M82 ;set extruder to absolute mode
M107 ;start with the fan off
G28 X0 Y0 ;move X/Y to min endstops
G28 Z0 ;move Z to min endstops
G1 Z15.0 F100 ;move the platform down 15mm
G92 E0 ;zero the extruded length
G1 F200 E3 ;extrude 3mm of feed stock
G92 E0 ;zero the extruded length again
G1 F100
G0 Y20 F100
M117 Printing...
G5
G92 E0
G92 E0
G1 F2400 E-6
;LAYER_COUNT:310
;LAYER:0
M107
M204 S3000
M205 X10 Y10
G1 F600 Z0.275
G0 F3000 X83.243 Y82.702 Z0.275
M204 S1800
M205 X8 Y8
;TYPE:SKIRT
G1 F600 Z0.2
G1 F2400 E0
G1 X83.684 Y82.327 E0.02696
G1 X84.173 Y82.017 E0.05392
G1 X84.7 Y81.776 E0.0809
G1 X85.088 Y81.652 E0.09987
G1 X113.751 Y73.971 E1.48163
G1 X114.319 Y73.86 E1.50858
G1 X114.898 Y73.828 E1.53558
G1 X115.475 Y73.877 E1.56254
G1 X116.04 Y74.004 E1.58951
G1 X116.583 Y74.208 E1.61652
G1 X117.132 Y74.502 E1.64551
G1 X117.613 Y74.825 E1.67249
G1 X118.045 Y75.211 E1.69947
G1 X118.42 Y75.652 E1.72642
G1 X118.73 Y76.141 E1.75338
G1 X118.971 Y76.668 E1.78037
G1 X119.095 Y77.056 E1.79934
G1 X124.421 Y96.931 E2.75745
G1 X124.624 Y96.84 E2.76781
G1 X125.18 Y96.678 E2.79478
G1 X125.754 Y96.593 E2.8218
G1 X126.076 Y96.581 E2.8368
G1 X128.406 Y96.581 E2.94529
G1 X128.984 Y96.621 E2.97227
G1 X129.551 Y96.74 E2.99925
G1 X130.096 Y96.936 E3.02622
G1 X130.609 Y97.205 E3.05319
G1 X130.878 Y97.385 E3.06826
G1 X132.764 Y98.758 E3.17689
G1 X133.208 Y99.131 E3.20389
G1 X133.596 Y99.561 E3.23086
G1 X133.921 Y100.04 E3.25781
G1 X134.178 Y100.56 E3.28482
G1 X134.286 Y100.855 E3.29945
G1 X135.006 Y103.068 E3.40781
G1 X135.147 Y103.63 E3.43479
G1 X135.209 Y104.205 E3.46172
G1 X135.191 Y104.785 E3.48874
G1 X135.094 Y105.356 E3.51571
G1 X134.925 Y105.894 E3.54197
G1 X133.792 Y108.797 E3.68708
G1 X133.544 Y109.321 E3.71407
G1 X133.227 Y109.806 E3.74105
G1 X132.846 Y110.242 E3.76801
G1 X132.35 Y110.667 E3.79843
G1 X131.019 Y111.635 E3.87506
G1 X131.047 Y111.898 E3.88738
G1 X131.029 Y112.477 E3.91435
G1 X130.932 Y113.049 E3.94137
G1 X130.844 Y113.357 E3.95628
G1 X130.121 Y115.581 E4.06518
G1 X129.905 Y116.119 E4.09217
G1 X129.616 Y116.621 E4.11914
G1 X129.261 Y117.079 E4.14613
G1 X128.847 Y117.484 E4.17309
G1 X128.598 Y117.679 E4.18782
G1 X126.703 Y119.058 E4.29695
G1 X126.212 Y119.366 E4.32394
G1 X125.684 Y119.603 E4.35089
G1 X125.128 Y119.765 E4.37785
G1 X124.555 Y119.85 E4.40483
G1 X124.409 Y119.855 E4.41163
G1 X123.831 Y121.63 E4.49855
G1 X123.614 Y122.167 E4.52552
G1 X123.325 Y122.669 E4.55249
G1 X122.97 Y123.127 E4.57948
G1 X122.556 Y123.532 E4.60645
G1 X122.309 Y123.726 E4.62107
G1 X119.247 Y125.955 E4.79743
G1 X118.756 Y126.262 E4.82439
G1 X118.228 Y126.5 E4.85136
G1 X117.672 Y126.662 E4.87833
G1 X117.098 Y126.747 E4.90534
G1 X116.775 Y126.759 E4.92039
G1 X112.991 Y126.759 E5.09659
G1 X112.413 Y126.719 E5.12357
G1 X111.846 Y126.6 E5.15055
G1 X111.301 Y126.404 E5.17752
G1 X110.788 Y126.135 E5.20449
G1 X110.519 Y125.955 E5.21956
G1 X107.941 Y124.079 E5.36802
G1 X106.683 Y124.08 E5.4266
G1 X104.787 Y124.682 E5.51923
G1 X104.224 Y124.819 E5.54621
G1 X103.516 Y124.879 E5.5793
G1 X102.933 Y124.879 E5.60644
G1 X102.58 Y125.037 E5.62445
G1 X102.024 Y125.199 E5.65142
G1 X101.451 Y125.284 E5.67839
G1 X101.128 Y125.296 E5.69344
G1 X98.992 Y125.296 E5.7929
G1 X98.414 Y125.256 E5.81988
G1 X97.847 Y125.137 E5.84686
G1 X97.302 Y124.941 E5.87383
G1 X96.789 Y124.672 E5.9008
G1 X96.52 Y124.491 E5.9159
G1 X94.791 Y123.232 E6.01549
G1 X94.347 Y122.86 E6.04246
G1 X93.959 Y122.43 E6.06943
G1 X93.633 Y121.95 E6.09645
G1 X93.377 Y121.431 E6.1234
G1 X93.27 Y121.14 E6.13783
G1 X92.849 Y119.85 E6.20102
G1 X92.708 Y119.288 E6.228
G1 X92.645 Y118.712 E6.25498
G1 X92.646 Y118.676 E6.25666
G1 X91.847 Y118.328 E6.29724
G1 X91.647 Y118.213 E6.30798
G1 X91.166 Y117.89 E6.33496
G1 X90.734 Y117.504 E6.36193
G1 X90.359 Y117.063 E6.38889
G1 X90.288 Y116.951 E6.39506
G1 X90.025 Y117.069 E6.40849
G1 X89.469 Y117.231 E6.43545
G1 X88.895 Y117.315 E6.46247
G1 X88.576 Y117.327 E6.47733
G1 X86.396 Y117.327 E6.57884
G1 X85.818 Y117.287 E6.60582
G1 X85.251 Y117.168 E6.6328
G1 X84.706 Y116.972 E6.65976
G1 X84.193 Y116.703 E6.68674
G1 X83.923 Y116.522 E6.70187
G1 X82.16 Y115.238 E6.80343
G1 X81.717 Y114.865 E6.8304
G1 X81.329 Y114.435 E6.85736
G1 X81.003 Y113.956 E6.88434
G1 X80.747 Y113.437 E6.91129
G1 X80.639 Y113.143 E6.92588
G1 X79.965 Y111.073 E7.02724
G1 X79.824 Y110.511 E7.05422
G1 X79.762 Y109.935 E7.0812
G1 X79.78 Y109.356 E7.10817
G1 X79.834 Y109.04 E7.1231
G1 X79.591 Y108.682 E7.14325
G1 X79.334 Y108.162 E7.17026
G1 X79.226 Y107.868 E7.18484
G1 X78.552 Y105.798 E7.28621
G1 X78.411 Y105.236 E7.31319
G1 X78.349 Y104.66 E7.34017
G1 X78.367 Y104.081 E7.36714
G1 X78.464 Y103.51 E7.39411
G1 X78.614 Y103.008 E7.41851
G1 X78.413 Y102.525 E7.44287
G1 X77.789 Y100.608 E7.53674
G1 X77.648 Y100.046 E7.56372
G1 X77.586 Y99.47 E7.5907
G1 X77.604 Y98.891 E7.61767
G1 X77.701 Y98.32 E7.64464
G1 X77.789 Y98.008 E7.65973
G1 X78.413 Y96.091 E7.75361
G1 X78.63 Y95.554 E7.78058
G1 X78.919 Y95.052 E7.80755
G1 X79.274 Y94.594 E7.83453
G1 X79.689 Y94.189 E7.86153
G1 X79.935 Y93.996 E7.87609
G1 X81.568 Y92.807 E7.97015
G1 X82.059 Y92.499 E7.99714
G1 X82.587 Y92.261 E8.02411
G1 X83.143 Y92.099 E8.05107
G1 X83.362 Y92.067 E8.06138
G1 X82.003 Y86.996 E8.30584
G1 X81.892 Y86.428 E8.33279
G1 X81.86 Y85.849 E8.35979
G1 X81.909 Y85.272 E8.38676
G1 X82.036 Y84.707 E8.41372
G1 X82.24 Y84.164 E8.44073
G1 X82.534 Y83.615 E8.46973
G1 X82.857 Y83.134 E8.49671
G1 X83.243 Y82.702 E8.52368
M204 S3000
M205 X10 Y10
G0 F3000 X83.687 Y83.052
M204 S1800
M205 X8 Y8
G1 F2400 X84.107 Y82.713 E8.54882
G1 X84.573 Y82.441 E8.57394
G1 X85.233 Y82.193 E8.60677
G1 X113.896 Y74.512 E9.98853
G1 X114.426 Y74.411 E10.01365
G1 X114.964 Y74.39 E10.03873
G1 X115.501 Y74.449 E10.06388
G1 X116.022 Y74.586 E10.08897
G1 X116.652 Y74.872 E10.12118
G1 X116.852 Y74.987 E10.13193
G1 X117.299 Y75.29 E10.15707
G1 X117.695 Y75.655 E10.18215
G1 X118.034 Y76.075 E10.20728
G1 X118.306 Y76.541 E10.23241
G1 X118.554 Y77.201 E10.26524
G1 X124.063 Y97.758 E11.25623
G1 X124.393 Y97.554 E11.2743
G1 X124.888 Y97.34 E11.29941
G1 X125.409 Y97.203 E11.32449
G1 X126.076 Y97.141 E11.35569
G1 X128.406 Y97.141 E11.46418
G1 X128.944 Y97.181 E11.4893
G1 X129.47 Y97.3 E11.51441
G1 X129.972 Y97.495 E11.53949
G1 X130.548 Y97.838 E11.57071
G1 X132.434 Y99.211 E11.67933
G1 X132.846 Y99.56 E11.70447
G1 X133.201 Y99.966 E11.72959
G1 X133.492 Y100.42 E11.7547
G1 X133.753 Y101.028 E11.78551
G1 X134.473 Y103.241 E11.89387
G1 X134.602 Y103.765 E11.919
G1 X134.651 Y104.302 E11.94411
G1 X134.621 Y104.84 E11.9692
G1 X134.512 Y105.368 E11.9943
G1 X134.403 Y105.69 E12.01013
G1 X133.27 Y108.593 E12.15524
G1 X133.037 Y109.08 E12.18038
G1 X132.735 Y109.527 E12.20549
G1 X132.37 Y109.924 E12.23061
G1 X132.02 Y110.214 E12.25177
G1 X130.421 Y111.377 E12.34384
G1 X130.44 Y111.457 E12.34767
G1 X130.489 Y111.994 E12.37278
G1 X130.459 Y112.533 E12.39791
G1 X130.312 Y113.184 E12.42899
G1 X129.589 Y115.408 E12.53788
G1 X129.384 Y115.907 E12.563
G1 X129.109 Y116.371 E12.58812
G1 X128.767 Y116.788 E12.61323
G1 X128.269 Y117.226 E12.64411
G1 X126.374 Y118.605 E12.75324
G1 X125.915 Y118.889 E12.77838
G1 X125.42 Y119.103 E12.80349
G1 X124.899 Y119.24 E12.82857
G1 X124.232 Y119.302 E12.85976
G1 X123.999 Y119.302 E12.87061
G1 X123.298 Y121.456 E12.97609
G1 X123.094 Y121.956 E13.00124
G1 X122.818 Y122.419 E13.02634
G1 X122.477 Y122.836 E13.05142
G1 X121.979 Y123.273 E13.08227
G1 X118.917 Y125.502 E13.25863
G1 X118.459 Y125.786 E13.28372
G1 X117.964 Y125.999 E13.30881
G1 X117.442 Y126.137 E13.33395
G1 X116.775 Y126.199 E13.36515
G1 X112.991 Y126.199 E13.54134
G1 X112.453 Y126.159 E13.56647
G1 X111.927 Y126.04 E13.59158
G1 X111.425 Y125.845 E13.61665
G1 X110.849 Y125.502 E13.64787
G1 X108.101 Y123.502 E13.80613
G1 X107.905 Y123.52 E13.8153
G1 X106.595 Y123.52 E13.87629
G1 X104.617 Y124.148 E13.97293
G1 X104.093 Y124.273 E13.99801
G1 X103.516 Y124.319 E14.02497
G1 X102.818 Y124.319 E14.05747
G1 X102.316 Y124.537 E14.08295
G1 X101.795 Y124.674 E14.10804
G1 X101.128 Y124.736 E14.13923
G1 X98.992 Y124.736 E14.23869
G1 X98.454 Y124.696 E14.26381
G1 X97.928 Y124.577 E14.28892
G1 X97.426 Y124.382 E14.314
G1 X96.849 Y124.039 E14.34526
G1 X95.12 Y122.78 E14.44485
G1 X94.709 Y122.431 E14.46995
G1 X94.354 Y122.025 E14.49507
G1 X94.063 Y121.571 E14.52018
G1 X93.803 Y120.966 E14.55084
G1 X93.382 Y119.676 E14.61403
G1 X93.253 Y119.153 E14.63911
G1 X93.203 Y118.616 E14.66422
G1 X93.223 Y118.251 E14.68124
G1 X92.757 Y118.129 E14.70367
G1 X92.127 Y117.843 E14.73589
G1 X91.927 Y117.728 E14.74663
G1 X91.48 Y117.425 E14.77178
G1 X91.084 Y117.06 E14.79686
G1 X90.745 Y116.64 E14.82199
G1 X90.494 Y116.209 E14.84521
G1 X90.257 Y116.356 E14.8582
G1 X89.761 Y116.569 E14.88333
G1 X89.24 Y116.706 E14.90842
G1 X88.576 Y116.767 E14.93947
G1 X86.396 Y116.767 E15.04098
G1 X85.858 Y116.727 E15.0661
G1 X85.332 Y116.608 E15.09121
G1 X84.83 Y116.413 E15.11629
G1 X84.253 Y116.069 E15.14757
G1 X82.49 Y114.785 E15.24912
G1 X82.079 Y114.436 E15.27423
G1 X81.724 Y114.031 E15.29931
G1 X81.432 Y113.577 E15.32444
G1 X81.172 Y112.97 E15.35519
G1 X80.498 Y110.9 E15.45656
G1 X80.369 Y110.376 E15.48169
G1 X80.32 Y109.839 E15.5068
G1 X80.35 Y109.301 E15.53189
G1 X80.444 Y108.908 E15.5507
G1 X80.311 Y108.756 E15.56011
G1 X80.02 Y108.302 E15.58522
G1 X79.759 Y107.695 E15.61598
G1 X79.085 Y105.625 E15.71735
G1 X78.956 Y105.101 E15.74248
G1 X78.907 Y104.564 E15.76759
G1 X78.937 Y104.026 E15.79268
G1 X79.085 Y103.371 E15.82395
G1 X79.207 Y102.961 E15.84387
G1 X78.946 Y102.352 E15.87472
G1 X78.322 Y100.435 E15.96859
G1 X78.193 Y99.911 E15.99372
G1 X78.144 Y99.374 E16.01883
G1 X78.174 Y98.836 E16.04392
G1 X78.322 Y98.181 E16.07519
G1 X78.946 Y96.264 E16.16906
G1 X79.15 Y95.765 E16.19417
G1 X79.426 Y95.302 E16.21926
G1 X79.767 Y94.885 E16.24435
G1 X80.264 Y94.448 E16.27516
G1 X81.897 Y93.259 E16.36922
G1 X82.356 Y92.975 E16.39436
G1 X82.851 Y92.762 E16.41945
G1 X83.372 Y92.624 E16.44455
G1 X84.04 Y92.562 E16.47578
G1 X84.074 Y92.562 E16.47737
G1 X82.544 Y86.851 E16.75267
G1 X82.443 Y86.321 E16.7778
G1 X82.422 Y85.783 E16.80287
G1 X82.481 Y85.246 E16.82802
G1 X82.618 Y84.725 E16.85311
G1 X82.904 Y84.095 E16.88532
G1 X83.019 Y83.895 E16.89607
G1 X83.322 Y83.448 E16.92121
G1 X83.687 Y83.052 E16.94629
M204 S3000
M205 X10 Y10
G0 F3000 X84.129 Y83.407
M204 S1800
M205 X8 Y8
G1 F2400 X84.525 Y83.108 E16.96939
G1 X84.964 Y82.877 E16.99249
G1 X85.378 Y82.734 E17.01289
G1 X114.041 Y75.053 E18.39465
G1 X114.529 Y74.964 E18.41775
G1 X115.025 Y74.954 E18.44085
G1 X115.516 Y75.023 E18.46394
G1 X115.989 Y75.171 E18.48701
G1 X116.573 Y75.473 E18.51763
G1 X116.982 Y75.754 E18.54073
G1 X117.34 Y76.097 E18.56382
G1 X117.639 Y76.493 E18.58693
G1 X117.87 Y76.932 E18.61002
G1 X118.013 Y77.346 E18.63042
G1 X123.741 Y98.719 E19.66076
G1 X124.264 Y98.29 E19.69226
G1 X124.687 Y98.032 E19.71533
G1 X125.146 Y97.845 E19.73841
G1 X125.63 Y97.733 E19.76154
G1 X126.076 Y97.701 E19.78236
G1 X128.406 Y97.701 E19.89085
G1 X128.9 Y97.741 E19.91393
G1 X129.382 Y97.86 E19.93705
G1 X129.838 Y98.054 E19.96012
G1 X130.219 Y98.291 E19.98102
G1 X132.105 Y99.664 E20.08964
G1 X132.481 Y99.987 E20.11273
G1 X132.8 Y100.367 E20.13583
G1 X133.055 Y100.792 E20.15891
G1 X133.221 Y101.201 E20.17946
G1 X133.941 Y103.414 E20.28782
G1 X134.056 Y103.897 E20.31094
G1 X134.092 Y104.391 E20.33401
G1 X134.048 Y104.885 E20.3571
G1 X133.881 Y105.487 E20.38619
G1 X132.748 Y108.39 E20.5313
G1 X132.531 Y108.836 E20.55439
G1 X132.246 Y109.241 E20.57745
G1 X131.691 Y109.761 E20.61287
G1 X129.945 Y111.031 E20.7134
G1 X129.784 Y111.129 E20.72218
G1 X129.894 Y111.589 E20.7442
G1 X129.93 Y112.084 E20.76731
G1 X129.886 Y112.578 E20.7904
G1 X129.779 Y113.011 E20.81117
G1 X129.056 Y115.235 E20.92007
G1 X128.865 Y115.693 E20.94317
G1 X128.603 Y116.114 E20.96626
G1 X128.277 Y116.488 E20.98936
G1 X127.939 Y116.773 E21.00995
G1 X126.044 Y118.152 E21.11908
G1 X125.621 Y118.411 E21.14218
G1 X125.162 Y118.598 E21.16526
G1 X124.678 Y118.709 E21.18838
G1 X124.232 Y118.742 E21.2092
G1 X123.593 Y118.742 E21.23896
G1 X122.766 Y121.283 E21.36338
G1 X122.575 Y121.741 E21.38649
G1 X122.313 Y122.162 E21.40958
G1 X121.987 Y122.536 E21.43268
G1 X121.65 Y122.82 E21.4532
G1 X118.588 Y125.049 E21.62956
G1 X118.164 Y125.308 E21.6527
G1 X117.705 Y125.495 E21.67577
G1 X117.222 Y125.606 E21.69885
G1 X116.775 Y125.639 E21.71972
G1 X112.991 Y125.639 E21.89592
G1 X112.497 Y125.599 E21.919
G1 X112.015 Y125.48 E21.94212
G1 X111.559 Y125.286 E21.96519
G1 X111.178 Y125.049 E21.98609
G1 X108.272 Y122.934 E22.15345
G1 X107.905 Y122.96 E22.17058
G1 X106.511 Y122.96 E22.23549
G1 X104.448 Y123.615 E22.33627
G1 X103.965 Y123.726 E22.35935
G1 X103.516 Y123.759 E22.38032
G1 X102.657 Y123.759 E22.42031
G1 X102.058 Y124.032 E22.45097
G1 X101.575 Y124.143 E22.47404
G1 X101.128 Y124.176 E22.49491
G1 X98.992 Y124.176 E22.59438
G1 X98.498 Y124.136 E22.61745
G1 X98.016 Y124.017 E22.64057
G1 X97.56 Y123.823 E22.66365
G1 X97.179 Y123.586 E22.68454
G1 X95.45 Y122.327 E22.78413
G1 X95.074 Y122.004 E22.80721
G1 X94.754 Y121.624 E22.83035
G1 X94.5 Y121.198 E22.85344
G1 X94.335 Y120.793 E22.8738
G1 X93.914 Y119.503 E22.93699
G1 X93.799 Y119.02 E22.96011
G1 X93.762 Y118.526 E22.98318
G1 X93.805 Y118.031 E23.00631
G1 X93.875 Y117.759 E23.01939
G1 X93.263 Y117.692 E23.04806
G1 X92.79 Y117.544 E23.07113
G1 X92.206 Y117.242 E23.10175
G1 X91.797 Y116.961 E23.12486
G1 X91.439 Y116.618 E23.14794
G1 X91.14 Y116.222 E23.17105
G1 X90.909 Y115.783 E23.19415
G1 X90.749 Y115.306 E23.21757
G1 X90.386 Y115.619 E23.23989
G1 X89.963 Y115.877 E23.26296
G1 X89.503 Y116.064 E23.28609
G1 X89.02 Y116.175 E23.30916
G1 X88.576 Y116.207 E23.32989
G1 X86.396 Y116.207 E23.4314
G1 X85.902 Y116.167 E23.45448
G1 X85.42 Y116.048 E23.4776
G1 X84.964 Y115.854 E23.50067
G1 X84.583 Y115.617 E23.52156
G1 X82.82 Y114.333 E23.62312
G1 X82.444 Y114.009 E23.64623
G1 X82.124 Y113.63 E23.66933
G1 X81.87 Y113.204 E23.69242
G1 X81.704 Y112.797 E23.71289
G1 X81.03 Y110.727 E23.81426
G1 X80.915 Y110.244 E23.83738
G1 X80.879 Y109.749 E23.86049
G1 X80.923 Y109.255 E23.88358
G1 X81.053 Y108.754 E23.90769
G1 X80.712 Y108.355 E23.93212
G1 X80.457 Y107.929 E23.95524
G1 X80.291 Y107.522 E23.97571
G1 X79.617 Y105.452 E24.07708
G1 X79.502 Y104.969 E24.1002
G1 X79.466 Y104.474 E24.12331
G1 X79.51 Y103.98 E24.1464
G1 X79.617 Y103.544 E24.16731
G1 X79.828 Y102.895 E24.19908
G1 X79.645 Y102.587 E24.21577
G1 X79.478 Y102.178 E24.23634
G1 X78.854 Y100.261 E24.33021
G1 X78.739 Y99.779 E24.35328
G1 X78.703 Y99.284 E24.3764
G1 X78.747 Y98.79 E24.39949
G1 X78.854 Y98.355 E24.42035
G1 X79.478 Y96.438 E24.51422
G1 X79.669 Y95.98 E24.53733
G1 X79.931 Y95.559 E24.56042
G1 X80.257 Y95.185 E24.58352
G1 X80.594 Y94.901 E24.60404
G1 X82.227 Y93.712 E24.6981
G1 X82.65 Y93.453 E24.7212
G1 X83.109 Y93.266 E24.74428
G1 X83.593 Y93.155 E24.7674
G1 X84.18 Y93.122 E24.79477
G1 X84.825 Y93.199 E24.82502
G1 X83.085 Y86.706 E25.13803
G1 X82.996 Y86.218 E25.16113
G1 X82.986 Y85.722 E25.18423
G1 X83.055 Y85.231 E25.20732
G1 X83.203 Y84.758 E25.23039
G1 X83.505 Y84.174 E25.26101
G1 X83.786 Y83.765 E25.28412
G1 X84.129 Y83.407 E25.3072
M204 S3000
M205 X10 Y10
G0 F3000 X84.566 Y83.769
M204 S1800
M205 X8 Y8
G1 F2400 X84.935 Y83.515 E25.32806
G1 X85.523 Y83.275 E25.35763
G1 X114.186 Y75.594 E26.73939
G1 X114.628 Y75.517 E26.76029
G1 X115.076 Y75.519 E26.78115
G1 X115.517 Y75.601 E26.80203
G1 X116.094 Y75.843 E26.83117
G1 X116.662 Y76.216 E26.86281
G1 X116.978 Y76.534 E26.88368
G1 X117.232 Y76.903 E26.90454
G1 X117.472 Y77.491 E26.93412
G1 X123.496 Y99.971 E28.01781
G1 X123.76 Y99.5 E28.04295
G1 X124.056 Y99.162 E28.06387
G1 X124.593 Y98.743 E28.09559
G1 X124.978 Y98.513 E28.11647
G1 X125.398 Y98.354 E28.13738
G1 X126.076 Y98.261 E28.16925
G1 X128.406 Y98.261 E28.27775
G1 X128.853 Y98.301 E28.29864
G1 X129.285 Y98.419 E28.3195
G1 X129.889 Y98.744 E28.35143
