;FLAVOR:Marlin
;TIME:9866
;Filament used: 22.4624m
;Layer height: 0.3
;MINX:57.685
;MINY:54.793
;MINZ:0.3
;MAXX:152.316
;MAXY:152.065
;MAXZ:35.1
;Generated with Cura_SteamEngine 4.11.0
M140 S60
M105
M190 S60
M104 S200
M105
M109 S200
M82 ;absolute extrusion mode
G21 ;metric values
G90 ;absolute positioning
M82 ;set extruder to absolute mode
M107 ;start with the fan off
G28 X0 Y0 ;move X/Y to min endstops
G28 Z0 ;move Z to min endstops
G1 Z15.0 F100 ;move the platform down 15mm
G92 E0 ;zero the extruded length
G1 F200 E3 ;extrude 3mm of feed stock
G92 E0 ;zero the extruded length again
G1 F100
G0 Y20 F100
M117 Printing...
G5
G92 E0
G92 E0
G1 F2400 E-6
;LAYER_COUNT:117
;LAYER:0
M107
M204 S3000
M205 X10 Y10
G1 F600 Z0.375
G0 F3000 X71.781 Y71.06 Z0.375
M204 S1800
M205 X8 Y8
;TYPE:SKIRT
G1 F600 Z0.3
G1 F2400 E0
G1 X72.466 Y70.397 E0.06658
G1 X72.925 Y69.963 E0.11071
G1 X73.076 Y69.824 E0.12504
G1 X73.883 Y69.11 E0.2003
G1 X74.635 Y68.467 E0.26941
G1 X75.119 Y68.063 E0.31344
G1 X75.268 Y67.942 E0.32685
G1 X76.055 Y67.325 E0.3967
G1 X76.902 Y66.683 E0.47093
G1 X77.375 Y66.334 E0.51199
G1 X77.538 Y66.218 E0.52596
G1 X78.391 Y65.63 E0.59833
G1 X79.281 Y65.038 E0.67299
G1 X79.765 Y64.724 E0.71328
G1 X79.938 Y64.615 E0.72756
G1 X80.822 Y64.082 E0.79966
G1 X81.744 Y63.546 E0.87415
G1 X82.217 Y63.279 E0.91209
G1 X82.392 Y63.183 E0.92603
G1 X83.352 Y62.681 E1.0017
G1 X84.302 Y62.203 E1.07598
G1 X84.813 Y61.955 E1.11565
G1 X84.987 Y61.874 E1.12906
G1 X85.896 Y61.467 E1.19862
G1 X86.928 Y61.024 E1.27706
G1 X87.48 Y60.797 E1.31875
G1 X87.651 Y60.729 E1.3316
G1 X88.537 Y60.395 E1.39774
G1 X89.583 Y60.018 E1.4754
G1 X90.248 Y59.79 E1.5245
G1 X90.412 Y59.736 E1.53656
G1 X91.688 Y59.337 E1.62994
G1 X92.177 Y59.19 E1.6656
G1 X94.707 Y58.354 E1.85171
G1 X97.189 Y57.455 E2.03609
G1 X99.656 Y56.481 E2.22135
G1 X102.046 Y55.46 E2.40287
G1 X102.28 Y55.356 E2.42076
G1 X102.949 Y55.103 E2.47072
G1 X103.641 Y54.925 E2.52062
G1 X104.35 Y54.826 E2.57062
G1 X104.768 Y54.805 E2.59986
G1 X105.445 Y54.793 E2.64715
G1 X106.056 Y54.799 E2.68983
G1 X106.77 Y54.849 E2.73982
G1 X107.473 Y54.979 E2.78976
G1 X108.158 Y55.187 E2.83976
G1 X108.688 Y55.408 E2.87986
G1 X111.242 Y56.564 E3.07567
G1 X113.643 Y57.567 E3.25742
G1 X116.173 Y58.544 E3.44685
G1 X118.447 Y59.351 E3.61538
G1 X120.684 Y60.114 E3.78047
G1 X121.635 Y60.457 E3.85108
G1 X122.181 Y60.662 E3.89182
G1 X122.366 Y60.735 E3.90571
G1 X123.292 Y61.117 E3.97567
G1 X124.281 Y61.544 E4.05091
G1 X124.836 Y61.792 E4.09337
G1 X125.016 Y61.875 E4.10722
G1 X125.823 Y62.266 E4.16985
G1 X126.872 Y62.795 E4.25191
G1 X127.407 Y63.075 E4.29409
G1 X127.571 Y63.164 E4.30712
G1 X128.454 Y63.66 E4.37786
G1 X129.418 Y64.224 E4.45587
G1 X129.886 Y64.506 E4.49403
G1 X130.05 Y64.608 E4.50752
G1 X130.913 Y65.166 E4.5793
G1 X131.764 Y65.733 E4.65072
G1 X132.295 Y66.099 E4.69577
G1 X132.45 Y66.21 E4.70908
G1 X133.284 Y66.823 E4.78138
G1 X134.136 Y67.471 E4.85614
G1 X134.609 Y67.842 E4.89813
G1 X135.501 Y68.581 E4.97904
G1 X136.367 Y69.327 E5.05887
G1 X136.776 Y69.69 E5.09707
G1 X136.911 Y69.814 E5.10987
G1 X137.652 Y70.511 E5.18093
G1 X138.402 Y71.24 E5.25398
G1 X138.863 Y71.702 E5.29956
G1 X138.996 Y71.839 E5.3129
G1 X139.689 Y72.577 E5.38361
G1 X140.403 Y73.36 E5.45763
G1 X140.812 Y73.823 E5.50077
G1 X140.932 Y73.964 E5.51371
G1 X141.556 Y74.713 E5.5818
G1 X142.22 Y75.54 E5.65588
G1 X142.611 Y76.039 E5.70015
G1 X142.73 Y76.196 E5.71391
G1 X143.335 Y77.02 E5.78531
G1 X143.94 Y77.875 E5.85847
G1 X144.289 Y78.381 E5.9014
G1 X144.404 Y78.553 E5.91586
G1 X144.938 Y79.384 E5.98485
G1 X145.504 Y80.294 E6.0597
G1 X145.821 Y80.82 E6.1026
G1 X145.918 Y80.986 E6.11602
G1 X146.401 Y81.848 E6.18504
G1 X146.939 Y82.847 E6.26429
G1 X147.185 Y83.317 E6.30134
G1 X147.274 Y83.493 E6.31512
G1 X147.717 Y84.409 E6.38619
G1 X148.187 Y85.42 E6.46406
G1 X148.411 Y85.923 E6.50252
G1 X148.482 Y86.088 E6.51506
G1 X148.885 Y87.069 E6.58914
G1 X149.261 Y88.027 E6.66102
G1 X149.479 Y88.608 E6.70437
G1 X149.542 Y88.783 E6.71736
G1 X149.881 Y89.775 E6.79058
G1 X150.191 Y90.736 E6.86111
G1 X150.387 Y91.372 E6.90759
G1 X150.44 Y91.553 E6.92076
G1 X150.695 Y92.481 E6.98798
G1 X150.978 Y93.579 E7.06718
G1 X151.107 Y94.111 E7.10542
G1 X151.149 Y94.297 E7.11873
G1 X151.36 Y95.3 E7.19032
G1 X151.571 Y96.385 E7.26753
G1 X151.67 Y96.94 E7.3069
G1 X151.7 Y97.125 E7.31999
G1 X151.849 Y98.137 E7.39144
G1 X151.99 Y99.213 E7.46724
G1 X152.056 Y99.775 E7.50676
G1 X152.076 Y99.972 E7.52059
G1 X152.167 Y101.031 E7.59483
G1 X152.237 Y102.024 E7.66436
G1 X152.274 Y102.68 E7.71025
G1 X152.282 Y102.874 E7.72381
G1 X152.307 Y103.865 E7.79305
G1 X152.316 Y104.919 E7.86667
G1 X152.314 Y105.518 E7.90851
G1 X152.31 Y105.727 E7.92311
G1 X152.273 Y106.744 E7.99419
G1 X152.215 Y107.849 E8.07148
G1 X152.176 Y108.436 E8.11257
G1 X152.161 Y108.625 E8.12581
G1 X152.07 Y109.558 E8.19129
G1 X151.939 Y110.718 E8.27283
G1 X151.871 Y111.248 E8.31015
G1 X151.845 Y111.43 E8.32299
G1 X151.678 Y112.484 E8.39752
G1 X151.494 Y113.534 E8.47198
G1 X151.396 Y114.055 E8.50901
G1 X151.355 Y114.254 E8.5232
G1 X151.114 Y115.339 E8.60083
G1 X150.879 Y116.323 E8.67149
G1 X150.728 Y116.918 E8.71437
G1 X150.679 Y117.1 E8.72753
G1 X150.403 Y118.064 E8.79757
G1 X150.077 Y119.137 E8.8759
G1 X149.863 Y119.802 E8.92469
G1 X149.499 Y120.83 E9.00086
G1 X149.138 Y121.8 E9.07315
G1 X148.93 Y122.338 E9.11344
G1 X148.854 Y122.527 E9.12767
G1 X148.433 Y123.518 E9.20287
G1 X148.037 Y124.412 E9.27117
G1 X147.761 Y125.014 E9.31742
G1 X147.676 Y125.192 E9.3312
G1 X147.235 Y126.078 E9.40033
G1 X146.747 Y127.023 E9.47461
G1 X146.472 Y127.537 E9.51533
G1 X146.379 Y127.705 E9.52874
G1 X145.843 Y128.637 E9.60384
G1 X145.31 Y129.529 E9.67641
G1 X145.001 Y130.031 E9.71759
G1 X144.895 Y130.198 E9.7314
G1 X144.324 Y131.063 E9.8038
G1 X143.731 Y131.931 E9.87722
G1 X143.392 Y132.412 E9.91832
G1 X143.286 Y132.558 E9.93092
G1 X142.656 Y133.399 E10.00432
G1 X142.003 Y134.241 E10.07874
G1 X141.63 Y134.708 E10.12049
G1 X141.509 Y134.855 E10.13378
G1 X140.87 Y135.606 E10.20266
G1 X140.123 Y136.457 E10.28175
G1 X139.763 Y136.855 E10.31923
G1 X139.635 Y136.993 E10.33238
G1 X138.903 Y137.755 E10.40618
G1 X138.182 Y138.482 E10.4777
G1 X137.73 Y138.926 E10.52195
G1 X137.587 Y139.061 E10.53569
G1 X136.844 Y139.747 E10.60632
G1 X136.041 Y140.464 E10.68151
G1 X135.619 Y140.83 E10.72053
G1 X135.473 Y140.953 E10.73386
G1 X134.633 Y141.637 E10.80952
G1 X133.851 Y142.253 E10.87905
G1 X133.367 Y142.625 E10.92169
G1 X133.202 Y142.748 E10.93606
G1 X132.332 Y143.372 E11.01084
G1 X131.57 Y143.902 E11.07568
G1 X130.971 Y144.307 E11.12618
G1 X130.8 Y144.418 E11.14042
G1 X129.986 Y144.931 E11.20762
G1 X129.084 Y145.48 E11.28138
G1 X128.538 Y145.802 E11.32565
G1 X128.37 Y145.897 E11.33913
G1 X127.503 Y146.373 E11.40821
G1 X126.499 Y146.903 E11.48751
G1 X126.024 Y147.145 E11.52474
G1 X125.85 Y147.23 E11.53827
G1 X124.912 Y147.672 E11.61069
G1 X123.969 Y148.099 E11.683
G1 X123.384 Y148.354 E11.72757
G1 X123.208 Y148.428 E11.74091
G1 X122.274 Y148.801 E11.81115
G1 X121.29 Y149.175 E11.88468
G1 X120.692 Y149.393 E11.92914
G1 X120.513 Y149.455 E11.94237
G1 X119.582 Y149.763 E12.01086
G1 X118.549 Y150.086 E12.08646
G1 X117.952 Y150.264 E12.12997
G1 X117.761 Y150.318 E12.14383
G1 X116.839 Y150.561 E12.21043
G1 X115.774 Y150.825 E12.28707
G1 X115.192 Y150.961 E12.32881
G1 X114.992 Y151.004 E12.3431
G1 X114.004 Y151.202 E12.41348
G1 X112.928 Y151.4 E12.4899
G1 X112.348 Y151.498 E12.53098
G1 X112.16 Y151.527 E12.54427
G1 X111.177 Y151.662 E12.61357
G1 X110.099 Y151.793 E12.68942
G1 X109.501 Y151.857 E12.73143
G1 X109.31 Y151.874 E12.74482
G1 X108.301 Y151.951 E12.8155
G1 X107.245 Y152.015 E12.88939
G1 X106.643 Y152.043 E12.93149
G1 X106.447 Y152.049 E12.94518
G1 X105.397 Y152.065 E13.01853
G1 X104.365 Y152.064 E13.09061
G1 X103.78 Y152.056 E13.13147
G1 X103.581 Y152.051 E13.14538
G1 X102.516 Y152.002 E13.21984
G1 X101.494 Y151.938 E13.29137
G1 X100.894 Y151.893 E13.33339
G1 X100.699 Y151.875 E13.34707
G1 X99.67 Y151.766 E13.41934
G1 X98.657 Y151.641 E13.49063
G1 X97.992 Y151.55 E13.53751
G1 X97.797 Y151.52 E13.5513
G1 X96.882 Y151.365 E13.61611
G1 X95.766 Y151.159 E13.69538
G1 X95.218 Y151.05 E13.73441
G1 X95.025 Y151.008 E13.7482
G1 X94.021 Y150.775 E13.82019
G1 X92.963 Y150.513 E13.89632
G1 X92.402 Y150.364 E13.93686
G1 X91.24 Y150.022 E14.02147
G1 X90.239 Y149.706 E14.09478
G1 X89.65 Y149.512 E14.1381
G1 X89.463 Y149.447 E14.15192
G1 X88.509 Y149.099 E14.22285
G1 X87.579 Y148.743 E14.29241
G1 X86.967 Y148.5 E14.3384
G1 X86.783 Y148.424 E14.3523
G1 X85.946 Y148.061 E14.41603
G1 X84.856 Y147.566 E14.49964
G1 X84.337 Y147.322 E14.5397
G1 X84.16 Y147.235 E14.55347
G1 X83.288 Y146.791 E14.62182
G1 X82.339 Y146.288 E14.69684
G1 X81.814 Y146.002 E14.7386
G1 X81.642 Y145.905 E14.75239
G1 X80.741 Y145.376 E14.82537
G1 X79.866 Y144.84 E14.89704
G1 X79.338 Y144.509 E14.94056
G1 X79.165 Y144.397 E14.95496
G1 X78.299 Y143.813 E15.02791
G1 X77.457 Y143.227 E15.09956
G1 X76.967 Y142.875 E15.1417
G1 X76.811 Y142.759 E15.15528
G1 X75.981 Y142.123 E15.22832
G1 X75.163 Y141.475 E15.30121
G1 X74.717 Y141.113 E15.34133
G1 X74.565 Y140.986 E15.35516
G1 X73.768 Y140.296 E15.42879
G1 X72.996 Y139.602 E15.5013
G1 X72.563 Y139.205 E15.54233
G1 X72.41 Y139.061 E15.55701
G1 X71.737 Y138.402 E15.6228
G1 X70.944 Y137.6 E15.70157
G1 X70.505 Y137.143 E15.74583
G1 X70.374 Y137.003 E15.75923
G1 X69.708 Y136.265 E15.82866
G1 X69.017 Y135.476 E15.90191
G1 X68.616 Y135.006 E15.94507
G1 X68.485 Y134.848 E15.9594
G1 X67.845 Y134.045 E16.03112
G1 X67.207 Y133.222 E16.10386
G1 X66.832 Y132.722 E16.14751
G1 X66.723 Y132.572 E16.16046
G1 X66.151 Y131.76 E16.22984
G1 X65.524 Y130.837 E16.30777
G1 X65.227 Y130.388 E16.34537
G1 X65.118 Y130.218 E16.35948
G1 X64.564 Y129.319 E16.43323
G1 X64.039 Y128.438 E16.50487
G1 X63.742 Y127.922 E16.54645
G1 X63.652 Y127.759 E16.55946
G1 X63.128 Y126.782 E16.63689
G1 X62.669 Y125.89 E16.70696
G1 X62.402 Y125.355 E16.74872
G1 X62.315 Y125.174 E16.76275
G1 X61.895 Y124.26 E16.83301
G1 X61.441 Y123.231 E16.91156
G1 X61.227 Y122.725 E16.94993
G1 X61.158 Y122.553 E16.96288
G1 X60.794 Y121.616 E17.03309
G1 X60.418 Y120.6 E17.10876
G1 X60.223 Y120.049 E17.14958
G1 X60.162 Y119.87 E17.16279
G1 X59.835 Y118.847 E17.2378
G1 X59.535 Y117.856 E17.31012
G1 X59.366 Y117.266 E17.35299
G1 X59.318 Y117.087 E17.36593
G1 X59.075 Y116.132 E17.43476
G1 X58.824 Y115.076 E17.51058
G1 X58.695 Y114.501 E17.55174
G1 X58.652 Y114.294 E17.5665
G1 X58.465 Y113.304 E17.63687
G1 X58.284 Y112.259 E17.71095
G1 X58.192 Y111.681 E17.75183
G1 X58.164 Y111.489 E17.76538
G1 X58.019 Y110.354 E17.8453
G1 X57.914 Y109.406 E17.91192
G1 X57.853 Y108.781 E17.95578
G1 X57.838 Y108.592 E17.96902
G1 X57.772 Y107.617 E18.03728
G1 X57.716 Y106.51 E18.1147
G1 X57.696 Y105.963 E18.15293
G1 X57.692 Y105.775 E18.16606
G1 X57.685 Y104.682 E18.24241
G1 X57.697 Y103.642 E18.31505
G1 X57.711 Y103.05 E18.35641
G1 X57.719 Y102.848 E18.37053
G1 X57.773 Y101.877 E18.43846
G1 X57.855 Y100.736 E18.51836
G1 X57.899 Y100.217 E18.55474
G1 X57.919 Y100.021 E18.5685
G1 X58.048 Y98.917 E18.64614
G1 X58.18 Y97.923 E18.71617
G1 X58.265 Y97.344 E18.75705
G1 X58.295 Y97.156 E18.77034
G1 X58.461 Y96.22 E18.83674
G1 X58.676 Y95.117 E18.91523
G1 X58.799 Y94.526 E18.95739
G1 X58.842 Y94.337 E18.97093
G1 X59.091 Y93.301 E19.04535
G1 X59.365 Y92.247 E19.12142
G1 X59.51 Y91.719 E19.15966
G1 X59.564 Y91.536 E19.17299
G1 X59.854 Y90.593 E19.2419
G1 X60.204 Y89.516 E19.321
G1 X60.385 Y88.984 E19.36025
G1 X60.45 Y88.802 E19.37374
G1 X60.803 Y87.862 E19.44388
G1 X61.202 Y86.849 E19.51992
G1 X61.405 Y86.35 E19.55755
G1 X61.49 Y86.152 E19.5726
G1 X61.948 Y85.127 E19.65101
G1 X62.351 Y84.264 E19.71754
G1 X62.634 Y83.676 E19.76312
G1 X62.727 Y83.491 E19.77758
G1 X63.19 Y82.606 E19.84734
G1 X63.702 Y81.66 E19.92247
G1 X63.993 Y81.142 E19.96397
G1 X64.083 Y80.987 E19.97649
G1 X64.604 Y80.12 E20.04714
G1 X65.162 Y79.226 E20.12075
G1 X65.501 Y78.696 E20.16469
G1 X65.617 Y78.521 E20.17936
G1 X66.162 Y77.728 E20.24656
G1 X66.812 Y76.816 E20.32479
G1 X67.137 Y76.372 E20.36322
G1 X67.255 Y76.216 E20.37688
G1 X67.911 Y75.376 E20.45132
G1 X68.553 Y74.581 E20.5227
G1 X68.96 Y74.091 E20.56719
G1 X69.083 Y73.947 E20.58041
G1 X69.741 Y73.202 E20.64984
G1 X70.455 Y72.419 E20.72385
G1 X70.853 Y71.994 E20.76452
G1 X70.992 Y71.85 E20.7785
G1 X71.781 Y71.06 E20.85649
M204 S3000
M205 X10 Y10
G0 F3000 X72.171 Y71.462
M204 S1800
M205 X8 Y8
G1 F2400 X72.851 Y70.804 E20.92258
G1 X73.31 Y70.37 E20.9667
G1 X73.447 Y70.243 E20.97975
G1 X74.171 Y69.601 E21.04733
G1 X74.994 Y68.897 E21.12298
G1 X75.478 Y68.493 E21.16701
G1 X75.613 Y68.383 E21.17918
G1 X76.393 Y67.771 E21.24842
G1 X77.235 Y67.134 E21.32217
G1 X77.708 Y66.785 E21.36323
G1 X77.856 Y66.679 E21.37594
G1 X78.701 Y66.096 E21.44765
G1 X79.586 Y65.508 E21.52186
G1 X80.07 Y65.194 E21.56216
G1 X80.228 Y65.095 E21.57518
G1 X81.104 Y64.566 E21.64665
G1 X82.019 Y64.033 E21.72062
G1 X82.492 Y63.766 E21.75855
G1 X82.652 Y63.679 E21.77127
G1 X83.604 Y63.181 E21.84632
G1 X84.546 Y62.707 E21.91997
G1 X85.057 Y62.459 E21.95964
G1 X85.216 Y62.385 E21.97189
G1 X86.118 Y61.981 E22.04093
G1 X87.141 Y61.542 E22.11868
G1 X87.693 Y61.315 E22.16037
G1 X87.849 Y61.253 E22.17209
G1 X88.727 Y60.922 E22.23763
G1 X89.765 Y60.548 E22.31469
G1 X90.43 Y60.32 E22.3638
G1 X90.579 Y60.271 E22.37475
G1 X91.849 Y59.874 E22.46769
G1 X92.336 Y59.728 E22.5032
G1 X94.897 Y58.881 E22.69161
G1 X97.378 Y57.983 E22.8759
G1 X99.861 Y57.002 E23.06237
G1 X102.273 Y55.972 E23.24556
G1 X102.507 Y55.868 E23.26344
G1 X103.147 Y55.627 E23.31121
G1 X103.81 Y55.463 E23.35891
G1 X104.778 Y55.365 E23.42687
G1 X105.455 Y55.353 E23.47416
G1 X106.048 Y55.359 E23.51558
G1 X106.729 Y55.409 E23.56328
G1 X107.4 Y55.538 E23.611
G1 X108.051 Y55.745 E23.65871
G1 X108.538 Y55.957 E23.69581
G1 X110.987 Y57.064 E23.88353
G1 X113.477 Y58.104 E24.07201
G1 X115.96 Y59.063 E24.25792
G1 X118.233 Y59.87 E24.42639
G1 X120.494 Y60.641 E24.59324
G1 X121.438 Y60.982 E24.66335
G1 X121.984 Y61.187 E24.70408
G1 X122.153 Y61.253 E24.71676
G1 X123.07 Y61.631 E24.78603
G1 X124.053 Y62.055 E24.86081
G1 X124.608 Y62.303 E24.90327
G1 X124.771 Y62.379 E24.91583
G1 X125.658 Y62.81 E24.98471
G1 X126.612 Y63.291 E25.05933
G1 X127.147 Y63.571 E25.10151
G1 X127.297 Y63.652 E25.11341
G1 X128.171 Y64.144 E25.18347
G1 X129.129 Y64.704 E25.26097
G1 X129.597 Y64.986 E25.29914
G1 X129.747 Y65.079 E25.31146
G1 X130.603 Y65.632 E25.38264
G1 X131.446 Y66.195 E25.45345
G1 X131.977 Y66.561 E25.49849
G1 X132.118 Y66.661 E25.51057
G1 X132.945 Y67.268 E25.58222
G1 X133.79 Y67.912 E25.65643
G1 X134.263 Y68.283 E25.69841
G1 X134.392 Y68.387 E25.70999
G1 X135.136 Y69.006 E25.77759
G1 X135.996 Y69.746 E25.85683
G1 X136.405 Y70.109 E25.89503
G1 X136.528 Y70.222 E25.90669
G1 X137.262 Y70.913 E25.9771
G1 X138.006 Y71.636 E26.04956
G1 X138.467 Y72.098 E26.09515
G1 X138.588 Y72.222 E26.10725
G1 X139.218 Y72.892 E26.17149
G1 X139.983 Y73.731 E26.25079
G1 X140.392 Y74.194 E26.29394
G1 X140.502 Y74.322 E26.30573
G1 X141.119 Y75.064 E26.37313
G1 X141.779 Y75.885 E26.44671
G1 X142.17 Y76.384 E26.49099
G1 X142.279 Y76.527 E26.50354
G1 X142.878 Y77.344 E26.5743
G1 X143.479 Y78.193 E26.64696
G1 X143.828 Y78.699 E26.68989
G1 X143.933 Y78.856 E26.70308
G1 X144.462 Y79.68 E26.77147
G1 X145.024 Y80.583 E26.84576
G1 X145.341 Y81.109 E26.88866
G1 X145.43 Y81.261 E26.90096
G1 X145.908 Y82.114 E26.96926
G1 X146.443 Y83.107 E27.04804
G1 X146.689 Y83.577 E27.08509
G1 X146.77 Y83.737 E27.09762
G1 X147.209 Y84.645 E27.16806
G1 X147.676 Y85.648 E27.24534
G1 X147.9 Y86.151 E27.2838
G1 X147.964 Y86.301 E27.29519
G1 X148.364 Y87.274 E27.36867
G1 X148.737 Y88.223 E27.43989
G1 X148.955 Y88.804 E27.48323
G1 X149.012 Y88.965 E27.49516
G1 X149.348 Y89.948 E27.56772
G1 X149.656 Y90.901 E27.63767
G1 X149.852 Y91.537 E27.68416
G1 X149.9 Y91.702 E27.69616
G1 X150.153 Y92.62 E27.76267
G1 X150.434 Y93.711 E27.84136
G1 X150.563 Y94.243 E27.87959
G1 X150.601 Y94.413 E27.89176
G1 X150.81 Y95.407 E27.96271
G1 X151.019 Y96.483 E28.03927
G1 X151.118 Y97.038 E28.07864
G1 X151.146 Y97.207 E28.09061
G1 X151.294 Y98.21 E28.16142
G1 X151.434 Y99.278 E28.23666
