;FLAVOR:Marlin
;TIME:247
;Filament used: 0.186576m
;Layer height: 0.2
;MINX:91.949
;MINY:89.956
;MINZ:0.2
;MAXX:115.926
;MAXY:119.681
;MAXZ:10.2
;Generated with Cura_SteamEngine 4.11.0
M140 S60
M105
M190 S60
M104 S200
M105
M109 S200
M82 ;absolute extrusion mode
G21 ;metric values
G90 ;absolute positioning
M82 ;set extruder to absolute mode
M107 ;start with the fan off
G28 X0 Y0 ;move X/Y to min endstops
G28 Z0 ;move Z to min endstops
G1 Z15.0 F100 ;move the platform down 15mm
G92 E0 ;zero the extruded length
G1 F200 E3 ;extrude 3mm of feed stock
G92 E0 ;zero the extruded length again
G1 F100
G0 Y20 F100
M117 Printing...
G5
G92 E0
G92 E0
G1 F2400 E-6
;LAYER_COUNT:51
;LAYER:0
M107
M204 S3000
M205 X10 Y10
G1 F600 Z0.275
G0 F3000 X93.086 Y91.975 Z0.275
M204 S1800
M205 X8 Y8
;TYPE:SKIRT
G1 F600 Z0.2
G1 F2400 E0
G1 X93.496 Y91.565 E0.027
G1 X93.958 Y91.216 E0.05396
G1 X94.464 Y90.934 E0.08093
G1 X95.004 Y90.723 E0.10793
G1 X95.331 Y90.636 E0.12369
G1 X96.422 Y90.391 E0.17575
G1 X96.669 Y90.344 E0.18746
G1 X97.273 Y90.244 E0.21597
G1 X97.422 Y90.222 E0.22298
G1 X98.035 Y90.143 E0.25176
G1 X98.787 Y90.067 E0.28696
G1 X99.517 Y90.011 E0.32105
G1 X100.278 Y89.974 E0.35652
G1 X100.388 Y89.97 E0.36165
G1 X101.157 Y89.956 E0.39746
G1 X101.914 Y89.966 E0.43272
G1 X102.554 Y89.992 E0.46254
G1 X102.721 Y90.003 E0.47033
G1 X103.474 Y90.065 E0.50552
G1 X104.097 Y90.135 E0.53471
G1 X104.261 Y90.157 E0.54241
G1 X104.878 Y90.251 E0.57147
G1 X105.037 Y90.278 E0.57898
G1 X105.631 Y90.392 E0.60715
G1 X105.781 Y90.424 E0.61429
G1 X106.372 Y90.56 E0.64253
G1 X106.842 Y90.683 E0.66515
G1 X107.39 Y90.87 E0.69211
G1 X107.907 Y91.131 E0.71908
G1 X108.384 Y91.461 E0.74609
G1 X108.81 Y91.854 E0.77308
G1 X109.178 Y92.301 E0.80004
G1 X109.257 Y92.429 E0.80704
G1 X109.385 Y92.403 E0.81312
G1 X109.964 Y92.367 E0.84014
G1 X110.541 Y92.411 E0.86708
G1 X111.107 Y92.534 E0.89405
G1 X111.651 Y92.734 E0.92104
G1 X112.131 Y92.986 E0.94628
G1 X112.611 Y93.311 E0.97328
G1 X113.088 Y93.567 E0.99848
G1 X113.568 Y93.89 E1.02542
G1 X114.118 Y94.319 E1.0579
G1 X114.181 Y94.37 E1.06168
G1 X114.605 Y94.764 E1.08863
G1 X114.97 Y95.214 E1.11561
G1 X115.271 Y95.709 E1.14259
G1 X115.533 Y96.337 E1.17427
G1 X115.721 Y96.915 E1.20257
G1 X115.862 Y97.476 E1.22951
G1 X115.926 Y98.052 E1.25649
G1 X115.909 Y98.631 E1.28347
G1 X115.813 Y99.203 E1.31047
G1 X115.689 Y99.625 E1.33095
G1 X115.769 Y99.974 E1.34763
G1 X115.818 Y100.552 E1.37464
G1 X115.788 Y101.13 E1.40159
G1 X115.612 Y101.922 E1.43937
G1 X115.411 Y102.539 E1.46958
G1 X115.194 Y103.076 E1.49655
G1 X114.906 Y103.578 E1.5235
G1 X114.55 Y104.036 E1.55051
G1 X114.136 Y104.44 E1.57745
G1 X113.669 Y104.784 E1.60446
G1 X113.021 Y105.12 E1.63844
G1 X111.987 Y105.547 E1.69054
G1 X111.695 Y105.655 E1.70503
G1 X110.77 Y105.959 E1.75037
G1 X110.608 Y106.455 E1.77467
G1 X110.354 Y106.976 E1.80166
G1 X110.031 Y107.457 E1.82864
G1 X109.717 Y107.816 E1.85084
G1 X108.622 Y108.936 E1.92378
G1 X108.053 Y109.611 E1.96489
G1 X107.686 Y110.098 E1.99328
G1 X107.946 Y109.93 E2.0077
G1 X108.472 Y109.687 E2.03468
G1 X109.026 Y109.517 E2.06166
G1 X109.598 Y109.426 E2.08863
G1 X110.177 Y109.414 E2.1156
G1 X110.752 Y109.482 E2.14256
G1 X111.313 Y109.628 E2.16955
G1 X111.848 Y109.851 E2.19654
G1 X112.347 Y110.144 E2.22348
G1 X112.801 Y110.504 E2.25046
G1 X113.201 Y110.923 E2.27744
G1 X113.576 Y111.441 E2.30722
G1 X113.863 Y111.944 E2.33418
G1 X114.078 Y112.482 E2.36116
G1 X114.252 Y113.275 E2.39896
G1 X114.294 Y113.628 E2.41552
G1 X114.322 Y114.206 E2.44246
G1 X114.271 Y114.783 E2.46943
G1 X114.141 Y115.348 E2.49643
G1 X113.934 Y115.889 E2.5234
G1 X113.655 Y116.397 E2.55039
G1 X113.309 Y116.861 E2.57734
G1 X112.902 Y117.273 E2.60431
G1 X112.442 Y117.626 E2.63131
G1 X111.793 Y117.978 E2.66569
G1 X111.733 Y118.004 E2.66873
G1 X111.187 Y118.197 E2.6957
G1 X110.619 Y118.313 E2.72269
G1 X110.041 Y118.35 E2.74966
G1 X109.463 Y118.307 E2.77665
G1 X108.897 Y118.185 E2.80361
G1 X108.486 Y118.035 E2.82398
G1 X108.441 Y118.081 E2.82698
G1 X107.983 Y118.436 E2.85396
G1 X107.48 Y118.724 E2.88095
G1 X106.722 Y119.005 E2.91859
G1 X106.196 Y119.14 E2.94388
G1 X105.619 Y119.265 E2.97137
G1 X105.049 Y119.372 E2.99838
G1 X104.914 Y119.395 E3.00475
G1 X104.231 Y119.497 E3.03691
G1 X103.938 Y119.535 E3.05067
G1 X103.316 Y119.598 E3.07978
G1 X103.171 Y119.61 E3.08655
G1 X102.538 Y119.652 E3.11609
G1 X102.393 Y119.659 E3.12285
G1 X101.76 Y119.679 E3.15234
G1 X101.627 Y119.681 E3.15854
G1 X100.992 Y119.681 E3.1881
G1 X100.86 Y119.679 E3.19425
G1 X100.114 Y119.654 E3.22901
G1 X99.352 Y119.609 E3.26455
G1 X98.615 Y119.544 E3.299
G1 X97.873 Y119.459 E3.33378
G1 X97.257 Y119.373 E3.36274
G1 X97.107 Y119.349 E3.36981
G1 X96.507 Y119.243 E3.39819
G1 X96.347 Y119.211 E3.40578
G1 X95.771 Y119.086 E3.43323
G1 X95.59 Y119.043 E3.44189
G1 X95.067 Y118.905 E3.46708
G1 X94.519 Y118.719 E3.49402
G1 X94.001 Y118.459 E3.52101
G1 X93.524 Y118.131 E3.54797
G1 X93.097 Y117.739 E3.57496
G1 X92.727 Y117.293 E3.60194
G1 X92.423 Y116.8 E3.62891
G1 X92.189 Y116.27 E3.65589
G1 X92.03 Y115.713 E3.68286
G1 X91.949 Y115.14 E3.70981
G1 X91.949 Y114.56 E3.73682
G1 X92.029 Y113.912 E3.76722
G1 X92.148 Y113.345 E3.7942
G1 X92.345 Y112.8 E3.82118
G1 X92.614 Y112.287 E3.84815
G1 X92.952 Y111.816 E3.87515
G1 X93.351 Y111.397 E3.90209
G1 X93.805 Y111.036 E3.9291
G1 X94.303 Y110.741 E3.95605
G1 X94.71 Y110.57 E3.97661
G1 X94.663 Y110.044 E4.0012
G1 X94.663 Y109.611 E4.02136
G1 X94.703 Y109.033 E4.04834
G1 X94.822 Y108.466 E4.07531
G1 X95.018 Y107.921 E4.10228
G1 X95.287 Y107.408 E4.12926
G1 X95.624 Y106.937 E4.15622
G1 X96.023 Y106.517 E4.1832
G1 X96.476 Y106.155 E4.2102
G1 X96.974 Y105.86 E4.23715
G1 X97.567 Y105.616 E4.26701
G1 X98.283 Y105.384 E4.30206
G1 X98.558 Y105.029 E4.32297
G1 X98.871 Y104.539 E4.35004
G1 X98.412 Y104.325 E4.37362
G1 X97.905 Y104.045 E4.40059
G1 X97.442 Y103.697 E4.42756
G1 X97.031 Y103.289 E4.45453
G1 X96.659 Y102.795 E4.48332
G1 X96.046 Y101.844 E4.53601
G1 X95.766 Y101.337 E4.56298
G1 X95.559 Y100.796 E4.58995
G1 X95.429 Y100.232 E4.6169
G1 X95.377 Y99.655 E4.64388
G1 X95.4 Y99.183 E4.66588
G1 X95.149 Y99.13 E4.67783
G1 X94.604 Y98.934 E4.70479
G1 X94.091 Y98.665 E4.73177
G1 X93.62 Y98.327 E4.75876
G1 X93.199 Y97.929 E4.78574
G1 X92.838 Y97.476 E4.81271
G1 X92.543 Y96.978 E4.83966
G1 X92.318 Y96.443 E4.86669
G1 X92.17 Y95.883 E4.89366
G1 X92.08 Y95.202 E4.92565
G1 X92.055 Y94.623 E4.95263
G1 X92.11 Y94.046 E4.97962
G1 X92.244 Y93.483 E5.00657
G1 X92.455 Y92.943 E5.03356
G1 X92.737 Y92.437 E5.06054
G1 X93.086 Y91.975 E5.0875
M204 S3000
M205 X10 Y10
G0 F3000 X93.661 Y92.179
M204 S1800
M205 X8 Y8
G1 F2400 X94.067 Y91.824 E5.11261
G1 X94.52 Y91.532 E5.13771
G1 X95.012 Y91.311 E5.16282
G1 X95.454 Y91.182 E5.18426
G1 X96.439 Y90.96 E5.23128
G1 X96.76 Y90.897 E5.24651
G1 X97.364 Y90.797 E5.27502
G1 X97.494 Y90.778 E5.28114
G1 X98.211 Y90.687 E5.31479
G1 X98.932 Y90.616 E5.34853
G1 X99.661 Y90.563 E5.38256
G1 X100.4 Y90.53 E5.41701
G1 X101.151 Y90.516 E5.45198
G1 X101.784 Y90.523 E5.48146
G1 X102.532 Y90.552 E5.51631
G1 X102.676 Y90.561 E5.52303
G1 X103.297 Y90.611 E5.55204
G1 X103.411 Y90.622 E5.55738
G1 X104.034 Y90.692 E5.58657
G1 X104.176 Y90.711 E5.59324
G1 X104.793 Y90.805 E5.6223
G1 X104.931 Y90.828 E5.62882
G1 X105.525 Y90.942 E5.65698
G1 X105.655 Y90.97 E5.66317
G1 X106.246 Y91.106 E5.69141
G1 X106.698 Y91.224 E5.71316
G1 X107.207 Y91.401 E5.73826
G1 X107.685 Y91.652 E5.7634
G1 X108.12 Y91.97 E5.78849
G1 X108.504 Y92.349 E5.81361
G1 X108.827 Y92.78 E5.83869
G1 X108.98 Y93.064 E5.85371
G1 X109.22 Y92.998 E5.8653
G1 X109.756 Y92.931 E5.89045
G1 X110.295 Y92.945 E5.91556
G1 X110.826 Y93.038 E5.94066
G1 X111.337 Y93.208 E5.96574
G1 X111.85 Y93.47 E5.99256
G1 X112.294 Y93.775 E6.01764
G1 X112.426 Y93.861 E6.02498
G1 X112.904 Y94.11 E6.05007
G1 X113.224 Y94.332 E6.06821
G1 X113.765 Y94.754 E6.10016
G1 X113.828 Y94.805 E6.10393
G1 X114.221 Y95.174 E6.12904
G1 X114.555 Y95.598 E6.15417
G1 X114.823 Y96.066 E6.17928
G1 X115.134 Y96.924 E6.22178
G1 X115.188 Y97.089 E6.22986
G1 X115.318 Y97.612 E6.25495
G1 X115.368 Y98.149 E6.28007
G1 X115.339 Y98.688 E6.3052
G1 X115.19 Y99.347 E6.33666
G1 X115.109 Y99.595 E6.34881
G1 X115.221 Y100.097 E6.37276
G1 X115.259 Y100.635 E6.39787
G1 X115.217 Y101.173 E6.423
G1 X115.08 Y101.748 E6.45053
G1 X114.879 Y102.365 E6.48074
G1 X114.674 Y102.864 E6.50586
G1 X114.398 Y103.328 E6.531
G1 X114.057 Y103.745 E6.55608
G1 X113.658 Y104.107 E6.58117
G1 X113.209 Y104.407 E6.60632
G1 X112.807 Y104.602 E6.62712
G1 X111.773 Y105.029 E6.67921
G1 X111.52 Y105.123 E6.69178
G1 X110.391 Y105.494 E6.74712
G1 X110.309 Y105.514 E6.75105
G1 X110.245 Y105.768 E6.76324
G1 X110.075 Y106.279 E6.78832
G1 X109.831 Y106.76 E6.81343
G1 X109.519 Y107.2 E6.83855
G1 X109.317 Y107.424 E6.85259
G1 X108.208 Y108.558 E6.92645
G1 X107.611 Y109.267 E6.96961
G1 X106.907 Y110.201 E7.02407
G1 X106.313 Y111.036 E7.07179
G1 X106.706 Y111.129 E7.09059
G1 X107.159 Y111.31 E7.11331
G1 X107.223 Y111.224 E7.1183
G1 X107.606 Y110.844 E7.14342
G1 X108.04 Y110.524 E7.16853
G1 X108.517 Y110.273 E7.19363
G1 X109.026 Y110.094 E7.21875
G1 X109.556 Y109.993 E7.24388
G1 X110.095 Y109.971 E7.269
G1 X110.631 Y110.029 E7.2941
G1 X111.152 Y110.165 E7.31917
G1 X111.648 Y110.377 E7.34429
G1 X112.107 Y110.66 E7.3694
G1 X112.52 Y111.008 E7.39455
G1 X113.002 Y111.59 E7.42973
G1 X113.11 Y111.752 E7.4388
G1 X113.375 Y112.222 E7.46392
G1 X113.568 Y112.725 E7.48901
G1 X113.696 Y113.341 E7.51831
G1 X113.738 Y113.694 E7.53486
G1 X113.761 Y114.233 E7.55998
G1 X113.705 Y114.769 E7.58508
G1 X113.571 Y115.291 E7.61017
G1 X113.361 Y115.788 E7.63529
G1 X113.079 Y116.248 E7.66042
G1 X112.733 Y116.661 E7.68551
G1 X112.329 Y117.019 E7.71064
G1 X111.878 Y117.313 E7.73571
G1 X111.51 Y117.49 E7.75472
G1 X111.001 Y117.667 E7.77982
G1 X110.471 Y117.767 E7.80493
G1 X109.932 Y117.788 E7.83005
G1 X109.396 Y117.728 E7.85516
G1 X108.875 Y117.591 E7.88025
G1 X108.38 Y117.377 E7.90536
G1 X108.357 Y117.363 E7.90661
G1 X108.269 Y117.47 E7.91306
G1 X107.868 Y117.829 E7.93813
G1 X107.417 Y118.126 E7.96327
G1 X106.928 Y118.352 E7.98835
G1 X106.238 Y118.554 E8.02183
G1 X106.078 Y118.592 E8.02949
G1 X105.501 Y118.717 E8.05698
G1 X104.947 Y118.821 E8.08323
G1 X104.83 Y118.841 E8.08875
G1 X104.157 Y118.942 E8.12044
G1 X103.882 Y118.977 E8.13335
G1 X103.26 Y119.04 E8.16246
G1 X103.134 Y119.051 E8.16835
G1 X102.501 Y119.093 E8.19789
G1 X102.375 Y119.099 E8.20377
G1 X101.627 Y119.121 E8.23861
G1 X100.992 Y119.121 E8.26818
G1 X100.241 Y119.099 E8.30316
G1 X99.503 Y119.058 E8.33758
G1 X99.4 Y119.051 E8.34239
G1 X98.773 Y118.997 E8.37169
G1 X98.047 Y118.916 E8.40571
G1 X97.335 Y118.818 E8.43917
G1 X97.205 Y118.797 E8.44531
G1 X96.605 Y118.691 E8.47368
G1 X96.466 Y118.664 E8.48027
G1 X95.89 Y118.539 E8.50772
G1 X95.733 Y118.502 E8.51523
G1 X95.21 Y118.364 E8.54041
G1 X94.701 Y118.188 E8.56549
G1 X94.222 Y117.939 E8.59063
G1 X93.786 Y117.621 E8.61576
G1 X93.402 Y117.243 E8.64085
G1 X93.077 Y116.813 E8.66595
G1 X92.82 Y116.339 E8.69105
G1 X92.636 Y115.832 E8.71617
G1 X92.528 Y115.303 E8.74131
G1 X92.5 Y114.765 E8.76639
G1 X92.583 Y113.989 E8.80273
G1 X92.697 Y113.462 E8.82784
G1 X92.888 Y112.958 E8.85294
G1 X93.151 Y112.487 E8.87806
G1 X93.481 Y112.061 E8.90315
G1 X93.87 Y111.687 E8.92828
G1 X94.31 Y111.376 E8.95337
G1 X94.792 Y111.132 E8.97852
G1 X95.304 Y110.963 E9.00363
G1 X95.346 Y110.956 E9.00561
G1 X95.315 Y110.857 E9.01044
G1 X95.234 Y110.324 E9.03554
G1 X95.223 Y109.611 E9.06875
G1 X95.263 Y109.073 E9.09387
G1 X95.382 Y108.547 E9.11898
G1 X95.577 Y108.045 E9.14406
G1 X95.845 Y107.576 E9.16921
G1 X96.178 Y107.153 E9.19428
G1 X96.571 Y106.783 E9.21941
G1 X97.014 Y106.476 E9.24451
G1 X97.739 Y106.149 E9.28154
G1 X98.62 Y105.863 E9.32467
G1 X99.02 Y105.345 E9.35515
G1 X99.662 Y104.346 E9.41044
G1 X99.689 Y104.306 E9.41269
G1 X98.649 Y103.818 E9.46618
G1 X98.178 Y103.554 E9.49133
G1 X97.752 Y103.224 E9.51642
G1 X97.379 Y102.834 E9.54155
G1 X97.13 Y102.492 E9.56124
G1 X96.517 Y101.541 E9.61393
G1 X96.259 Y101.067 E9.63906
G1 X96.074 Y100.561 E9.66415
G1 X95.966 Y100.033 E9.68924
G1 X95.937 Y99.494 E9.71437
G1 X95.988 Y98.957 E9.73949
G1 X96.049 Y98.711 E9.75129
G1 X95.756 Y98.689 E9.76498
G1 X95.23 Y98.57 E9.79009
G1 X94.727 Y98.375 E9.81521
G1 X94.259 Y98.107 E9.84032
G1 X93.835 Y97.773 E9.86545
G1 X93.466 Y97.381 E9.89052
G1 X93.158 Y96.938 E9.91564
G1 X92.92 Y96.454 E9.94076
G1 X92.755 Y95.941 E9.96585
G1 X92.637 Y95.139 E10.0036
G1 X92.616 Y94.601 E10.02867
G1 X92.676 Y94.065 E10.05378
G1 X92.814 Y93.543 E10.07892
G1 X93.027 Y93.048 E10.10402
G1 X93.312 Y92.59 E10.12914
G1 X93.661 Y92.179 E10.15424
M204 S3000
M205 X10 Y10
G0 F3000 X93.887 Y92.763
M204 S1800
M205 X8 Y8
G1 F2400 X94.234 Y92.408 E10.17736
G1 X94.633 Y92.114 E10.20044
G1 X95.074 Y91.888 E10.22351
G1 X95.577 Y91.728 E10.24809
G1 X96.562 Y91.506 E10.2951
G1 X96.852 Y91.449 E10.30887
G1 X97.456 Y91.349 E10.33737
G1 X97.565 Y91.333 E10.3425
G1 X98.266 Y91.244 E10.37541
G1 X98.974 Y91.175 E10.40853
G1 X99.687 Y91.122 E10.44182
G1 X100.33 Y91.092 E10.4718
G1 X101.145 Y91.076 E10.50975
G1 X101.778 Y91.083 E10.53923
G1 X102.509 Y91.112 E10.5733
G1 X102.631 Y91.119 E10.57899
G1 X103.349 Y91.178 E10.61253
G1 X103.972 Y91.248 E10.64172
G1 X104.092 Y91.264 E10.64736
G1 X104.709 Y91.358 E10.67642
G1 X104.826 Y91.378 E10.68195
G1 X105.42 Y91.492 E10.71011
G1 X105.53 Y91.515 E10.71535
G1 X106.121 Y91.651 E10.74358
G1 X107.021 Y91.931 E10.78747
G1 X107.456 Y92.17 E10.81058
G1 X107.846 Y92.475 E10.83364
G1 X108.183 Y92.84 E10.85677
G1 X108.457 Y93.253 E10.87985
G1 X108.675 Y93.758 E10.90546
G1 X109.118 Y93.597 E10.92741
G1 X109.606 Y93.505 E10.95053
G1 X110.101 Y93.492 E10.97359
G1 X110.593 Y93.558 E10.99671
G1 X111.067 Y93.703 E11.01979
G1 X111.568 Y93.954 E11.04588
G1 X112.075 Y94.333 E11.07535
G1 X112.278 Y94.408 E11.08543
G1 X112.88 Y94.774 E11.11824
G1 X113.413 Y95.189 E11.14969
G1 X113.835 Y95.582 E11.17654
G1 X114.135 Y95.977 E11.19964
G1 X114.467 Y96.683 E11.23597
G1 X114.656 Y97.263 E11.26437
G1 X114.772 Y97.745 E11.28746
G1 X114.809 Y98.24 E11.31057
G1 X114.766 Y98.734 E11.33366
G1 X114.524 Y99.586 E11.3749
G1 X114.672 Y100.217 E11.40508
G1 X114.698 Y100.713 E11.42821
G1 X114.643 Y101.206 E11.45131
G1 X114.548 Y101.575 E11.46905
G1 X114.347 Y102.192 E11.49927
G1 X114.155 Y102.65 E11.52239
G1 X113.893 Y103.071 E11.54548
G1 X113.567 Y103.444 E11.56855
G1 X113.185 Y103.761 E11.59166
G1 X112.594 Y104.085 E11.62305
G1 X111.56 Y104.512 E11.67514
G1 X111.346 Y104.591 E11.68576
G1 X110.217 Y104.962 E11.7411
G1 X109.848 Y105.051 E11.75877
G1 X109.702 Y105.631 E11.78662
G1 X109.542 Y106.101 E11.80974
G1 X109.31 Y106.539 E11.83282
G1 X108.917 Y107.033 E11.86221
G1 X107.787 Y108.188 E11.93745
G1 X107.176 Y108.915 E11.98167
G1 X106.465 Y109.858 E12.03667
G1 X105.81 Y110.778 E12.08925
G1 X105.397 Y111.348 E12.12203
G1 X105.318 Y111.515 E12.13063
G1 X106.131 Y111.563 E12.16855
G1 X106.612 Y111.687 E12.19168
G1 X107.066 Y111.887 E12.21478
G1 X107.324 Y112.055 E12.22912
G1 X107.486 Y111.792 E12.2435
G1 X107.81 Y111.417 E12.26658
G1 X108.19 Y111.098 E12.28968
G1 X108.616 Y110.844 E12.31278
G1 X109.077 Y110.662 E12.33586
G1 X109.562 Y110.557 E12.35896
G1 X110.057 Y110.53 E12.38205
G1 X110.55 Y110.584 E12.40514
G1 X111.028 Y110.715 E12.42822
G1 X111.479 Y110.922 E12.45132
G1 X111.891 Y111.199 E12.47444
G1 X112.253 Y111.538 E12.49754
G1 X112.644 Y112.063 E12.52802
G1 X112.885 Y112.496 E12.55109
G1 X113.053 Y112.963 E12.5742
G1 X113.181 Y113.76 E12.61179
G1 X113.2 Y114.256 E12.6349
G1 X113.139 Y114.748 E12.65799
G1 X113 Y115.224 E12.68108
G1 X112.786 Y115.671 E12.70415
G1 X112.503 Y116.079 E12.72727
G1 X112.158 Y116.436 E12.75039
G1 X111.761 Y116.732 E12.77345
G1 X111.288 Y116.976 E12.79823
G1 X110.818 Y117.136 E12.82135
G1 X110.329 Y117.218 E12.84444
G1 X109.833 Y117.221 E12.86753
G1 X109.343 Y117.145 E12.89062
G1 X108.872 Y116.99 E12.91371
G1 X108.431 Y116.762 E12.93683
G1 X108.228 Y116.611 E12.94861
G1 X108.037 Y116.888 E12.96428
G1 X107.694 Y117.247 E12.9874
G1 X107.298 Y117.545 E13.01048
G1 X106.859 Y117.777 E13.0336
G1 X106.095 Y118.012 E13.07082
G1 X105.959 Y118.045 E13.07733
