;FLAVOR:Marlin
;TIME:136
;Filament used: 0.0847139m
;Layer height: 0.3
;MINX:94.846
;MINY:96.465
;MINZ:0.3
;MAXX:116.804
;MAXY:113.563
;MAXZ:18.3
;Generated with Cura_SteamEngine 4.11.0
M140 S60
M105
M190 S60
M104 S200
M105
M109 S200
M82 ;absolute extrusion mode
G21 ;metric values
G90 ;absolute positioning
M82 ;set extruder to absolute mode
M107 ;start with the fan off
G28 X0 Y0 ;move X/Y to min endstops
G28 Z0 ;move Z to min endstops
G1 Z15.0 F100 ;move the platform down 15mm
G92 E0 ;zero the extruded length
G1 F200 E3 ;extrude 3mm of feed stock
G92 E0 ;zero the extruded length again
G1 F100
G0 Y20 F100
M117 Printing...
G5
G92 E0
G92 E0
G1 F2400 E-6
;LAYER_COUNT:61
;LAYER:0
M107
M204 S3000
M205 X10 Y10
G1 F600 Z0.375
G0 F3000 X97.126 Y99.276 Z0.375
M204 S1800
M205 X8 Y8
;TYPE:SKIRT
G1 F600 Z0.3
G1 F2400 E0
G1 X97.914 Y98.529 E0.07584
G1 X98.506 Y98.075 E0.12795
G1 X99.153 Y97.648 E0.18209
G1 X99.841 Y97.29 E0.23626
G1 X100.562 Y97.005 E0.29041
G1 X101.308 Y96.795 E0.34454
G1 X102.039 Y96.667 E0.39638
G1 X102.505 Y96.611 E0.42916
G1 X103.092 Y96.55 E0.47038
G1 X103.401 Y96.514 E0.49211
G1 X104.175 Y96.465 E0.54628
G1 X104.894 Y96.492 E0.59653
G1 X105.347 Y96.531 E0.62829
G1 X107.345 Y96.73 E0.76853
G1 X109.237 Y96.873 E0.90106
G1 X109.783 Y96.91 E0.93928
G1 X110.552 Y97.002 E0.99338
G1 X111.309 Y97.173 E1.04759
G1 X112.043 Y97.421 E1.1017
G1 X112.749 Y97.743 E1.1559
G1 X113.417 Y98.137 E1.21007
G1 X114.041 Y98.596 E1.26417
G1 X114.615 Y99.118 E1.31836
G1 X115.132 Y99.696 E1.37253
G1 X115.586 Y100.324 E1.42665
G1 X115.974 Y100.996 E1.48085
G1 X116.29 Y101.704 E1.535
G1 X116.532 Y102.441 E1.58918
G1 X116.696 Y103.198 E1.64329
G1 X116.789 Y104.112 E1.70745
G1 X116.804 Y104.85 E1.75901
G1 X116.795 Y105.675 E1.81664
G1 X116.746 Y106.448 E1.87074
G1 X116.617 Y107.213 E1.92492
G1 X116.41 Y107.96 E1.97907
G1 X116.128 Y108.682 E2.0332
G1 X115.772 Y109.371 E2.08737
G1 X115.347 Y110.02 E2.14156
G1 X114.858 Y110.622 E2.19573
G1 X114.31 Y111.17 E2.24986
G1 X113.708 Y111.658 E2.30399
G1 X113.059 Y112.082 E2.35813
G1 X112.369 Y112.437 E2.41233
G1 X111.647 Y112.719 E2.46647
G1 X110.9 Y112.926 E2.52061
G1 X109.907 Y113.076 E2.59076
G1 X108.31 Y113.211 E2.7027
G1 X105.081 Y113.527 E2.92931
G1 X104.307 Y113.563 E2.98343
G1 X103.638 Y113.529 E3.03022
G1 X102.84 Y113.452 E3.08621
G1 X102.15 Y113.371 E3.13474
G1 X101.386 Y113.241 E3.18887
G1 X100.639 Y113.033 E3.24303
G1 X99.917 Y112.749 E3.29722
G1 X99.181 Y112.364 E3.35523
G1 X99.013 Y112.264 E3.36889
G1 X98.368 Y111.833 E3.42307
G1 X97.867 Y111.431 E3.46794
G1 X97.297 Y110.905 E3.52211
G1 X96.854 Y110.414 E3.5683
G1 X96.377 Y109.802 E3.6225
G1 X96.041 Y109.276 E3.66609
G1 X95.931 Y109.087 E3.68137
G1 X95.576 Y108.397 E3.73556
G1 X95.294 Y107.675 E3.7897
G1 X95.071 Y106.853 E3.84919
G1 X95.007 Y106.549 E3.87089
G1 X94.887 Y105.783 E3.92505
G1 X94.846 Y105.009 E3.97918
G1 X94.864 Y104.485 E4.0158
G1 X94.955 Y103.715 E4.06996
G1 X95.112 Y103.006 E4.12068
G1 X95.205 Y102.665 E4.14537
G1 X95.447 Y101.929 E4.19948
G1 X95.764 Y101.221 E4.25366
G1 X96.152 Y100.55 E4.3078
G1 X96.634 Y99.875 E4.36573
G1 X97.126 Y99.276 E4.41988
M204 S3000
M205 X10 Y10
G0 F3000 X97.559 Y99.633
M204 S1800
M205 X8 Y8
G1 F2400 X98.269 Y98.962 E4.48811
G1 X98.838 Y98.526 E4.53818
G1 X99.462 Y98.117 E4.59029
G1 X100.125 Y97.776 E4.64236
G1 X100.822 Y97.509 E4.6945
G1 X101.543 Y97.317 E4.74661
G1 X102.108 Y97.223 E4.78662
G1 X102.563 Y97.168 E4.81863
G1 X103.222 Y97.099 E4.86491
G1 X103.465 Y97.071 E4.88199
G1 X104.209 Y97.025 E4.93406
G1 X104.846 Y97.05 E4.97858
G1 X105.292 Y97.088 E5.00985
G1 X107.336 Y97.291 E5.15332
G1 X109.159 Y97.429 E5.28101
G1 X109.745 Y97.469 E5.32204
G1 X110.485 Y97.559 E5.3741
G1 X111.212 Y97.728 E5.42624
G1 X111.916 Y97.974 E5.47832
G1 X112.59 Y98.293 E5.53041
G1 X113.226 Y98.683 E5.58251
G1 X113.817 Y99.139 E5.63465
G1 X114.355 Y99.655 E5.68672
G1 X114.835 Y100.226 E5.73882
G1 X115.251 Y100.845 E5.79091
G1 X115.598 Y101.505 E5.84299
G1 X115.873 Y102.199 E5.89513
G1 X116.072 Y102.918 E5.94724
G1 X116.193 Y103.654 E5.99934
G1 X116.234 Y104.26 E6.04176
G1 X116.244 Y104.855 E6.08333
G1 X116.235 Y105.668 E6.14012
G1 X116.186 Y106.412 E6.19219
G1 X116.058 Y107.147 E6.2443
G1 X115.852 Y107.864 E6.29641
G1 X115.57 Y108.554 E6.34847
G1 X115.216 Y109.211 E6.4006
G1 X114.793 Y109.826 E6.45273
G1 X114.308 Y110.392 E6.5048
G1 X113.764 Y110.903 E6.55693
G1 X113.169 Y111.352 E6.60899
G1 X112.529 Y111.736 E6.66112
G1 X111.852 Y112.049 E6.71322
G1 X111.145 Y112.287 E6.76532
G1 X110.417 Y112.449 E6.81741
G1 X109.86 Y112.518 E6.85661
G1 X108.26 Y112.653 E6.96876
G1 X105.027 Y112.97 E7.19566
G1 X104.282 Y113.003 E7.24775
G1 X103.691 Y112.972 E7.28908
G1 X102.906 Y112.896 E7.34417
G1 X102.216 Y112.815 E7.39269
G1 X101.48 Y112.688 E7.44486
G1 X100.763 Y112.484 E7.49693
G1 X100.072 Y112.203 E7.54903
G1 X99.467 Y111.883 E7.59683
G1 X99.299 Y111.783 E7.61049
G1 X98.409 Y111.154 E7.68661
G1 X98.225 Y111.001 E7.70332
G1 X97.678 Y110.494 E7.75542
G1 X97.277 Y110.047 E7.79736
G1 X96.82 Y109.458 E7.84943
G1 X96.525 Y108.994 E7.88784
G1 X96.415 Y108.805 E7.90311
G1 X96.075 Y108.141 E7.95521
G1 X95.807 Y107.445 E8.00731
G1 X95.619 Y106.738 E8.0584
G1 X95.555 Y106.434 E8.0801
G1 X95.441 Y105.697 E8.13219
G1 X95.406 Y104.952 E8.18428
G1 X95.422 Y104.522 E8.21434
G1 X95.512 Y103.781 E8.26648
G1 X95.652 Y103.154 E8.31135
G1 X95.745 Y102.813 E8.33603
G1 X95.98 Y102.105 E8.38814
G1 X96.289 Y101.426 E8.44024
G1 X96.863 Y100.507 E8.51592
G1 X97.084 Y100.208 E8.54189
G1 X97.559 Y99.633 E8.59399
M204 S3000
M205 X10 Y10
G0 F3000 X97.991 Y99.99
M204 S1800
M205 X8 Y8
G1 F2400 X98.624 Y99.395 E8.65467
G1 X99.17 Y98.977 E8.70269
G1 X99.769 Y98.586 E8.75266
G1 X100.408 Y98.264 E8.80263
G1 X101.078 Y98.015 E8.85256
G1 X101.772 Y97.842 E8.90252
G1 X102.499 Y97.739 E8.9538
G1 X103.235 Y97.661 E9.0055
G1 X103.529 Y97.627 E9.02617
G1 X104.243 Y97.585 E9.07612
G1 X104.799 Y97.608 E9.11499
G1 X105.237 Y97.645 E9.14569
G1 X107.282 Y97.848 E9.28923
G1 X109.152 Y97.99 E9.42022
G1 X109.707 Y98.028 E9.45908
G1 X110.417 Y98.116 E9.50905
G1 X111.112 Y98.282 E9.55895
G1 X111.785 Y98.526 E9.60895
G1 X112.426 Y98.843 E9.6589
G1 X113.028 Y99.229 E9.70885
G1 X113.583 Y99.68 E9.7588
G1 X114.084 Y100.19 E9.80873
G1 X114.526 Y100.753 E9.85873
G1 X114.901 Y101.362 E9.90868
G1 X115.206 Y102.009 E9.95864
G1 X115.438 Y102.686 E10.00863
G1 X115.592 Y103.384 E10.05855
G1 X115.67 Y104.157 E10.11282
G1 X115.684 Y104.861 E10.162
G1 X115.684 Y105.005 E10.17206
G1 X115.676 Y105.661 E10.21788
G1 X115.627 Y106.375 E10.26787
G1 X115.499 Y107.078 E10.31778
G1 X115.293 Y107.763 E10.36774
G1 X115.012 Y108.421 E10.41771
G1 X114.66 Y109.044 E10.46769
G1 X114.24 Y109.623 E10.51765
G1 X113.758 Y110.151 E10.56759
G1 X113.22 Y110.623 E10.61758
G1 X112.633 Y111.032 E10.66755
G1 X112.004 Y111.372 E10.71749
G1 X111.341 Y111.641 E10.76746
G1 X110.653 Y111.833 E10.81735
G1 X109.813 Y111.96 E10.87669
G1 X108.175 Y112.098 E10.9915
G1 X104.972 Y112.413 E11.2163
G1 X104.258 Y112.442 E11.26621
G1 X103.744 Y112.414 E11.30217
G1 X102.971 Y112.339 E11.35641
G1 X102.281 Y112.258 E11.40494
G1 X101.576 Y112.135 E11.45492
G1 X100.89 Y111.935 E11.50483
G1 X100.23 Y111.658 E11.55482
G1 X99.754 Y111.401 E11.59261
G1 X99.586 Y111.301 E11.60626
G1 X98.767 Y110.723 E11.67628
G1 X98.583 Y110.57 E11.69299
G1 X97.836 Y109.837 E11.76609
G1 X97.701 Y109.681 E11.7805
G1 X97.263 Y109.115 E11.83049
G1 X96.899 Y108.523 E11.87903
G1 X96.574 Y107.886 E11.92898
G1 X96.322 Y107.216 E11.97897
G1 X96.167 Y106.622 E12.02185
G1 X96.103 Y106.318 E12.04355
G1 X95.995 Y105.611 E12.09351
G1 X95.981 Y104.559 E12.16699
G1 X96.069 Y103.849 E12.21696
G1 X96.193 Y103.301 E12.2562
G1 X96.286 Y102.96 E12.28089
G1 X96.512 Y102.282 E12.33081
G1 X96.813 Y101.633 E12.38078
G1 X97.313 Y100.84 E12.44626
G1 X97.534 Y100.541 E12.47223
G1 X97.991 Y99.99 E12.52223
M204 S3000
M205 X10 Y10
G0 F3000 X98.422 Y100.349
M204 S1800
M205 X8 Y8
G1 F2400 X98.979 Y99.828 E12.5755
G1 X99.502 Y99.428 E12.62149
G1 X100.075 Y99.056 E12.6692
G1 X100.688 Y98.753 E12.71696
G1 X101.331 Y98.523 E12.76466
G1 X102.246 Y98.335 E12.8299
G1 X102.68 Y98.282 E12.86044
G1 X103.28 Y98.219 E12.90258
G1 X103.593 Y98.183 E12.92459
G1 X104.275 Y98.145 E12.9723
G1 X105.095 Y98.195 E13.02968
G1 X107.223 Y98.406 E13.17904
G1 X109.063 Y98.545 E13.30792
G1 X109.669 Y98.586 E13.35035
G1 X110.347 Y98.672 E13.39808
G1 X111.01 Y98.837 E13.4458
G1 X111.65 Y99.078 E13.49357
G1 X112.256 Y99.391 E13.54121
G1 X112.822 Y99.774 E13.58894
G1 X113.34 Y100.22 E13.63668
G1 X113.802 Y100.723 E13.68439
G1 X114.202 Y101.277 E13.73211
G1 X114.534 Y101.874 E13.77983
G1 X114.795 Y102.506 E13.82758
G1 X114.98 Y103.164 E13.87533
G1 X115.087 Y103.838 E13.92299
G1 X115.12 Y104.478 E13.96775
G1 X115.124 Y104.998 E14.00407
G1 X115.116 Y105.654 E14.0499
G1 X115.067 Y106.336 E14.09765
G1 X114.94 Y107.007 E14.14535
G1 X114.735 Y107.659 E14.19309
G1 X114.455 Y108.282 E14.2408
G1 X114.104 Y108.868 E14.28851
G1 X113.687 Y109.41 E14.33627
G1 X113.21 Y109.899 E14.38399
G1 X112.679 Y110.329 E14.43171
G1 X112.102 Y110.694 E14.4794
G1 X111.486 Y110.989 E14.5271
G1 X110.839 Y111.21 E14.57486
G1 X110.171 Y111.354 E14.62259
G1 X109.766 Y111.402 E14.65107
G1 X108.143 Y111.539 E14.76483
G1 X104.918 Y111.855 E14.99117
G1 X104.235 Y111.882 E15.03891
G1 X103.797 Y111.857 E15.06955
G1 X103.165 Y111.797 E15.11389
G1 X102.346 Y111.702 E15.17148
G1 X101.673 Y111.583 E15.21922
G1 X101.019 Y111.386 E15.26692
G1 X100.392 Y111.114 E15.31466
G1 X99.872 Y110.82 E15.35638
G1 X99.125 Y110.292 E15.42028
G1 X98.941 Y110.139 E15.43699
G1 X98.259 Y109.471 E15.50367
G1 X98.124 Y109.315 E15.51808
G1 X97.708 Y108.773 E15.5658
G1 X97.383 Y108.242 E15.60929
G1 X97.074 Y107.632 E15.65705
G1 X96.839 Y106.991 E15.70473
G1 X96.651 Y106.203 E15.76131
G1 X96.55 Y105.527 E15.80906
G1 X96.54 Y104.597 E15.87402
G1 X96.625 Y103.919 E15.92174
G1 X96.826 Y103.107 E15.98017
G1 X97.044 Y102.46 E16.02786
G1 X97.336 Y101.842 E16.0756
G1 X97.764 Y101.173 E16.13107
G1 X97.985 Y100.874 E16.15704
G1 X98.422 Y100.349 E16.20475
M204 S3000
M205 X10 Y10
G0 F3000 X98.852 Y100.709
M204 S1800
M205 X8 Y8
G1 F2400 X99.334 Y100.261 E16.25071
G1 X99.835 Y99.879 E16.29472
G1 X100.38 Y99.526 E16.34007
G1 X100.965 Y99.244 E16.38543
G1 X101.58 Y99.035 E16.4308
G1 X102.315 Y98.89 E16.48312
G1 X102.738 Y98.839 E16.51288
G1 X103.388 Y98.771 E16.55853
G1 X103.657 Y98.74 E16.57744
G1 X104.305 Y98.705 E16.62277
G1 X105.048 Y98.753 E16.67477
G1 X107.169 Y98.963 E16.82364
G1 X109.057 Y99.106 E16.95589
G1 X109.631 Y99.145 E16.99607
G1 X110.276 Y99.229 E17.0415
G1 X110.905 Y99.391 E17.08687
G1 X111.509 Y99.629 E17.13222
G1 X112.08 Y99.939 E17.1776
G1 X112.608 Y100.318 E17.22299
G1 X113.085 Y100.758 E17.26832
G1 X113.505 Y101.254 E17.31371
G1 X113.861 Y101.797 E17.35907
G1 X114.148 Y102.38 E17.40445
G1 X114.361 Y102.994 E17.44985
G1 X114.496 Y103.629 E17.49519
G1 X114.551 Y104.202 E17.53539
G1 X114.564 Y104.873 E17.58227
G1 X114.556 Y105.647 E17.63633
G1 X114.508 Y106.295 E17.68172
G1 X114.381 Y106.932 E17.72709
G1 X114.176 Y107.549 E17.7725
G1 X113.898 Y108.136 E17.81786
G1 X113.549 Y108.684 E17.86324
G1 X113.136 Y109.185 E17.90859
G1 X112.665 Y109.632 E17.95395
G1 X112.142 Y110.018 E17.99935
G1 X111.575 Y110.336 E18.04475
G1 X110.974 Y110.582 E18.09011
G1 X110.348 Y110.753 E18.13544
G1 X109.719 Y110.844 E18.17983
G1 X108.095 Y110.981 E18.29366
G1 X104.863 Y111.298 E18.52049
G1 X104.214 Y111.321 E18.56585
G1 X103.85 Y111.299 E18.59132
G1 X103.101 Y111.227 E18.64387
G1 X102.411 Y111.146 E18.6924
G1 X101.772 Y111.031 E18.73775
G1 X101.152 Y110.838 E18.7831
G1 X100.326 Y110.439 E18.84717
G1 X100.158 Y110.339 E18.86083
G1 X99.483 Y109.862 E18.91856
G1 X99.299 Y109.709 E18.93527
G1 X98.682 Y109.104 E18.99563
G1 X98.547 Y108.948 E19.01004
G1 X98.153 Y108.432 E19.05538
G1 X97.867 Y107.96 E19.09393
G1 X97.575 Y107.379 E19.13935
G1 X97.357 Y106.768 E19.18466
G1 X97.199 Y106.088 E19.23342
G1 X97.105 Y105.445 E19.27881
G1 X97.099 Y104.634 E19.33546
G1 X97.182 Y103.989 E19.38088
G1 X97.366 Y103.255 E19.43373
G1 X97.575 Y102.64 E19.4791
G1 X97.858 Y102.055 E19.52449
G1 X98.214 Y101.506 E19.57019
G1 X98.435 Y101.207 E19.59616
G1 X98.852 Y100.709 E19.64153
M204 S3000
M205 X10 Y10
G0 F3000 X102.791 Y104.502
M204 S1800
M205 X8 Y8
;TYPE:SUPPORT-INTERFACE
G1 F1800 X102.998 Y104.346 E19.65963
G1 X103.413 Y104.402 E19.68888
G1 X104.141 Y104.205 E19.74156
G1 X104.16 Y104.201 E19.74292
G1 X104.18 Y104.235 E19.74567
G1 X103.849 Y104.426 E19.77236
G1 X103.786 Y104.483 E19.7783
G1 X103.598 Y104.741 E19.80059
G1 X103.558 Y104.847 E19.80851
G1 X103.542 Y105.088 E19.82538
G1 X103.576 Y105.216 E19.83463
G1 X103.766 Y105.503 E19.85867
G1 X103.832 Y105.568 E19.86514
G1 X104.24 Y105.805 E19.89809
G1 X104.236 Y105.814 E19.89878
G1 X103.273 Y105.545 E19.96862
G1 X103.016 Y105.678 E19.98883
G1 X102.745 Y105.46 E20.01312
G1 X102.744 Y105.459 E20.01322
G1 X102.594 Y105.209 E20.03359
G1 X102.593 Y105.205 E20.03387
G1 X102.554 Y104.996 E20.04872
G1 X102.638 Y104.704 E20.06995
G1 X102.641 Y104.698 E20.07041
G1 X102.791 Y104.502 E20.08765
M204 S3000
M205 X10 Y10
G1 F2400 E14.08765
;MESH:hasira1.stl
G0 F3000 X105.619 Y105.003
G0 X108.306 Y105.265
G1 F2400 E20.08765
G0 F3000 X108.307 Y105.366
M204 S1800
M205 X8 Y8
;TYPE:WALL-OUTER
G1 F1800 X107.707 Y105.366 E20.12956
G1 X107.045 Y105.334 E20.17585
G1 X106.64 Y105.285 E20.20435
G1 X106.435 Y105.261 E20.21876
G1 X106.208 Y105.21 E20.23501
G1 X105.958 Y105.152 E20.25294
G1 X105.857 Y105.129 E20.26017
G1 X105.6 Y105.003 E20.28017
G1 X105.777 Y104.932 E20.28107
G1 X106.031 Y104.83 E20.2936
G1 X106.309 Y104.765 E20.30803
G1 X106.367 Y104.758 E20.3107
G1 X106.572 Y104.731 E20.32446
G1 X106.837 Y104.694 E20.34315
G1 X107.407 Y104.652 E20.38307
G1 X107.993 Y104.642 E20.424
G1 X108.619 Y104.654 E20.46773
G1 X109.005 Y104.672 E20.49472
G1 X109.005 Y105.336 E20.5411
G1 X108.307 Y105.366 E20.5899
M204 S3000
M205 X10 Y10
G0 F3000 X108.107 Y105.366
G0 X108.1 Y105.204
G1 F2400 E14.5899
;MESH:NONMESH
G0 F600 X108.1 Y105.204 Z0.6
G0 F3000 X105.619 Y105.003
G0 X102.792 Y104.499
;TIME_ELAPSED:12.993370
;LAYER:1
M106 S255
M204 S1800
M205 X8 Y8
;TYPE:SUPPORT
G1 F2400 E20.5899
G1 F600 X102.977 Y104.359 E20.60147
G1 X102.777 Y104.704 E20.62137
G1 X102.717 Y105.054 E20.63909
G1 X102.731 Y105.171 E20.64496
G1 X102.911 Y105.542 E20.66554
G1 X103.039 Y105.666 E20.67443
G1 X102.745 Y105.459 E20.69237
G1 X102.592 Y105.206 E20.70712
G1 X102.553 Y104.995 E20.71782
G1 X102.642 Y104.694 E20.73348
G1 X102.792 Y104.499 E20.74576
M204 S3000
M205 X10 Y10
G1 F2400 E14.74576
;MESH:hasira1.stl
G0 F4500 X104.623 Y104.924
G0 X108.274 Y105.067
M204 S1800
M205 X8 Y8
;TYPE:WALL-INNER
G1 F2400 E20.74576
G1 F600 X108.003 Y105.071 E20.75928
G1 X107.438 Y105.065 E20.78747
G1 X106.875 Y105.047 E20.81557
G1 X106.864 Y105.046 E20.81612
G1 X106.357 Y105.018 E20.84145
G1 X106.218 Y105.004 E20.84842
G1 X106.355 Y104.996 E20.84856
G1 X106.858 Y104.963 E20.85204
G1 X106.877 Y104.961 E20.8524
G1 X107.438 Y104.942 E20.85968
G1 X108.008 Y104.935 E20.86893
G1 X108.273 Y104.938 E20.8732
G1 X108.274 Y105.067 E20.87963
M204 S3000
M205 X10 Y10
G0 F4500 X108.674 Y105.461
M204 S1800
M205 X8 Y8
G1 F600 X108.005 Y105.471 E20.91301
G1 X107.425 Y105.465 E20.94195
G1 X106.851 Y105.446 E20.9706
G1 X106.317 Y105.416 E20.99729
G1 X105.803 Y105.364 E21.02306
G1 X105.294 Y105.29 E21.04872
G1 X104.982 Y105.205 E21.06485
G1 X104.636 Y105.111 E21.08274
G1 X104.532 Y105.05 E21.08876
G1 X104.45 Y105.002 E21.0935
G1 X104.542 Y104.949 E21.095
G1 X104.616 Y104.906 E21.09668
G1 X104.962 Y104.812 E21.11035
G1 X105.328 Y104.713 E21.12927
G1 X106.071 Y104.614 E21.16667
G1 X106.575 Y104.575 E21.19189
G1 X106.857 Y104.561 E21.20597
G1 X107.425 Y104.542 E21.23433
G1 X108.008 Y104.535 E21.26341
G1 X108.673 Y104.543 E21.29659
G1 X108.674 Y105.461 E21.34239
M204 S3000
M205 X10 Y10
G0 F4500 X108.31 Y105.869
M204 S1800
M205 X8 Y8
;TYPE:WALL-OUTER
G1 F600 X108.004 Y105.871 E21.35766
G1 X107.412 Y105.865 E21.3872
G1 X106.838 Y105.846 E21.41585
G1 X106.278 Y105.814 E21.44383
G1 X105.749 Y105.761 E21.47036
G1 X105.214 Y105.683 E21.49733
