;FLAVOR:Marlin
;TIME:5329
;Filament used: 9.68082m
;Layer height: 0.3
;MINX:68.6
;MINY:68.598
;MINZ:0.3
;MAXX:141.4
;MAXY:141.4
;MAXZ:30.9
;Generated with Cura_SteamEngine 4.11.0
M140 S60
M105
M190 S60
M104 S200
M105
M109 S200
M82 ;absolute extrusion mode
G21 ;metric values
G90 ;absolute positioning
M82 ;set extruder to absolute mode
M107 ;start with the fan off
G28 X0 Y0 ;move X/Y to min endstops
G28 Z0 ;move Z to min endstops
G1 Z15.0 F100 ;move the platform down 15mm
G92 E0 ;zero the extruded length
G1 F200 E3 ;extrude 3mm of feed stock
G92 E0 ;zero the extruded length again
G1 F100
G0 Y20 F100
M117 Printing...
G5
G92 E0
G92 E0
G1 F2400 E-6
;LAYER_COUNT:103
;LAYER:0
M107
M204 S3000
M205 X10 Y10
G1 F600 Z0.375
G0 F3000 X70.533 Y70.435 Z0.375
M204 S1800
M205 X8 Y8
;TYPE:SKIRT
G1 F600 Z0.3
G1 F2400 E0
G1 X71.071 Y69.964 E0.04994
G1 X71.659 Y69.556 E0.09993
G1 X72.288 Y69.216 E0.14987
G1 X72.952 Y68.949 E0.19986
G1 X73.641 Y68.757 E0.24982
G1 X74.347 Y68.643 E0.29977
G1 X75.151 Y68.603 E0.35599
G1 X75.329 Y68.6 E0.36843
G1 X100.012 Y68.598 E2.09244
G1 X101.051 Y68.6 E2.16501
G1 X134.385 Y68.601 E4.49327
G1 X135.083 Y68.611 E4.54203
G1 X135.796 Y68.661 E4.59195
G1 X136.5 Y68.79 E4.64194
G1 X137.184 Y68.998 E4.69188
G1 X137.841 Y69.28 E4.74181
G1 X138.463 Y69.634 E4.7918
G1 X139.041 Y70.055 E4.84175
G1 X139.569 Y70.538 E4.89173
G1 X140.039 Y71.076 E4.94162
G1 X140.447 Y71.664 E4.99161
G1 X140.786 Y72.294 E5.04158
G1 X141.053 Y72.957 E5.0915
G1 X141.244 Y73.647 E5.14151
G1 X141.357 Y74.353 E5.19145
G1 X141.397 Y75.15 E5.24719
G1 X141.4 Y75.33 E5.25976
G1 X141.4 Y134.343 E9.3816
G1 X141.391 Y135.07 E9.43238
G1 X141.342 Y135.784 E9.48237
G1 X141.214 Y136.488 E9.53235
G1 X141.008 Y137.173 E9.58231
G1 X140.727 Y137.83 E9.63222
G1 X140.374 Y138.453 E9.68223
G1 X139.954 Y139.032 E9.73219
G1 X139.472 Y139.56 E9.78213
G1 X138.935 Y140.032 E9.83206
G1 X138.347 Y140.44 E9.88205
G1 X137.718 Y140.781 E9.93203
G1 X137.055 Y141.049 E9.98197
G1 X136.366 Y141.241 E10.03193
G1 X135.66 Y141.356 E10.08189
G1 X134.849 Y141.397 E10.13861
G1 X134.67 Y141.4 E10.15111
G1 X75.624 Y141.399 E14.27526
G1 X74.926 Y141.39 E14.32402
G1 X74.213 Y141.341 E14.37393
G1 X73.509 Y141.213 E14.42391
G1 X72.824 Y141.007 E14.47387
G1 X72.167 Y140.725 E14.52381
G1 X71.545 Y140.372 E14.57376
G1 X70.966 Y139.952 E14.62372
G1 X70.437 Y139.47 E14.67371
G1 X69.966 Y138.932 E14.72365
G1 X69.558 Y138.345 E14.77358
G1 X69.218 Y137.715 E14.82359
G1 X68.95 Y137.052 E14.87353
G1 X68.758 Y136.363 E14.92349
G1 X68.644 Y135.657 E14.97344
G1 X68.602 Y134.831 E15.03121
G1 X68.6 Y134.658 E15.04329
G1 X68.601 Y75.587 E19.16918
G1 X68.61 Y74.922 E19.21564
G1 X68.659 Y74.209 E19.26555
G1 X68.788 Y73.505 E19.31554
G1 X68.995 Y72.821 E19.36546
G1 X69.277 Y72.163 E19.41546
G1 X69.63 Y71.541 E19.46541
G1 X70.05 Y70.963 E19.51532
G1 X70.533 Y70.435 E19.5653
M204 S3000
M205 X10 Y10
G0 F3000 X71.08 Y70.688
M204 S1800
M205 X8 Y8
G1 F2400 X71.612 Y70.259 E19.61303
G1 X72.19 Y69.894 E19.66078
G1 X72.807 Y69.6 E19.70852
G1 X73.453 Y69.38 E19.75618
G1 X74.121 Y69.237 E19.8039
G1 X74.845 Y69.171 E19.85468
G1 X75.33 Y69.16 E19.88856
G1 X100.011 Y69.158 E21.61244
G1 X101.05 Y69.16 E21.68501
G1 X134.377 Y69.161 E24.01277
G1 X135.075 Y69.171 E24.06153
G1 X135.756 Y69.22 E24.10922
G1 X136.427 Y69.349 E24.15695
G1 X137.078 Y69.556 E24.20466
G1 X137.701 Y69.837 E24.25239
G1 X138.287 Y70.189 E24.30014
G1 X138.827 Y70.607 E24.34784
G1 X139.315 Y71.085 E24.39555
G1 X139.744 Y71.617 E24.44328
G1 X140.108 Y72.195 E24.49099
G1 X140.402 Y72.812 E24.53873
G1 X140.621 Y73.459 E24.58644
G1 X140.764 Y74.127 E24.63415
G1 X140.829 Y74.846 E24.68458
G1 X140.84 Y75.33 E24.71839
G1 X140.84 Y134.336 E28.83974
G1 X140.831 Y135.063 E28.89052
G1 X140.782 Y135.745 E28.93828
G1 X140.654 Y136.416 E28.98599
G1 X140.449 Y137.068 E29.03373
G1 X140.169 Y137.691 E29.08144
G1 X139.819 Y138.277 E29.12911
G1 X139.402 Y138.819 E29.17688
G1 X138.925 Y139.308 E29.22459
G1 X138.394 Y139.737 E29.27227
G1 X137.816 Y140.102 E29.32002
G1 X137.2 Y140.397 E29.36772
G1 X136.553 Y140.618 E29.41548
G1 X135.885 Y140.762 E29.46321
G1 X135.155 Y140.829 E29.51441
G1 X134.67 Y140.84 E29.54829
G1 X75.632 Y140.84 E33.67188
G1 X74.934 Y140.831 E33.72063
G1 X74.252 Y140.782 E33.76839
G1 X73.581 Y140.654 E33.8161
G1 X72.93 Y140.448 E33.8638
G1 X72.306 Y140.168 E33.91157
G1 X71.72 Y139.817 E33.95928
G1 X71.179 Y139.4 E34.00699
G1 X70.69 Y138.922 E34.05475
G1 X70.261 Y138.391 E34.10243
G1 X69.896 Y137.813 E34.15018
G1 X69.602 Y137.197 E34.19785
G1 X69.381 Y136.55 E34.2456
G1 X69.237 Y135.882 E34.29333
G1 X69.171 Y135.149 E34.34474
G1 X69.16 Y134.658 E34.37904
G1 X69.161 Y75.595 E38.50437
G1 X69.17 Y74.93 E38.55082
G1 X69.219 Y74.249 E38.59851
G1 X69.347 Y73.577 E38.64629
G1 X69.553 Y72.926 E38.69399
G1 X69.834 Y72.303 E38.74172
G1 X70.185 Y71.717 E38.78943
G1 X70.603 Y71.176 E38.83718
G1 X71.08 Y70.688 E38.88485
M204 S3000
M205 X10 Y10
G0 F3000 X71.154 Y71.401
M204 S1800
M205 X8 Y8
G1 F2400 X71.626 Y70.955 E38.9302
G1 X72.149 Y70.571 E38.97552
G1 X72.716 Y70.253 E39.02093
G1 X73.317 Y70.007 E39.06629
G1 X73.944 Y69.837 E39.11166
G1 X74.861 Y69.731 E39.17614
G1 X75.33 Y69.72 E39.2089
G1 X100.01 Y69.718 E40.93271
G1 X101.049 Y69.72 E41.00528
G1 X134.369 Y69.721 E43.33256
G1 X135.067 Y69.731 E43.38132
G1 X135.714 Y69.78 E43.42664
G1 X136.351 Y69.908 E43.47202
G1 X136.967 Y70.114 E43.51739
G1 X137.554 Y70.394 E43.56281
G1 X138.101 Y70.743 E43.60813
G1 X138.602 Y71.157 E43.65353
G1 X139.047 Y71.63 E43.69889
G1 X139.432 Y72.154 E43.7443
G1 X139.749 Y72.721 E43.78967
G1 X139.994 Y73.322 E43.83501
G1 X140.163 Y73.949 E43.88036
G1 X140.269 Y74.862 E43.94456
G1 X140.28 Y75.33 E43.97726
G1 X140.28 Y134.329 E48.09812
G1 X140.271 Y135.056 E48.1489
G1 X140.223 Y135.704 E48.19428
G1 X140.095 Y136.341 E48.23967
G1 X139.891 Y136.958 E48.28506
G1 X139.612 Y137.545 E48.33045
G1 X139.264 Y138.093 E48.37579
G1 X138.851 Y138.594 E48.42114
G1 X138.379 Y139.041 E48.46655
G1 X137.856 Y139.426 E48.51191
G1 X137.29 Y139.744 E48.55725
G1 X136.688 Y139.991 E48.6027
G1 X136.062 Y140.161 E48.64801
G1 X135.139 Y140.269 E48.71292
G1 X134.67 Y140.28 E48.74568
G1 X75.639 Y140.28 E52.86878
G1 X74.941 Y140.271 E52.91754
G1 X74.293 Y140.222 E52.96293
G1 X73.656 Y140.095 E53.00829
G1 X73.04 Y139.89 E53.05364
G1 X72.453 Y139.611 E53.09903
G1 X71.905 Y139.262 E53.14441
G1 X71.404 Y138.849 E53.18976
G1 X70.957 Y138.377 E53.23517
G1 X70.572 Y137.854 E53.28053
G1 X70.254 Y137.287 E53.32593
G1 X70.008 Y136.686 E53.37129
G1 X69.838 Y136.059 E53.41667
G1 X69.731 Y135.134 E53.48171
G1 X69.72 Y134.658 E53.51496
G1 X69.72 Y75.603 E57.63973
G1 X69.729 Y74.938 E57.68619
G1 X69.778 Y74.29 E57.73158
G1 X69.906 Y73.653 E57.77696
G1 X70.111 Y73.036 E57.82237
G1 X70.391 Y72.45 E57.86773
G1 X70.74 Y71.902 E57.91311
G1 X71.154 Y71.401 E57.9585
M204 S3000
M205 X10 Y10
G1 F2400 E51.9585
G1 F600 Z0.375
G0 F3000 X78.98 Y78.98 Z0.375
M204 S1800
M205 X8 Y8
;TYPE:SUPPORT
G1 F600 Z0.3
G1 F2400 E57.9585
G1 F1800 X131.02 Y78.98 E61.5933
G1 X131.02 Y131.02 E65.22811
G1 X78.98 Y131.02 E68.86291
G1 X78.98 Y78.98 E72.49771
M204 S3000
M205 X10 Y10
G0 F3000 X79.72 Y80.166
M204 S1800
M205 X8 Y8
G1 F1800 X79.72 Y129.834 E75.96683
G1 X80.166 Y130.28 E76.01089
G1 X129.834 Y130.28 E79.48001
G1 X130.28 Y129.834 E79.52407
G1 X130.28 Y80.166 E82.99319
G1 X129.834 Y79.72 E83.03725
G1 X80.166 Y79.72 E86.50637
G1 X79.72 Y80.166 E86.55043
M204 S3000
M205 X10 Y10
G0 F3000 X79.499 Y92.665
M204 S1800
M205 X8 Y8
G1 F1800 X79.199 Y92.838 E86.57461
M204 S3000
M205 X10 Y10
G0 F3000 X79.199 Y115.008
M204 S1800
M205 X8 Y8
G1 F1800 X79.5 Y115.181 E86.59886
M204 S3000
M205 X10 Y10
G0 F3000 X106.032 Y130.5
M204 S1800
M205 X8 Y8
G1 F1800 X106.551 Y130.799 E86.6407
M204 S3000
M205 X10 Y10
G0 F3000 X120 Y130.8
M204 S1800
M205 X8 Y8
G1 F1800 X120 Y130.5 E86.66165
M204 S3000
M205 X10 Y10
G0 F3000 X120 Y79.5
M204 S1800
M205 X8 Y8
G1 F1800 X120 Y79.2 E86.68261
M204 S3000
M205 X10 Y10
G0 F3000 X102.822 Y79.199
M204 S1800
M205 X8 Y8
G1 F1800 X102.301 Y79.5 E86.72463
M204 S3000
M205 X10 Y10
G1 F2400 E80.72463
G1 F600 Z0.375
;MESH:bill_enter1.stl
G0 F3000 X133.4 Y76.6 Z0.375
M204 S1800
M205 X8 Y8
;TYPE:WALL-INNER
G1 F600 Z0.3
G1 F2400 E86.72463
G1 F1800 X111.4 Y76.6 E88.26125
G1 X111.4 Y76.4 E88.27522
G1 X133.4 Y76.4 E88.82401
G1 X133.6 Y76.4 E88.83798
G1 X133.6 Y76.6 E88.84797
G1 X133.6 Y133.4 E92.81524
G1 X133.6 Y133.6 E92.82921
G1 X133.4 Y133.6 E92.8392
G1 X76.6 Y133.6 E96.80647
G1 X76.4 Y133.6 E96.82044
G1 X76.4 Y133.4 E96.83043
G1 X76.4 Y76.6 E100.7977
G1 X76.4 Y76.4 E100.81167
G1 X76.6 Y76.4 E100.82166
G1 X98.6 Y76.4 E102.35828
G1 X98.6 Y76.6 E102.37225
G1 X76.6 Y76.6 E102.92104
G1 X76.6 Y133.4 E104.33792
G1 X133.4 Y133.4 E105.7548
G1 X133.4 Y76.6 E107.17168
M204 S3000
M205 X10 Y10
G0 F3000 X110.91 Y76.91
G0 X110.84 Y76.84
M204 S1800
M205 X8 Y8
G1 F1800 X110.84 Y75.84 E107.24153
G1 X134.16 Y75.84 E108.87035
G1 X134.16 Y134.16 E112.94378
G1 X75.84 Y134.16 E117.01722
G1 X75.84 Y75.84 E121.09065
G1 X99.16 Y75.84 E122.71947
G1 X99.16 Y76.84 E122.78931
G1 X110.84 Y76.84 E123.60512
M204 S3000
M205 X10 Y10
G0 F3000 X110.91 Y76.91
G0 X77.09 Y77.09
G0 X77.16 Y77.16
M204 S1800
M205 X8 Y8
G1 F1800 X77.16 Y132.84 E127.49416
G1 X132.84 Y132.84 E131.3832
G1 X132.84 Y77.16 E135.27224
G1 X110.84 Y77.16 E136.80886
G1 X99.16 Y77.16 E137.27503
G1 X77.16 Y77.16 E138.81165
M204 S3000
M205 X10 Y10
G0 F3000 X77.72 Y77.72
M204 S1800
M205 X8 Y8
;TYPE:WALL-OUTER
G1 F1800 X77.72 Y132.28 E142.62246
G1 X132.28 Y132.28 E146.43328
G1 X132.28 Y77.72 E150.24409
G1 X77.72 Y77.72 E154.0549
M204 S3000
M205 X10 Y10
G0 F3000 X77.72 Y77.92
G0 X77.06 Y77.92
G0 X110.868 Y76.868
G0 X110.28 Y76.28
M204 S1800
M205 X8 Y8
G1 F1800 X110.28 Y75.28 E154.12475
G1 X134.72 Y75.28 E155.83179
G1 X134.72 Y134.72 E159.98346
G1 X75.28 Y134.72 E164.13512
G1 X75.28 Y75.28 E168.28678
G1 X99.72 Y75.28 E169.99383
G1 X99.72 Y76.28 E170.06367
G1 X110.28 Y76.28 E170.80125
M204 S3000
M205 X10 Y10
G0 F3000 X110.28 Y76.08
G0 X111.4 Y76.4
G1 F2400 E164.80125
G1 F600 Z0.375
;MESH:NONMESH
G0 F3000 X111.4 Y76.4 Z0.375
G0 X78.9 Y78.9
;TIME_ELAPSED:90.692917
;LAYER:1
M106 S255
G0 F4500 X78.9 Y78.9 Z0.675
M204 S1800
M205 X8 Y8
;TYPE:SUPPORT
G1 F600 Z0.6
G1 F2400 E170.80125
G1 F2700 X131.1 Y78.9 E173.40552
G1 X131.1 Y131.1 E176.00979
G1 X78.9 Y131.1 E178.61406
G1 X78.9 Y78.9 E181.21832
M204 S3000
M205 X10 Y10
G0 F4500 X80.199 Y79.8
M204 S1800
M205 X8 Y8
G1 F2700 X79.8 Y80.199 E181.24648
G1 X79.8 Y129.801 E183.72113
G1 X80.199 Y130.2 E183.74928
G1 X129.801 Y130.2 E186.22393
G1 X130.2 Y129.801 E186.25209
G1 X130.2 Y80.199 E188.72674
G1 X129.801 Y79.8 E188.75489
G1 X80.199 Y79.8 E191.22955
M204 S3000
M205 X10 Y10
G0 F4500 X79.658 Y92.573
M204 S1800
M205 X8 Y8
G1 F2700 X79.039 Y92.93 E191.2652
M204 S3000
M205 X10 Y10
G0 F4500 X79.039 Y114.915
M204 S1800
M205 X8 Y8
G1 F2700 X79.659 Y115.273 E191.30091
M204 S3000
M205 X10 Y10
G0 F4500 X105.754 Y130.339
M204 S1800
M205 X8 Y8
G1 F2700 X106.827 Y130.959 E191.36274
M204 S3000
M205 X10 Y10
G0 F4500 X120 Y130.96
M204 S1800
M205 X8 Y8
G1 F2700 X120 Y130.34 E191.39367
M204 S3000
M205 X10 Y10
G0 F4500 X120 Y79.66
M204 S1800
M205 X8 Y8
G1 F2700 X120 Y79.04 E191.4246
M204 S3000
M205 X10 Y10
G0 F4500 X103.099 Y79.039
M204 S1800
M205 X8 Y8
G1 F2700 X102.024 Y79.66 E191.48654
M204 S3000
M205 X10 Y10
G1 F2400 E185.48654
;MESH:bill_enter1.stl
G0 F4500 X102.024 Y77.4
G0 X133 Y77
M204 S1800
M205 X8 Y8
;TYPE:WALL-INNER
G1 F2400 E191.48654
G1 F2700 X111 Y77 E192.58413
G1 X111 Y76 E192.63402
G1 X134 Y76 E193.78149
G1 X134 Y134 E196.67512
G1 X76 Y134 E199.56875
G1 X76 Y76 E202.46239
G1 X99 Y76 E203.60986
G1 X99 Y77 E203.65975
G1 X77 Y77 E204.75734
G1 X77 Y133 E207.55119
G1 X133 Y133 E210.34504
G1 X133 Y77 E213.13889
M204 S3000
M205 X10 Y10
G0 F4500 X110.67 Y76.67
G0 X110.6 Y76.6
M204 S1800
M205 X8 Y8
G1 F2700 X110.6 Y75.6 E213.18878
G1 X134.4 Y75.6 E214.37617
G1 X134.4 Y134.4 E217.30971
G1 X75.6 Y134.4 E220.24325
G1 X75.6 Y75.6 E223.1768
G1 X99.4 Y75.6 E224.36418
G1 X99.4 Y76.6 E224.41407
G1 X110.6 Y76.6 E224.97285
M204 S3000
M205 X10 Y10
G0 F4500 X110.67 Y76.67
G0 X77.33 Y77.33
G0 X77.4 Y77.4
M204 S1800
M205 X8 Y8
G1 F2700 X77.4 Y132.6 E227.72678
G1 X132.6 Y132.6 E230.48072
G1 X132.6 Y77.4 E233.23466
G1 X77.4 Y77.4 E235.9886
M204 S3000
M205 X10 Y10
G0 F4500 X77.8 Y77.8
M204 S1800
M205 X8 Y8
;TYPE:WALL-OUTER
G1 F2700 X77.8 Y132.2 E238.70263
G1 X132.2 Y132.2 E241.41666
G1 X132.2 Y77.8 E244.13068
G1 X77.8 Y77.8 E246.84471
M204 S3000
M205 X10 Y10
G0 F4500 X77.8 Y78
G0 X77.3 Y78
G0 X110.628 Y76.628
G0 X110.2 Y76.2
M204 S1800
M205 X8 Y8
G1 F2700 X110.2 Y75.2 E246.8946
G1 X134.8 Y75.2 E248.1219
G1 X134.8 Y134.8 E251.09536
G1 X75.2 Y134.8 E254.06881
G1 X75.2 Y75.2 E257.04227
G1 X99.8 Y75.2 E258.26957
G1 X99.8 Y76.2 E258.31946
G1 X110.2 Y76.2 E258.83831
M204 S3000
M205 X10 Y10
G0 F4500 X110.2 Y76
G0 X110.7 Y76
G0 X111.39 Y76.39
M204 S1800
M205 X8 Y8
;TYPE:SKIN
G1 F1800 X133.61 Y76.39 E259.94688
G1 X133.61 Y133.61 E262.80159
G1 X76.39 Y133.61 E265.65631
G1 X76.39 Y76.39 E268.51103
G1 X98.61 Y76.39 E269.61959
G1 X98.61 Y76.61 E269.63056
G1 X76.61 Y76.61 E270.72815
G1 X76.61 Y133.39 E273.56091
G1 X133.39 Y133.39 E276.39368
G1 X133.39 Y76.61 E279.22644
G1 X111.39 Y76.61 E280.32403
G1 X111.39 Y76.39 E280.33501
M204 S3000
M205 X10 Y10
G0 F4500 X110.524 Y76.999
M204 S1800
M205 X8 Y8
;TYPE:SKIN
G1 F1800 X110.241 Y76.999 E280.3501
G1 X99.493 Y76.999 E280.92354
G1 X99.297 Y76.912 E280.93498
M204 S3000
M205 X10 Y10
G0 F4500 X99.179 Y77.031
G0 X110.602 Y77.205
M204 S1800
M205 X8 Y8
G1 F1800 X110.819 Y76.988 E280.94263
M204 S3000
M205 X10 Y10
G1 F2400 E274.94263
;MESH:NONMESH
G0 F600 X110.819 Y76.988 Z0.9
G0 F4500 X78.9 Y77.4
G0 X78.9 Y78.9
;TIME_ELAPSED:151.183698
;LAYER:2
M204 S1800
M205 X8 Y8
;TYPE:SUPPORT
G1 F2400 E280.94263
G1 F3600 X131.1 Y78.9 E283.5469
G1 X131.1 Y131.1 E286.15117
G1 X78.9 Y131.1 E288.75544
G1 X78.9 Y78.9 E291.35971
M204 S3000
M205 X10 Y10
G0 F6000 X80.199 Y79.8
M204 S1800
M205 X8 Y8
G1 F3600 X79.8 Y80.199 E291.38786
G1 X79.8 Y129.801 E293.86251
G1 X80.199 Y130.2 E293.89066
G1 X129.801 Y130.2 E296.36532
G1 X130.2 Y129.801 E296.39347
G1 X130.2 Y80.199 E298.86812
G1 X129.801 Y79.8 E298.89627
G1 X80.199 Y79.8 E301.37093
M204 S3000
M205 X10 Y10
G0 F6000 X79.658 Y92.573
M204 S1800
M205 X8 Y8
G1 F3600 X79.039 Y92.93 E301.40658
M204 S3000
M205 X10 Y10
G0 F6000 X79.039 Y114.915
M204 S1800
M205 X8 Y8
G1 F3600 X79.659 Y115.273 E301.4423
M204 S3000
M205 X10 Y10
G0 F6000 X105.754 Y130.339
M204 S1800
M205 X8 Y8
G1 F3600 X106.827 Y130.959 E301.50412
M204 S3000
M205 X10 Y10
G0 F6000 X120 Y130.96
M204 S1800
M205 X8 Y8
G1 F3600 X120 Y130.34 E301.53505
M204 S3000
M205 X10 Y10
G0 F6000 X120 Y79.66
M204 S1800
M205 X8 Y8
G1 F3600 X120 Y79.04 E301.56599
M204 S3000
M205 X10 Y10
G0 F6000 X103.099 Y79.039
M204 S1800
M205 X8 Y8
G1 F3600 X102.024 Y79.66 E301.62792
M204 S3000
M205 X10 Y10
G1 F2400 E295.62792
;MESH:bill_enter1.stl
G0 F6000 X102.024 Y77.4
G0 X133 Y77
M204 S1800
M205 X8 Y8
;TYPE:WALL-INNER
G1 F2400 E301.62792
G1 F3600 X111 Y77 E302.72551
G1 X111 Y76 E302.7754
G1 X134 Y76 E303.92287
G1 X134 Y134 E306.8165
G1 X76 Y134 E309.71014
G1 X76 Y76 E312.60377
G1 X99 Y76 E313.75124
G1 X99 Y77 E313.80113
G1 X77 Y77 E314.89872
G1 X77 Y133 E317.69257
G1 X133 Y133 E320.48642
G1 X133 Y77 E323.28027
M204 S3000
M205 X10 Y10
G0 F6000 X110.67 Y76.67
G0 X110.6 Y76.6
M204 S1800
M205 X8 Y8
G1 F3600 X110.6 Y75.6 E323.33016
G1 X134.4 Y75.6 E324.51755
G1 X134.4 Y134.4 E327.45109
G1 X75.6 Y134.4 E330.38464
G1 X75.6 Y75.6 E333.31818
G1 X99.4 Y75.6 E334.50557
G1 X99.4 Y76.6 E334.55546
G1 X110.6 Y76.6 E335.11423
M204 S3000
M205 X10 Y10
G0 F6000 X110.67 Y76.67
G0 X77.33 Y77.33
G0 X77.4 Y77.4
M204 S1800
M205 X8 Y8
G1 F3600 X77.4 Y132.6 E337.86817
G1 X132.6 Y132.6 E340.62211
G1 X132.6 Y77.4 E343.37604
G1 X77.4 Y77.4 E346.12998
M204 S3000
M205 X10 Y10
G0 F6000 X77.8 Y77.8
M204 S1800
M205 X8 Y8
;TYPE:WALL-OUTER
G1 F3600 X77.8 Y132.2 E348.84401
G1 X132.2 Y132.2 E351.55804
G1 X132.2 Y77.8 E354.27207
G1 X77.8 Y77.8 E356.98609
M204 S3000
M205 X10 Y10
G0 F6000 X77.8 Y78
G0 X77.3 Y78
G0 X110.628 Y76.628
G0 X110.2 Y76.2
M204 S1800
