;FLAVOR:Marlin
;TIME:278
;Filament used: 0.346492m
;Layer height: 0.3
;MINX:94.063
;MINY:93.455
;MINZ:0.3
;MAXX:115.821
;MAXY:118.941
;MAXZ:13.2
;Generated with Cura_SteamEngine 4.11.0
M140 S60
M105
M190 S60
M104 S200
M105
M109 S200
M82 ;absolute extrusion mode
G21 ;metric values
G90 ;absolute positioning
M82 ;set extruder to absolute mode
M107 ;start with the fan off
G28 X0 Y0 ;move X/Y to min endstops
G28 Z0 ;move Z to min endstops
G1 Z15.0 F100 ;move the platform down 15mm
G92 E0 ;zero the extruded length
G1 F200 E3 ;extrude 3mm of feed stock
G92 E0 ;zero the extruded length again
G1 F100
G0 Y20 F100
M117 Printing...
G5
G92 E0
G92 E0
G1 F2400 E-6
;LAYER_COUNT:44
;LAYER:0
M107
M204 S3000
M205 X10 Y10
G1 F600 Z0.375
G0 F3000 X96.822 Y96.791 Z0.375
M204 S1800
M205 X8 Y8
;TYPE:SKIRT
G1 F600 Z0.3
G1 F2400 E0
G1 X97.071 Y96.551 E0.02416
G1 X97.484 Y96.185 E0.0627
G1 X97.718 Y95.992 E0.08389
G1 X98.148 Y95.663 E0.1217
G1 X98.403 Y95.483 E0.1435
G1 X98.85 Y95.191 E0.1808
G1 X99.103 Y95.038 E0.20145
G1 X99.575 Y94.775 E0.23919
G1 X99.861 Y94.63 E0.26158
G1 X100.36 Y94.4 E0.29996
G1 X100.644 Y94.281 E0.32147
G1 X101.135 Y94.097 E0.35809
G1 X101.424 Y94.001 E0.37936
G1 X101.941 Y93.849 E0.417
G1 X102.232 Y93.774 E0.43799
G1 X102.746 Y93.662 E0.47473
G1 X103.05 Y93.608 E0.4963
G1 X103.572 Y93.534 E0.53312
G1 X103.932 Y93.498 E0.55839
G1 X104.699 Y93.456 E0.61205
G1 X105.133 Y93.455 E0.64236
G1 X105.874 Y93.491 E0.69418
G1 X106.352 Y93.542 E0.72775
G1 X107.27 Y93.693 E0.79273
G1 X107.724 Y93.794 E0.82522
G1 X108.336 Y93.966 E0.86962
G1 X108.755 Y94.107 E0.9005
G1 X109.646 Y94.462 E0.96749
G1 X110.038 Y94.642 E0.99762
G1 X110.516 Y94.892 E1.03529
G1 X110.8 Y95.056 E1.0582
G1 X111.304 Y95.372 E1.09975
G1 X111.66 Y95.621 E1.13009
G1 X112.398 Y96.198 E1.19553
G1 X112.73 Y96.487 E1.22627
G1 X113.15 Y96.893 E1.26707
G1 X113.366 Y97.118 E1.28885
G1 X113.803 Y97.608 E1.33471
G1 X114.157 Y98.065 E1.37509
G1 X114.446 Y98.568 E1.41561
G1 X114.662 Y99.105 E1.45604
G1 X114.803 Y99.667 E1.49651
G1 X114.865 Y100.243 E1.53697
G1 X114.847 Y100.822 E1.57743
G1 X114.75 Y101.393 E1.61788
G1 X114.49 Y102.177 E1.67558
G1 X114.252 Y102.705 E1.71603
G1 X113.943 Y103.196 E1.75655
G1 X113.57 Y103.639 E1.797
G1 X113.139 Y104.027 E1.8375
G1 X112.915 Y104.18 E1.85645
G1 X113.452 Y104.396 E1.89688
G1 X113.955 Y104.684 E1.93736
G1 X114.414 Y105.038 E1.97785
G1 X114.819 Y105.452 E2.0183
G1 X115.163 Y105.918 E2.05876
G1 X115.44 Y106.426 E2.09917
G1 X115.645 Y106.969 E2.13971
G1 X115.773 Y107.534 E2.18017
G1 X115.821 Y108.111 E2.22061
G1 X115.766 Y108.937 E2.27843
G1 X115.657 Y109.809 E2.33981
G1 X115.546 Y110.378 E2.38031
G1 X115.357 Y110.925 E2.42073
G1 X115.095 Y111.442 E2.46121
G1 X114.764 Y111.918 E2.50171
G1 X114.83 Y112.079 E2.51386
G1 X115.067 Y112.607 E2.55428
G1 X115.229 Y113.164 E2.5948
G1 X115.309 Y113.678 E2.63113
G1 X115.337 Y114.257 E2.67162
G1 X115.285 Y114.834 E2.71209
G1 X115.171 Y115.339 E2.74825
G1 X115.094 Y115.604 E2.76752
G1 X114.895 Y116.148 E2.80798
G1 X114.646 Y116.622 E2.84538
G1 X114.318 Y117.1 E2.88587
G1 X113.879 Y117.576 E2.9311
G1 X113.606 Y117.829 E2.95709
G1 X113.155 Y118.192 E2.99753
G1 X112.658 Y118.49 E3.038
G1 X112.125 Y118.717 E3.07847
G1 X111.566 Y118.868 E3.11891
G1 X110.991 Y118.941 E3.1594
G1 X110.284 Y118.929 E3.20878
G1 X109.709 Y118.857 E3.24926
G1 X109.15 Y118.707 E3.28968
G1 X108.616 Y118.482 E3.33016
G1 X108.118 Y118.185 E3.37066
G1 X107.667 Y117.822 E3.41109
G1 X107.081 Y117.19 E3.47129
G1 X106.731 Y116.728 E3.51178
G1 X106.531 Y116.366 E3.54066
G1 X106.032 Y116.428 E3.57578
G1 X105.503 Y116.467 E3.61283
G1 X105.154 Y116.478 E3.63722
G1 X104.522 Y116.472 E3.68137
G1 X104.195 Y116.456 E3.70423
G1 X103.659 Y116.409 E3.74181
G1 X103.462 Y116.384 E3.75568
G1 X103.344 Y116.612 E3.77362
G1 X103.018 Y117.09 E3.81403
G1 X102.617 Y117.53 E3.85561
G1 X102.343 Y117.791 E3.88204
G1 X101.897 Y118.161 E3.92252
G1 X101.404 Y118.466 E3.96301
G1 X100.874 Y118.7 E4.00347
G1 X100.317 Y118.859 E4.04393
G1 X99.744 Y118.939 E4.08434
G1 X99.032 Y118.936 E4.13407
G1 X98.456 Y118.872 E4.17455
G1 X97.895 Y118.729 E4.21499
G1 X97.358 Y118.511 E4.25547
G1 X96.857 Y118.22 E4.29594
G1 X96.4 Y117.864 E4.3364
G1 X95.803 Y117.234 E4.39702
G1 X95.447 Y116.777 E4.43748
G1 X95.121 Y116.2 E4.48377
G1 X95.088 Y116.129 E4.48924
G1 X94.881 Y115.588 E4.5297
G1 X94.758 Y115.071 E4.56682
G1 X94.715 Y114.821 E4.58453
G1 X94.656 Y114.245 E4.62498
G1 X94.677 Y113.666 E4.66544
G1 X94.766 Y113.139 E4.70277
G1 X94.923 Y112.582 E4.74319
G1 X95.156 Y112.051 E4.7837
G1 X95.375 Y111.695 E4.81289
G1 X95.177 Y111.415 E4.83684
G1 X94.912 Y110.9 E4.8773
G1 X94.655 Y110.077 E4.93752
G1 X94.575 Y109.683 E4.9656
G1 X94.499 Y109.108 E5.00611
G1 X94.503 Y108.529 E5.04655
G1 X94.587 Y107.956 E5.087
G1 X94.748 Y107.4 E5.12743
G1 X94.985 Y106.871 E5.16792
G1 X95.292 Y106.38 E5.20836
G1 X95.664 Y105.935 E5.24887
G1 X95.997 Y105.634 E5.28023
G1 X95.726 Y105.434 E5.30375
G1 X95.312 Y105.029 E5.3442
G1 X94.877 Y104.468 E5.39379
G1 X94.566 Y103.979 E5.43426
G1 X94.325 Y103.452 E5.47474
G1 X94.16 Y102.897 E5.51518
G1 X94.072 Y102.325 E5.5556
G1 X94.063 Y101.746 E5.59605
G1 X94.135 Y101.171 E5.63652
G1 X94.285 Y100.611 E5.67702
G1 X94.507 Y100.071 E5.7178
G1 X94.638 Y99.803 E5.73863
G1 X94.885 Y99.339 E5.77535
G1 X95.104 Y98.973 E5.80514
G1 X95.648 Y98.162 E5.87335
G1 X95.908 Y97.816 E5.90358
G1 X96.255 Y97.399 E5.94147
G1 X96.448 Y97.182 E5.96175
G1 X96.822 Y96.791 E5.99954
M204 S3000
M205 X10 Y10
G0 F3000 X97.227 Y97.178
M204 S1800
M205 X8 Y8
G1 F2400 X97.443 Y96.97 E6.02049
G1 X97.856 Y96.604 E6.05903
G1 X98.058 Y96.437 E6.07734
G1 X98.488 Y96.108 E6.11515
G1 X98.709 Y95.952 E6.13405
G1 X99.156 Y95.66 E6.17134
G1 X99.375 Y95.527 E6.18924
G1 X99.847 Y95.264 E6.22698
G1 X100.095 Y95.138 E6.24641
G1 X100.594 Y94.908 E6.28478
G1 X100.841 Y94.805 E6.30348
G1 X101.332 Y94.621 E6.3401
G1 X101.582 Y94.538 E6.3585
G1 X102.099 Y94.386 E6.39614
G1 X102.351 Y94.321 E6.41431
G1 X102.865 Y94.209 E6.45106
G1 X103.129 Y94.162 E6.46979
G1 X103.651 Y94.088 E6.50661
G1 X103.963 Y94.057 E6.52851
G1 X104.73 Y94.015 E6.58216
G1 X105.106 Y94.014 E6.60842
G1 X105.847 Y94.05 E6.66024
G1 X106.261 Y94.094 E6.68932
G1 X107.179 Y94.245 E6.7543
G1 X107.573 Y94.333 E6.7825
G1 X108.185 Y94.505 E6.8269
G1 X108.547 Y94.628 E6.85361
G1 X109.438 Y94.983 E6.9206
G1 X109.778 Y95.139 E6.94672
G1 X110.256 Y95.389 E6.9844
G1 X110.503 Y95.53 E7.00427
G1 X111.007 Y95.846 E7.04582
G1 X111.315 Y96.062 E7.07209
G1 X112.053 Y96.639 E7.13752
G1 X112.341 Y96.89 E7.16421
G1 X112.761 Y97.296 E7.20501
G1 X112.948 Y97.49 E7.22383
G1 X113.385 Y97.98 E7.26969
G1 X113.713 Y98.408 E7.30735
G1 X113.974 Y98.88 E7.34502
G1 X114.163 Y99.385 E7.38268
G1 X114.275 Y99.913 E7.42038
G1 X114.308 Y100.451 E7.45803
G1 X114.261 Y100.988 E7.49568
G1 X114.082 Y101.667 E7.54473
G1 X113.965 Y101.983 E7.56826
G1 X113.74 Y102.473 E7.60592
G1 X113.446 Y102.925 E7.64358
G1 X113.088 Y103.329 E7.68129
G1 X112.675 Y103.675 E7.71892
G1 X112.215 Y103.956 E7.75657
G1 X111.718 Y104.167 E7.79428
G1 X111.023 Y104.328 E7.84411
G1 X108.929 Y104.602 E7.99161
G1 X106.482 Y104.902 E8.16381
G1 X105.141 Y105.073 E8.25823
G1 X103.924 Y105.219 E8.34384
G1 X101.349 Y105.549 E8.52517
G1 X100.471 Y105.657 E8.58695
G1 X100.56 Y105.701 E8.59389
G1 X101.004 Y106.007 E8.63155
G1 X101.397 Y106.376 E8.66921
G1 X101.717 Y106.782 E8.70531
G1 X102.01 Y106.714 E8.72632
G1 X102.711 Y106.622 E8.7757
G1 X104.868 Y106.371 E8.92738
G1 X106.187 Y106.198 E9.02029
G1 X106.934 Y106.096 E9.07295
G1 X108.482 Y105.911 E9.18185
G1 X108.664 Y105.903 E9.19457
G1 X108.849 Y105.67 E9.21535
G1 X109.243 Y105.303 E9.25296
G1 X109.688 Y104.998 E9.29064
G1 X110.173 Y104.762 E9.32831
G1 X110.687 Y104.6 E9.36595
G1 X111.22 Y104.515 E9.40365
G1 X111.759 Y104.511 E9.4413
G1 X112.293 Y104.586 E9.47897
G1 X112.742 Y104.713 E9.51156
G1 X113.242 Y104.916 E9.54925
G1 X113.706 Y105.191 E9.58692
G1 X114.124 Y105.532 E9.6246
G1 X114.487 Y105.931 E9.66228
G1 X114.787 Y106.378 E9.69988
G1 X115.018 Y106.866 E9.73759
G1 X115.174 Y107.382 E9.77524
G1 X115.253 Y107.916 E9.81294
G1 X115.243 Y108.55 E9.85723
G1 X115.2 Y108.958 E9.88589
G1 X115.102 Y109.74 E9.94093
G1 X114.995 Y110.268 E9.97856
G1 X114.812 Y110.775 E10.01621
G1 X114.555 Y111.25 E10.05393
G1 X114.232 Y111.681 E10.09155
G1 X114.058 Y111.853 E10.10864
G1 X114.336 Y112.342 E10.14793
G1 X114.554 Y112.836 E10.18564
G1 X114.697 Y113.356 E10.22331
G1 X114.753 Y113.744 E10.25069
G1 X114.776 Y114.282 E10.2883
G1 X114.719 Y114.819 E10.32602
G1 X114.556 Y115.448 E10.37141
G1 X114.368 Y115.953 E10.40904
G1 X114.163 Y116.338 E10.43951
G1 X113.856 Y116.782 E10.47721
G1 X113.498 Y117.165 E10.51383
G1 X113.225 Y117.418 E10.53983
G1 X112.804 Y117.754 E10.57745
G1 X112.337 Y118.024 E10.61513
G1 X111.836 Y118.223 E10.65278
G1 X111.31 Y118.345 E10.69049
G1 X110.552 Y118.383 E10.7435
G1 X110.315 Y118.37 E10.76008
G1 X109.78 Y118.3 E10.79777
G1 X109.261 Y118.153 E10.83545
G1 X108.77 Y117.93 E10.87311
G1 X108.317 Y117.637 E10.91079
G1 X107.773 Y117.13 E10.96273
G1 X107.503 Y116.821 E10.99139
G1 X107.179 Y116.39 E11.02906
G1 X106.93 Y115.932 E11.06547
G1 X106.853 Y115.739 E11.07998
G1 X106.251 Y115.841 E11.12263
G1 X105.991 Y115.869 E11.14089
G1 X105.462 Y115.908 E11.17794
G1 X105.159 Y115.918 E11.19912
G1 X104.527 Y115.912 E11.24326
G1 X104.244 Y115.898 E11.26305
G1 X103.708 Y115.851 E11.30063
G1 X103.144 Y115.757 E11.34057
G1 X103.136 Y115.782 E11.3424
G1 X102.902 Y116.259 E11.37951
G1 X102.861 Y116.329 E11.38518
G1 X102.555 Y116.773 E11.42284
G1 X101.957 Y117.386 E11.48266
G1 X101.54 Y117.728 E11.52033
G1 X101.077 Y118.004 E11.55797
G1 X100.578 Y118.209 E11.59565
G1 X100.055 Y118.339 E11.6333
G1 X99.293 Y118.387 E11.68662
G1 X99.055 Y118.377 E11.70326
G1 X98.52 Y118.314 E11.74089
G1 X97.999 Y118.173 E11.77859
G1 X97.505 Y117.957 E11.81624
G1 X97.048 Y117.67 E11.85394
G1 X96.498 Y117.17 E11.90585
G1 X96.22 Y116.86 E11.93494
G1 X95.891 Y116.433 E11.97259
G1 X95.629 Y115.964 E12.01011
G1 X95.596 Y115.893 E12.01558
G1 X95.406 Y115.389 E12.0532
G1 X95.267 Y114.726 E12.10051
G1 X95.215 Y114.189 E12.1382
G1 X95.243 Y113.651 E12.17583
G1 X95.314 Y113.254 E12.20399
G1 X95.463 Y112.736 E12.24164
G1 X95.687 Y112.245 E12.27934
G1 X96.062 Y111.677 E12.32688
G1 X95.788 Y111.327 E12.35792
G1 X95.513 Y110.864 E12.39554
G1 X95.309 Y110.364 E12.43325
G1 X95.124 Y109.571 E12.49013
G1 X95.056 Y109.036 E12.5278
G1 X95.068 Y108.497 E12.56545
G1 X95.159 Y107.966 E12.60308
G1 X95.328 Y107.454 E12.64074
G1 X95.571 Y106.972 E12.67844
G1 X95.882 Y106.532 E12.71608
G1 X96.255 Y106.142 E12.75377
G1 X96.681 Y105.812 E12.79141
G1 X97.069 Y105.595 E12.82246
G1 X96.8 Y105.482 E12.84284
G1 X96.339 Y105.202 E12.88051
G1 X95.924 Y104.858 E12.91816
G1 X95.522 Y104.399 E12.96078
G1 X95.328 Y104.136 E12.98361
G1 X95.041 Y103.679 E13.0213
G1 X94.824 Y103.185 E13.05898
G1 X94.683 Y102.665 E13.09662
G1 X94.62 Y102.129 E13.13431
G1 X94.637 Y101.59 E13.17198
G1 X94.734 Y101.06 E13.20961
G1 X94.931 Y100.497 E13.25127
G1 X95.132 Y100.067 E13.28442
G1 X95.379 Y99.603 E13.32114
G1 X95.569 Y99.285 E13.34701
G1 X96.113 Y98.474 E13.41522
G1 X96.338 Y98.174 E13.44141
G1 X96.685 Y97.757 E13.4793
G1 X96.853 Y97.569 E13.49691
G1 X97.227 Y97.178 E13.53471
M204 S3000
M205 X10 Y10
G0 F3000 X97.631 Y97.565
M204 S1800
M205 X8 Y8
G1 F2400 X97.814 Y97.389 E13.55244
G1 X98.227 Y97.023 E13.59098
G1 X98.398 Y96.882 E13.60646
G1 X98.828 Y96.553 E13.64428
G1 X99.016 Y96.42 E13.66037
G1 X99.463 Y96.128 E13.69766
G1 X99.648 Y96.016 E13.71276
G1 X100.12 Y95.753 E13.7505
G1 X100.33 Y95.647 E13.76693
G1 X100.829 Y95.417 E13.80531
G1 X101.037 Y95.33 E13.82106
G1 X101.528 Y95.146 E13.85768
G1 X101.74 Y95.075 E13.8733
G1 X102.257 Y94.923 E13.91094
G1 X102.47 Y94.869 E13.92628
G1 X102.984 Y94.757 E13.96303
G1 X103.208 Y94.716 E13.97893
G1 X103.73 Y94.642 E14.01576
G1 X103.994 Y94.617 E14.03428
G1 X104.761 Y94.575 E14.08793
G1 X105.078 Y94.574 E14.11007
G1 X105.819 Y94.61 E14.16189
G1 X106.17 Y94.647 E14.18654
G1 X107.088 Y94.798 E14.25152
G1 X107.421 Y94.872 E14.27535
G1 X108.033 Y95.044 E14.31975
G1 X108.34 Y95.148 E14.34239
G1 X109.231 Y95.503 E14.40938
G1 X109.518 Y95.635 E14.43145
G1 X109.996 Y95.885 E14.46912
G1 X110.205 Y96.004 E14.48592
G1 X110.709 Y96.32 E14.52747
G1 X110.97 Y96.504 E14.54978
G1 X111.708 Y97.081 E14.61521
G1 X111.952 Y97.293 E14.63778
G1 X112.372 Y97.699 E14.67858
G1 X112.53 Y97.863 E14.69449
G1 X112.967 Y98.353 E14.74035
G1 X113.266 Y98.749 E14.77501
G1 X113.498 Y99.187 E14.80963
G1 X113.656 Y99.657 E14.84426
G1 X113.737 Y100.146 E14.87888
G1 X113.739 Y100.642 E14.91352
G1 X113.66 Y101.132 E14.94819
G1 X113.439 Y101.788 E14.99654
G1 X113.23 Y102.238 E15.03119
G1 X112.952 Y102.649 E15.06585
G1 X112.611 Y103.009 E15.10049
G1 X112.217 Y103.31 E15.13512
G1 X111.779 Y103.544 E15.1698
G1 X111.31 Y103.704 E15.20441
G1 X110.951 Y103.773 E15.22995
G1 X108.861 Y104.046 E15.37717
G1 X106.411 Y104.346 E15.54957
G1 X105.074 Y104.517 E15.64371
G1 X103.83 Y104.666 E15.73122
G1 X101.871 Y104.916 E15.86916
G1 X101.252 Y104.997 E15.91276
G1 X98.827 Y105.295 E16.08342
G1 X98.331 Y105.316 E16.11809
G1 X97.839 Y105.257 E16.1527
G1 X97.362 Y105.119 E16.18738
G1 X96.914 Y104.907 E16.222
G1 X96.505 Y104.626 E16.25666
G1 X95.972 Y104.066 E16.31066
G1 X95.517 Y103.382 E16.36804
G1 X95.327 Y102.924 E16.40267
G1 X95.212 Y102.441 E16.43735
G1 X95.177 Y101.946 E16.47201
G1 X95.222 Y101.452 E16.50666
G1 X95.442 Y100.724 E16.55978
G1 X95.626 Y100.33 E16.59015
G1 X95.873 Y99.866 E16.62687
G1 X96.034 Y99.597 E16.64876
G1 X96.578 Y98.786 E16.71697
G1 X96.768 Y98.532 E16.73913
G1 X97.115 Y98.115 E16.77702
G1 X97.257 Y97.956 E16.79191
G1 X97.631 Y97.565 E16.8297
M204 S3000
M205 X10 Y10
G0 F3000 X98.036 Y97.952
M204 S1800
M205 X8 Y8
G1 F2400 X98.186 Y97.808 E16.84422
G1 X98.599 Y97.442 E16.88277
G1 X98.739 Y97.327 E16.89542
G1 X99.169 Y96.998 E16.93324
G1 X99.322 Y96.889 E16.94636
G1 X99.769 Y96.597 E16.98365
G1 X99.92 Y96.506 E16.99596
G1 X100.392 Y96.243 E17.0337
G1 X100.564 Y96.155 E17.0472
G1 X101.063 Y95.925 E17.08558
G1 X101.234 Y95.854 E17.09851
G1 X101.725 Y95.67 E17.13513
G1 X101.898 Y95.612 E17.14788
G1 X102.415 Y95.46 E17.18552
G1 X102.589 Y95.416 E17.19805
G1 X103.103 Y95.304 E17.23479
G1 X103.286 Y95.271 E17.24778
G1 X103.808 Y95.197 E17.28461
G1 X104.024 Y95.176 E17.29976
G1 X104.791 Y95.134 E17.35342
G1 X105.051 Y95.133 E17.37158
G1 X105.792 Y95.169 E17.42339
G1 X106.079 Y95.199 E17.44355
G1 X106.997 Y95.35 E17.50853
G1 X107.27 Y95.411 E17.52807
G1 X107.882 Y95.583 E17.57247
G1 X108.133 Y95.668 E17.59098
G1 X109.024 Y96.023 E17.65797
G1 X109.259 Y96.131 E17.67603
G1 X109.737 Y96.381 E17.71371
G1 X109.908 Y96.479 E17.72748
G1 X110.412 Y96.795 E17.76903
G1 X110.625 Y96.945 E17.78722
G1 X111.363 Y97.522 E17.85265
G1 X111.562 Y97.695 E17.87107
G1 X111.982 Y98.101 E17.91187
G1 X112.112 Y98.236 E17.92496
G1 X112.549 Y98.726 E17.97082
G1 X112.816 Y99.086 E18.00213
G1 X113.016 Y99.487 E18.03343
G1 X113.141 Y99.918 E18.06477
G1 X113.188 Y100.364 E18.09609
G1 X113.155 Y100.812 E18.12747
G1 X112.914 Y101.594 E18.18462
G1 X112.722 Y101.999 E18.21593
G1 X112.46 Y102.364 E18.24731
G1 X112.138 Y102.676 E18.27863
G1 X111.766 Y102.927 E18.30997
G1 X111.356 Y103.107 E18.34125
G1 X110.878 Y103.218 E18.37552
G1 X108.793 Y103.49 E18.52239
G1 X106.34 Y103.791 E18.695
G1 X105.008 Y103.961 E18.78879
G1 X103.783 Y104.108 E18.87497
G1 X101.799 Y104.361 E19.01467
G1 X101.183 Y104.441 E19.05805
G1 X98.758 Y104.739 E19.2287
G1 X98.31 Y104.754 E19.26001
G1 X97.866 Y104.689 E19.29136
G1 X97.441 Y104.547 E19.32265
G1 X97.048 Y104.331 E19.35398
G1 X96.699 Y104.049 E19.38532
G1 X96.229 Y103.471 E19.43735
G1 X95.996 Y103.088 E19.46866
G1 X95.834 Y102.669 E19.50004
G1 X95.75 Y102.229 E19.53133
G1 X95.745 Y101.78 E19.56269
G1 X95.819 Y101.338 E19.59399
G1 X96.042 Y100.754 E19.63765
G1 X96.121 Y100.593 E19.65018
G1 X96.368 Y100.129 E19.68689
G1 X96.499 Y99.909 E19.70478
G1 X97.043 Y99.098 E19.77299
G1 X97.199 Y98.89 E19.79115
G1 X97.546 Y98.473 E19.82904
G1 X97.662 Y98.343 E19.84121
G1 X98.036 Y97.952 E19.879
M204 S3000
M205 X10 Y10
G0 F3000 X98.441 Y98.339
