;FLAVOR:Marlin
;TIME:1891
;Filament used: 2.29147m
;Layer height: 0.3
;MINX:69.163
;MINY:89.214
;MINZ:0.3
;MAXX:140.92
;MAXY:121.219
;MAXZ:49.5
;Generated with Cura_SteamEngine 4.11.0
M140 S60
M105
M190 S60
M104 S200
M105
M109 S200
M82 ;absolute extrusion mode
G21 ;metric values
G90 ;absolute positioning
M82 ;set extruder to absolute mode
M107 ;start with the fan off
G28 X0 Y0 ;move X/Y to min endstops
G28 Z0 ;move Z to min endstops
G1 Z15.0 F100 ;move the platform down 15mm
G92 E0 ;zero the extruded length
G1 F200 E3 ;extrude 3mm of feed stock
G92 E0 ;zero the extruded length again
G1 F100
G0 Y20 F100
M117 Printing...
G5
G92 E0
G92 E0
G1 F2400 E-6
;LAYER_COUNT:165
;LAYER:0
M107
M204 S3000
M205 X10 Y10
G1 F600 Z0.375
G0 F3000 X73.438 Y91.034 Z0.375
M204 S1800
M205 X8 Y8
;TYPE:SKIRT
G1 F600 Z0.3
G1 F2400 E0
G1 X74.167 Y90.512 E0.06263
G1 X74.377 Y90.383 E0.07984
G1 X75.007 Y90.043 E0.12984
G1 X75.67 Y89.776 E0.17976
G1 X76.359 Y89.584 E0.22972
G1 X77.344 Y89.447 E0.29918
G1 X78.059 Y89.443 E0.34912
G1 X78.666 Y89.502 E0.39172
G1 X79.245 Y89.587 E0.43259
G1 X80.884 Y89.85 E0.54854
G1 X83.499 Y90.194 E0.73276
G1 X86.135 Y90.466 E0.91785
G1 X88.768 Y90.662 E1.10227
G1 X91.407 Y90.783 E1.28678
G1 X94.051 Y90.83 E1.47149
G1 X96.727 Y90.803 E1.6584
G1 X99.333 Y90.701 E1.84056
G1 X102.014 Y90.521 E2.02824
G1 X104.633 Y90.271 E2.212
G1 X107.27 Y89.943 E2.39761
G1 X109.88 Y89.543 E2.58203
G1 X110.368 Y89.457 E2.61664
G1 X111.348 Y89.301 E2.68595
G1 X112.049 Y89.228 E2.73518
G1 X112.342 Y89.214 E2.75567
G1 X113.138 Y89.226 E2.81127
G1 X113.873 Y89.322 E2.86305
G1 X114.481 Y89.47 E2.90675
G1 X114.79 Y89.561 E2.92925
G1 X115.464 Y89.801 E2.97922
G1 X116.047 Y90.081 E3.0244
G1 X116.325 Y90.238 E3.0467
G1 X117.272 Y90.8 E3.12361
G1 X117.9 Y91.221 E3.17642
G1 X118.919 Y91.991 E3.26563
G1 X121.091 Y93.587 E3.45389
G1 X123.276 Y95.097 E3.6394
G1 X125.493 Y96.541 E3.8242
G1 X127.741 Y97.914 E4.00818
G1 X129.247 Y98.786 E4.12973
G1 X129.673 Y99.056 E4.16496
G1 X130.382 Y99.619 E4.22819
G1 X131.269 Y100.432 E4.31223
G1 X131.724 Y100.861 E4.35591
G1 X133.719 Y102.634 E4.54233
G1 X135.744 Y104.333 E4.72696
G1 X138.188 Y106.271 E4.94482
G1 X138.722 Y106.746 E4.99474
G1 X139.33 Y107.445 E5.05944
G1 X139.51 Y107.685 E5.0804
G1 X139.907 Y108.28 E5.13036
G1 X140.342 Y109.173 E5.19974
G1 X140.423 Y109.378 E5.21513
G1 X140.703 Y110.273 E5.28063
G1 X140.75 Y110.474 E5.29505
G1 X140.874 Y111.178 E5.34498
G1 X140.918 Y111.874 E5.39369
G1 X140.92 Y112.099 E5.40941
G1 X140.872 Y112.939 E5.46817
G1 X140.837 Y113.223 E5.48816
G1 X140.71 Y113.927 E5.53812
G1 X140.505 Y114.612 E5.58807
G1 X140.288 Y115.14 E5.62794
G1 X140.044 Y115.655 E5.66774
G1 X139.674 Y116.386 E5.72497
G1 X138.994 Y117.674 E5.8267
G1 X138.62 Y118.284 E5.87667
G1 X138.181 Y118.848 E5.92659
G1 X137.681 Y119.36 E5.97658
G1 X137.127 Y119.813 E6.02656
G1 X136.527 Y120.201 E6.07647
G1 X135.886 Y120.52 E6.12648
G1 X135.214 Y120.765 E6.17644
G1 X134.519 Y120.934 E6.2264
G1 X134.116 Y120.995 E6.25486
G1 X133.537 Y121.064 E6.29559
G1 X133.129 Y121.099 E6.32419
G1 X132.035 Y121.158 E6.40072
G1 X131.281 Y121.186 E6.45342
G1 X130.575 Y121.202 E6.50274
G1 X130.246 Y121.203 E6.52572
G1 X128.452 Y121.219 E6.65103
G1 X127.885 Y121.217 E6.69063
G1 X127.339 Y121.192 E6.72881
G1 X126.577 Y121.124 E6.78224
G1 X123.922 Y120.924 E6.96821
G1 X122.342 Y120.857 E7.07867
G1 X120.674 Y120.772 E7.19532
G1 X120.477 Y120.759 E7.20911
G1 X119.424 Y120.672 E7.28291
G1 X118.726 Y120.605 E7.33189
G1 X118.183 Y120.529 E7.37018
G1 X118.021 Y120.499 E7.38169
G1 X115.322 Y120.043 E7.57288
G1 X112.725 Y119.68 E7.75603
G1 X111.414 Y119.527 E7.84822
G1 X110.529 Y119.409 E7.91058
G1 X110.125 Y119.349 E7.93911
G1 X109.411 Y119.201 E7.99004
G1 X108.181 Y118.872 E8.07897
G1 X105.644 Y118.231 E8.26174
G1 X102.977 Y117.637 E8.45258
G1 X100.46 Y117.154 E8.63159
G1 X99.938 Y117.069 E8.66853
G1 X98.59 Y116.831 E8.76414
G1 X97.894 Y116.667 E8.81409
G1 X97.183 Y116.411 E8.86687
G1 X95.616 Y115.74 E8.98593
G1 X95.412 Y115.663 E9.00116
G1 X94.249 Y115.163 E9.08958
G1 X91.746 Y114.169 E9.27769
G1 X90.509 Y113.71 E9.36984
G1 X89.223 Y113.241 E9.46545
G1 X88.718 Y113.032 E9.50363
G1 X88.556 Y112.956 E9.51612
G1 X86.12 Y111.868 E9.70247
G1 X85.686 Y111.685 E9.73537
G1 X85.113 Y111.433 E9.77909
G1 X84.315 Y111.013 E9.84207
G1 X83.597 Y110.567 E9.90111
G1 X82.518 Y109.878 E9.99053
G1 X80.215 Y108.498 E10.17805
G1 X77.925 Y107.212 E10.3615
G1 X75.574 Y105.977 E10.54698
G1 X73.52 Y104.966 E10.70689
G1 X72.895 Y104.618 E10.75685
G1 X72.08 Y104.008 E10.82795
G1 X71.671 Y103.643 E10.86624
G1 X71.315 Y103.309 E10.90034
G1 X70.822 Y102.792 E10.95023
G1 X70.389 Y102.222 E11.00023
G1 X69.898 Y101.357 E11.0697
G1 X69.772 Y101.088 E11.09045
G1 X69.506 Y100.424 E11.14041
G1 X69.315 Y99.735 E11.19035
G1 X69.202 Y99.028 E11.24036
G1 X69.169 Y98.509 E11.27668
G1 X69.163 Y98.226 E11.29645
G1 X69.188 Y97.511 E11.34642
G1 X69.293 Y96.803 E11.39642
G1 X69.475 Y96.112 E11.44633
G1 X69.734 Y95.445 E11.4963
G1 X70.066 Y94.811 E11.54629
G1 X70.466 Y94.218 E11.59625
G1 X70.839 Y93.771 E11.63691
G1 X71.602 Y92.936 E11.71592
G1 X71.831 Y92.674 E11.74022
G1 X72.692 Y91.749 E11.82849
G1 X72.913 Y91.52 E11.85071
G1 X73.438 Y91.034 E11.90068
M204 S3000
M205 X10 Y10
G0 F3000 X73.818 Y91.446
M204 S1800
M205 X8 Y8
G1 F2400 X74.46 Y90.989 E11.95573
G1 X74.67 Y90.86 E11.97294
G1 X75.272 Y90.537 E12.02066
G1 X75.908 Y90.287 E12.06839
G1 X76.569 Y90.112 E12.11615
G1 X77.379 Y90.006 E12.17321
G1 X78.062 Y90.004 E12.22091
G1 X78.586 Y90.056 E12.25769
G1 X79.156 Y90.14 E12.29793
G1 X80.792 Y90.403 E12.41367
G1 X83.438 Y90.751 E12.60007
G1 X86.071 Y91.022 E12.78495
G1 X88.738 Y91.221 E12.97175
G1 X91.407 Y91.344 E13.15836
G1 X94.047 Y91.39 E13.34279
G1 X96.72 Y91.363 E13.5295
G1 X99.393 Y91.259 E13.71634
G1 X102.032 Y91.081 E13.90108
G1 X104.72 Y90.824 E14.08968
G1 X107.314 Y90.502 E14.27225
G1 X109.991 Y90.092 E14.46141
G1 X110.456 Y90.01 E14.49439
G1 X111.436 Y89.854 E14.5637
G1 X112.075 Y89.788 E14.60857
G1 X112.368 Y89.774 E14.62906
G1 X113.095 Y89.784 E14.67984
G1 X113.121 Y89.786 E14.68167
G1 X113.798 Y89.878 E14.72939
G1 X114.323 Y90.007 E14.76715
G1 X114.632 Y90.098 E14.78964
G1 X115.275 Y90.329 E14.83737
G1 X115.778 Y90.573 E14.87641
G1 X116.039 Y90.72 E14.89734
G1 X116.986 Y91.282 E14.97425
G1 X117.562 Y91.668 E15.02268
G1 X118.574 Y92.433 E15.11129
G1 X120.76 Y94.039 E15.30075
G1 X122.971 Y95.568 E15.48851
G1 X125.19 Y97.012 E15.67343
G1 X127.468 Y98.404 E15.85989
G1 X128.966 Y99.271 E15.98078
G1 X129.357 Y99.518 E16.01308
G1 X130.004 Y100.032 E16.0708
G1 X130.885 Y100.84 E16.15429
G1 X131.347 Y101.275 E16.19862
G1 X133.363 Y103.067 E16.38701
G1 X135.377 Y104.757 E16.57065
G1 X137.84 Y106.71 E16.7902
G1 X138.349 Y107.165 E16.83788
G1 X138.882 Y107.781 E16.89478
G1 X139.062 Y108.021 E16.91573
G1 X139.439 Y108.591 E16.96347
G1 X139.821 Y109.379 E17.02463
G1 X139.902 Y109.584 E17.04003
G1 X140.158 Y110.4 E17.09976
G1 X140.205 Y110.601 E17.11418
G1 X140.321 Y111.275 E17.16195
G1 X140.358 Y111.879 E17.20421
G1 X140.36 Y112.104 E17.21993
G1 X140.316 Y112.87 E17.27352
G1 X140.281 Y113.154 E17.29351
G1 X140.158 Y113.826 E17.34122
G1 X139.957 Y114.479 E17.38894
G1 X139.626 Y115.235 E17.44659
G1 X139.544 Y115.403 E17.45964
G1 X139.179 Y116.125 E17.51615
G1 X138.501 Y117.409 E17.61757
G1 X138.142 Y117.99 E17.66527
G1 X137.718 Y118.526 E17.71301
G1 X137.235 Y119.009 E17.76072
G1 X136.698 Y119.431 E17.80842
G1 X136.116 Y119.789 E17.85614
G1 X135.495 Y120.075 E17.9039
G1 X134.846 Y120.288 E17.95161
G1 X134.05 Y120.439 E18.0082
G1 X133.471 Y120.508 E18.04892
G1 X133.098 Y120.54 E18.07507
G1 X132.014 Y120.599 E18.1509
G1 X131.268 Y120.627 E18.20304
G1 X130.562 Y120.643 E18.25236
G1 X130.244 Y120.643 E18.27457
G1 X128.454 Y120.659 E18.3996
G1 X127.887 Y120.657 E18.43921
G1 X127.389 Y120.634 E18.47403
G1 X126.67 Y120.57 E18.52445
G1 X123.957 Y120.366 E18.71447
G1 X122.371 Y120.297 E18.82535
G1 X120.703 Y120.212 E18.94201
G1 X120.523 Y120.2 E18.95461
G1 X119.478 Y120.114 E19.02785
G1 X118.78 Y120.047 E19.07682
G1 X118.284 Y119.978 E19.1118
G1 X118.065 Y119.938 E19.12735
G1 X115.458 Y119.498 E19.31201
G1 X112.782 Y119.123 E19.50075
G1 X111.355 Y118.955 E19.60111
G1 X110.611 Y118.855 E19.65354
G1 X110.207 Y118.795 E19.68207
G1 X109.556 Y118.66 E19.72851
G1 X108.326 Y118.331 E19.81744
G1 X105.758 Y117.683 E20.00242
G1 X103.108 Y117.092 E20.19206
G1 X100.546 Y116.6 E20.37428
G1 X100.036 Y116.517 E20.41037
G1 X98.688 Y116.279 E20.50598
G1 X98.023 Y116.121 E20.55372
G1 X97.404 Y115.896 E20.59972
G1 X95.774 Y115.198 E20.72357
G1 X95.633 Y115.148 E20.73402
G1 X94.457 Y114.642 E20.82344
G1 X91.932 Y113.64 E21.01318
G1 X90.73 Y113.195 E21.1027
G1 X89.415 Y112.715 E21.20048
G1 X88.835 Y112.468 E21.24451
G1 X86.33 Y111.349 E21.43614
G1 X85.911 Y111.173 E21.46788
G1 X85.338 Y110.921 E21.5116
G1 X84.61 Y110.538 E21.56906
G1 X83.898 Y110.095 E21.62763
G1 X82.789 Y109.387 E21.71953
G1 X80.526 Y108.031 E21.90379
G1 X78.167 Y106.706 E22.09277
G1 X75.848 Y105.488 E22.27573
G1 X73.764 Y104.462 E22.43797
G1 X73.168 Y104.128 E22.48569
G1 X72.45 Y103.588 E22.54844
G1 X72.054 Y103.235 E22.5855
G1 X71.698 Y102.901 E22.61959
G1 X71.228 Y102.405 E22.66732
G1 X70.819 Y101.858 E22.71502
G1 X70.405 Y101.119 E22.77419
G1 X70.279 Y100.85 E22.79494
G1 X70.026 Y100.216 E22.84261
G1 X69.849 Y99.556 E22.89034
G1 X69.75 Y98.88 E22.93806
G1 X69.723 Y98.214 E22.98462
G1 X69.749 Y97.531 E23.03236
G1 X69.854 Y96.856 E23.08007
G1 X70.037 Y96.198 E23.12777
G1 X70.296 Y95.565 E23.17554
G1 X70.627 Y94.968 E23.22322
G1 X71.025 Y94.413 E23.27092
G1 X71.252 Y94.149 E23.29524
G1 X72.13 Y93.189 E23.38611
G1 X72.241 Y93.056 E23.39821
G1 X73.102 Y92.131 E23.48647
G1 X73.316 Y91.909 E23.50801
G1 X73.818 Y91.446 E23.55571
M204 S3000
M205 X10 Y10
G0 F3000 X74.198 Y91.859
M204 S1800
M205 X8 Y8
G1 F2400 X74.753 Y91.466 E23.60321
G1 X74.963 Y91.337 E23.62042
G1 X75.537 Y91.032 E23.66582
G1 X76.143 Y90.799 E23.71117
G1 X76.774 Y90.643 E23.75657
G1 X77.414 Y90.565 E23.8016
G1 X78.063 Y90.565 E23.84693
G1 X78.992 Y90.681 E23.91233
G1 X80.699 Y90.955 E24.03308
G1 X83.381 Y91.308 E24.22202
G1 X86.041 Y91.582 E24.4088
G1 X88.704 Y91.78 E24.59531
G1 X91.372 Y91.903 E24.78186
G1 X94.043 Y91.95 E24.96845
G1 X96.748 Y91.923 E25.15739
G1 X99.415 Y91.819 E25.34381
G1 X102.088 Y91.639 E25.53093
G1 X104.738 Y91.386 E25.71687
G1 X107.434 Y91.051 E25.90662
G1 X110.057 Y90.649 E26.09197
G1 X110.544 Y90.563 E26.12651
G1 X111.524 Y90.407 E26.19582
G1 X112.102 Y90.347 E26.23641
G1 X112.395 Y90.333 E26.2569
G1 X113.052 Y90.343 E26.30279
G1 X113.078 Y90.345 E26.30461
G1 X113.721 Y90.434 E26.34995
G1 X114.474 Y90.635 E26.40439
G1 X115.084 Y90.857 E26.44973
G1 X115.587 Y91.107 E26.48896
G1 X115.754 Y91.201 E26.50235
G1 X116.701 Y91.763 E26.57926
G1 X117.225 Y92.114 E26.62331
G1 X118.283 Y92.914 E26.71596
G1 X120.451 Y94.507 E26.90387
G1 X122.641 Y96.021 E27.08982
G1 X124.87 Y97.472 E27.27559
G1 X127.209 Y98.901 E27.46704
G1 X128.686 Y99.756 E27.58624
G1 X129.041 Y99.98 E27.61556
G1 X129.626 Y100.445 E27.66776
G1 X130.501 Y101.247 E27.75066
G1 X130.988 Y101.705 E27.79735
G1 X132.989 Y103.484 E27.98436
G1 X135.01 Y105.181 E28.16869
G1 X137.492 Y107.149 E28.38993
G1 X137.975 Y107.583 E28.43528
G1 X138.434 Y108.117 E28.48447
G1 X138.614 Y108.357 E28.50542
G1 X138.971 Y108.9 E28.55081
G1 X139.301 Y109.585 E28.60392
G1 X139.382 Y109.79 E28.61931
G1 X139.612 Y110.528 E28.6733
G1 X139.659 Y110.729 E28.68772
G1 X139.768 Y111.369 E28.73307
G1 X139.798 Y111.884 E28.7691
G1 X139.8 Y112.109 E28.78482
G1 X139.76 Y112.802 E28.8333
G1 X139.725 Y113.086 E28.85329
G1 X139.606 Y113.724 E28.89862
G1 X139.41 Y114.344 E28.94403
G1 X139.118 Y114.998 E28.99406
G1 X139.045 Y115.15 E29.00584
G1 X138.684 Y115.863 E29.06166
G1 X138.008 Y117.143 E29.16276
G1 X137.665 Y117.695 E29.20815
G1 X137.258 Y118.201 E29.25351
G1 X136.791 Y118.653 E29.2989
G1 X136.272 Y119.044 E29.34429
G1 X135.709 Y119.368 E29.38966
G1 X135.111 Y119.621 E29.43501
G1 X134.486 Y119.798 E29.48038
G1 X133.984 Y119.883 E29.51595
G1 X133.405 Y119.952 E29.55667
G1 X133.068 Y119.981 E29.5803
G1 X131.992 Y120.039 E29.65556
G1 X131.256 Y120.067 E29.70701
G1 X130.55 Y120.083 E29.75633
G1 X130.24 Y120.083 E29.77798
G1 X128.456 Y120.099 E29.90259
G1 X127.889 Y120.097 E29.9422
G1 X127.438 Y120.076 E29.97373
G1 X126.685 Y120.009 E30.02653
G1 X123.992 Y119.806 E30.21516
G1 X122.399 Y119.738 E30.32653
G1 X120.731 Y119.653 E30.44318
G1 X120.569 Y119.642 E30.45453
G1 X119.531 Y119.557 E30.52727
G1 X118.833 Y119.49 E30.57625
G1 X118.203 Y119.393 E30.62077
G1 X115.525 Y118.941 E30.81046
G1 X112.834 Y118.565 E31.00024
G1 X111.432 Y118.4 E31.09884
G1 X110.789 Y118.314 E31.14415
G1 X110.289 Y118.241 E31.17945
G1 X109.701 Y118.119 E31.22139
G1 X108.471 Y117.79 E31.31032
G1 X105.873 Y117.134 E31.49748
G1 X103.238 Y116.547 E31.68604
G1 X100.632 Y116.047 E31.87137
G1 X100.133 Y115.966 E31.90668
G1 X98.785 Y115.728 E32.00229
G1 X98.153 Y115.575 E32.04771
G1 X97.624 Y115.382 E32.08704
G1 X95.952 Y114.666 E32.21408
G1 X95.855 Y114.634 E32.22122
G1 X94.69 Y114.132 E32.30982
G1 X92.117 Y113.112 E32.50314
G1 X90.922 Y112.669 E32.59216
G1 X89.607 Y112.189 E32.68993
G1 X89.037 Y111.945 E32.73324
G1 X86.538 Y110.829 E32.9244
G1 X86.136 Y110.66 E32.95486
G1 X85.563 Y110.408 E32.99858
G1 X84.906 Y110.062 E33.05044
G1 X84.199 Y109.623 E33.10857
G1 X83.084 Y108.911 E33.20097
G1 X80.81 Y107.548 E33.38615
G1 X78.45 Y106.223 E33.57519
G1 X76.074 Y104.975 E33.76264
G1 X74.009 Y103.958 E33.92342
G1 X73.443 Y103.639 E33.9688
G1 X72.82 Y103.167 E34.02339
G1 X72.437 Y102.827 E34.05916
G1 X72.081 Y102.493 E34.09326
G1 X71.636 Y102.02 E34.13862
G1 X71.252 Y101.496 E34.18399
G1 X70.913 Y100.882 E34.23298
G1 X70.787 Y100.613 E34.25373
G1 X70.548 Y100.009 E34.2991
G1 X70.385 Y99.38 E34.34448
G1 X70.289 Y98.485 E34.40735
G1 X70.283 Y98.202 E34.42713
G1 X70.309 Y97.553 E34.47249
G1 X70.415 Y96.912 E34.51787
G1 X70.599 Y96.289 E34.56324
G1 X70.858 Y95.693 E34.60863
G1 X71.187 Y95.133 E34.654
G1 X71.665 Y94.527 E34.70791
G1 X72.582 Y93.524 E34.80283
G1 X72.651 Y93.438 E34.81053
G1 X73.579 Y92.443 E34.90556
G1 X73.719 Y92.298 E34.91964
G1 X74.198 Y91.859 E34.96502
M204 S3000
M205 X10 Y10
G0 F3000 X77.818 Y96.235
M204 S1800
M205 X8 Y8
;TYPE:SUPPORT
G1 F1800 X78.394 Y96.723 E35.01775
G1 X78.82 Y97.021 E35.05406
G1 X79.18 Y97.305 E35.08609
G1 X79.558 Y97.777 E35.12833
G1 X79.95 Y98.016 E35.16039
G1 X80.086 Y98.367 E35.18669
G1 X82.002 Y99.939 E35.35979
G1 X83.282 Y101.052 E35.47826
G1 X83.657 Y101.089 E35.50458
G1 X84.16 Y101.64 E35.55669
G1 X86.021 Y102.342 E35.69562
G1 X86.215 Y102.433 E35.71059
G1 X86.359 Y102.787 E35.73728
G1 X88.401 Y104.15 E35.90876
G1 X91.837 Y106.219 E36.1889
G1 X91.416 Y106.91 E36.24542
G1 X88.653 Y105.18 E36.47311
G1 X88.103 Y105.161 E36.51155
G1 X87.812 Y105.317 E36.53461
G1 X87.395 Y104.915 E36.57507
G1 X86.033 Y103.457 E36.71442
G1 X85.53 Y103.278 E36.75171
G1 X85.281 Y103.31 E36.76925
G1 X83.755 Y102.077 E36.90628
G1 X83.233 Y102.113 E36.94282
G1 X83.067 Y101.998 E36.95693
G1 X81.809 Y101.097 E37.06501
G1 X81.25 Y101.066 E37.10411
G1 X81.186 Y101.101 E37.10921
G1 X80.743 Y100.923 E37.14255
G1 X80.286 Y100.896 E37.17453
G1 X79.905 Y100.62 E37.20739
G1 X78.809 Y99.489 E37.31739
G1 X78.217 Y99.417 E37.35905
G1 X77.951 Y99.584 E37.38098
G1 X77.769 Y99.449 E37.39681
G1 X76.458 Y98.974 E37.4942
G1 X75.916 Y98.478 E37.54552
G1 X75.828 Y98.281 E37.56059
G1 X77.52 Y98.597 E37.68081
G1 X78.019 Y98.135 E37.72831
G1 X77.818 Y96.235 E37.86176
M204 S3000
M205 X10 Y10
G0 F3000 X99.232 Y107.093
M204 S1800
M205 X8 Y8
G1 F1800 X99.512 Y106.733 E37.89361
G1 X100.417 Y106.301 E37.96366
G1 X100.438 Y106.275 E37.96599
G1 X100.658 Y106.482 E37.98709
G1 X105.28 Y107.775 E38.32231
G1 X105.819 Y107.371 E38.36936
G1 X105.841 Y106.248 E38.44781
G1 X105.864 Y106.237 E38.4496
G1 X106.177 Y105.779 E38.48834
G1 X106.208 Y105.207 E38.52835
G1 X106.222 Y105.202 E38.52939
G1 X106.576 Y104.764 E38.56873
G1 X106.634 Y104.299 E38.60146
G1 X107.008 Y103.901 E38.6396
G1 X107.261 Y102.855 E38.71477
G1 X107.407 Y102.874 E38.72505
G1 X107.911 Y102.507 E38.7686
