;FLAVOR:Marlin
;TIME:2025
;Filament used: 1.39462m
;Layer height: 0.2
;MINX:66.891
;MINY:69.761
;MINZ:0.2
;MAXX:137.608
;MAXY:138.36
;MAXZ:7
;Generated with Cura_SteamEngine 4.11.0
M140 S60
M105
M190 S60
M104 S200
M105
M109 S200
M82 ;absolute extrusion mode
G21 ;metric values
G90 ;absolute positioning
M82 ;set extruder to absolute mode
M107 ;start with the fan off
G28 X0 Y0 ;move X/Y to min endstops
G28 Z0 ;move Z to min endstops
G1 Z15.0 F100 ;move the platform down 15mm
G92 E0 ;zero the extruded length
G1 F200 E3 ;extrude 3mm of feed stock
G92 E0 ;zero the extruded length again
G1 F100
G0 Y20 F100
M117 Printing...
G5
G92 E0
G92 E0
G1 F2400 E-6
;LAYER_COUNT:35
;LAYER:0
M107
M204 S3000
M205 X10 Y10
G1 F600 Z0.275
G0 F3000 X72.015 Y89.523 Z0.275
M204 S1800
M205 X8 Y8
;TYPE:SKIRT
G1 F600 Z0.2
G1 F2400 E0
G1 X72.301 Y89.295 E0.01703
G1 X72.852 Y88.894 E0.04876
G1 X73.342 Y88.586 E0.07571
G1 X73.871 Y88.349 E0.1027
G1 X74.427 Y88.187 E0.12967
G1 X75 Y88.102 E0.15664
G1 X75.323 Y88.09 E0.17169
G1 X76.005 Y88.09 E0.20345
G1 X76.583 Y88.13 E0.23043
G1 X77.15 Y88.249 E0.25741
G1 X77.695 Y88.445 E0.28438
G1 X78.208 Y88.714 E0.31135
G1 X78.619 Y89.003 E0.33474
G1 X79.293 Y89.539 E0.37484
G1 X79.721 Y89.93 E0.40184
G1 X80.09 Y90.376 E0.42879
G1 X80.395 Y90.869 E0.45578
G1 X80.696 Y91.601 E0.49264
G1 X81.104 Y92.94 E0.55782
G1 X81.425 Y93.189 E0.57673
G1 X82.241 Y93.907 E0.62735
G1 X82.649 Y94.319 E0.65435
G1 X83.013 Y94.809 E0.68277
G1 X83.505 Y95.584 E0.72551
G1 X83.781 Y96.093 E0.75247
G1 X83.888 Y96.38 E0.76674
G1 X85.569 Y96.37 E0.84501
G1 X85.89 Y96.391 E0.85999
G1 X85.938 Y96.295 E0.86499
G1 X85.944 Y96.054 E0.87622
G1 X86.038 Y95.483 E0.90316
G1 X86.211 Y94.93 E0.93014
G1 X86.581 Y94.197 E0.96838
G1 X86.641 Y94.103 E0.97357
G1 X86.742 Y93.589 E0.99796
G1 X86.932 Y93.042 E1.02492
G1 X87.196 Y92.526 E1.05191
G1 X87.415 Y92.212 E1.06974
G1 X87.525 Y91.838 E1.08789
G1 X87.762 Y91.31 E1.11484
G1 X88.071 Y90.819 E1.14185
G1 X88.443 Y90.376 E1.16879
G1 X88.582 Y90.254 E1.1774
G1 X88.806 Y89.864 E1.19834
G1 X89.161 Y89.407 E1.22529
G1 X89.576 Y89.002 E1.25229
G1 X89.733 Y88.887 E1.26135
G1 X89.821 Y88.721 E1.2701
G1 X90.161 Y88.252 E1.29708
G1 X90.563 Y87.834 E1.32408
G1 X90.909 Y87.552 E1.34486
G1 X91.444 Y87.162 E1.37569
G1 X91.664 Y87.024 E1.38779
G1 X91.801 Y86.847 E1.39821
G1 X91.583 Y86.174 E1.43115
G1 X91.443 Y85.612 E1.45812
G1 X91.382 Y85.036 E1.48509
G1 X91.411 Y84.379 E1.51571
G1 X91.323 Y84.024 E1.53274
G1 X91.261 Y83.448 E1.55972
G1 X91.279 Y82.869 E1.58669
G1 X91.372 Y82.329 E1.61221
G1 X91.346 Y82.091 E1.62335
G1 X91.364 Y81.512 E1.65033
G1 X91.461 Y80.941 E1.6773
G1 X91.636 Y80.389 E1.70426
G1 X91.929 Y79.791 E1.73527
G1 X91.988 Y79.691 E1.74068
G1 X92.004 Y79.45 E1.75192
G1 X92.108 Y78.141 E1.81307
G1 X92.194 Y77.568 E1.84005
G1 X92.439 Y76.808 E1.87723
G1 X92.966 Y75.588 E1.93911
G1 X93.089 Y75.33 E1.95242
G1 X93.708 Y74.129 E2.01533
G1 X94.008 Y73.633 E2.04233
G1 X94.374 Y73.184 E2.0693
G1 X94.486 Y73.085 E2.07626
G1 X94.708 Y72.697 E2.09708
G1 X95.063 Y72.239 E2.12406
G1 X95.477 Y71.835 E2.15099
G1 X95.943 Y71.491 E2.17796
G1 X96.486 Y71.199 E2.20667
G1 X96.798 Y71.06 E2.22258
G1 X96.894 Y70.97 E2.2287
G1 X97.344 Y70.605 E2.25568
G1 X97.84 Y70.305 E2.28268
G1 X98.372 Y70.076 E2.30965
G1 X98.931 Y69.923 E2.33663
G1 X99.463 Y69.851 E2.36163
G1 X100.439 Y69.782 E2.40719
G1 X100.706 Y69.772 E2.41963
G1 X102.289 Y69.761 E2.49335
G1 X102.867 Y69.797 E2.52031
G1 X103.435 Y69.912 E2.5473
G1 X103.981 Y70.104 E2.57425
G1 X104.496 Y70.37 E2.60124
G1 X104.79 Y70.566 E2.61769
G1 X105.316 Y70.949 E2.64799
G1 X105.754 Y71.316 E2.6746
G1 X105.915 Y71.215 E2.68345
G1 X106.443 Y70.977 E2.71041
G1 X106.999 Y70.814 E2.73739
G1 X107.572 Y70.728 E2.76437
G1 X107.845 Y70.725 E2.77709
G1 X108.308 Y70.403 E2.80335
G1 X108.824 Y70.14 E2.83031
G1 X109.372 Y69.951 E2.85731
G1 X109.94 Y69.84 E2.88426
G1 X110.464 Y69.807 E2.9087
G1 X111.178 Y69.807 E2.94195
G1 X111.756 Y69.847 E2.96893
G1 X112.323 Y69.966 E2.99591
G1 X112.868 Y70.162 E3.02287
G1 X113.381 Y70.431 E3.04985
G1 X113.665 Y70.622 E3.06578
G1 X114.962 Y71.575 E3.14073
G1 X115.404 Y71.95 E3.16772
G1 X115.613 Y72.168 E3.18178
G1 X116.25 Y72.884 E3.22641
G1 X116.604 Y73.343 E3.2534
G1 X116.892 Y73.845 E3.28035
G1 X117.217 Y74.699 E3.32289
G1 X117.497 Y75.101 E3.34571
G1 X117.825 Y75.661 E3.37593
G1 X118.438 Y76.922 E3.44121
G1 X118.655 Y77.459 E3.46818
G1 X118.814 Y78.129 E3.50025
G1 X118.973 Y79.179 E3.5497
G1 X119.027 Y79.938 E3.58513
G1 X119.205 Y80.369 E3.60684
G1 X119.411 Y81.008 E3.6381
G1 X119.642 Y81.986 E3.6849
G1 X119.746 Y82.694 E3.71822
G1 X119.808 Y83.704 E3.76534
G1 X119.804 Y84.283 E3.7923
G1 X119.72 Y84.856 E3.81926
G1 X119.64 Y85.165 E3.83413
G1 X119.343 Y86.156 E3.8823
G1 X119.31 Y86.906 E3.91726
G1 X119.161 Y88.245 E3.97999
G1 X119.113 Y88.565 E3.99506
G1 X118.936 Y89.496 E4.03919
G1 X118.789 Y90.057 E4.06619
G1 X118.566 Y90.591 E4.09314
G1 X118.272 Y91.09 E4.12011
G1 X117.943 Y91.51 E4.14495
G1 X117.87 Y92.005 E4.16825
G1 X117.829 Y92.232 E4.17899
G1 X118.408 Y92.042 E4.20736
G1 X119.616 Y91.76 E4.26512
G1 X120.12 Y91.674 E4.28893
G1 X121.739 Y91.499 E4.36476
G1 X122.318 Y91.477 E4.39174
G1 X122.703 Y91.506 E4.40972
G1 X123.824 Y91.644 E4.46231
G1 X124.33 Y91.739 E4.48628
G1 X125.053 Y91.92 E4.52099
G1 X125.434 Y91.91 E4.53873
G1 X126.012 Y91.935 E4.56567
G1 X126.601 Y92.042 E4.59355
G1 X126.717 Y92.019 E4.59906
G1 X127.291 Y91.944 E4.62601
G1 X127.871 Y91.948 E4.65302
G1 X128.41 Y92.025 E4.67837
G1 X129.093 Y92.168 E4.71086
G1 X129.731 Y92.204 E4.74062
G1 X130.305 Y92.276 E4.76756
G1 X130.897 Y92.439 E4.79615
G1 X132.047 Y92.847 E4.85297
G1 X132.579 Y93.078 E4.87997
G1 X133.198 Y93.457 E4.91377
G1 X133.736 Y93.566 E4.93933
G1 X134.282 Y93.757 E4.96627
G1 X134.798 Y94.022 E4.99328
G1 X135.099 Y94.223 E5.01013
G1 X135.668 Y94.638 E5.04292
G1 X136.111 Y95.01 E5.06986
G1 X136.499 Y95.441 E5.09686
G1 X136.824 Y95.92 E5.12382
G1 X137.08 Y96.44 E5.15081
G1 X137.186 Y96.728 E5.1651
G1 X137.404 Y97.396 E5.19782
G1 X137.545 Y97.958 E5.2248
G1 X137.608 Y98.534 E5.25178
G1 X137.591 Y99.113 E5.27875
G1 X137.494 Y99.684 E5.30572
G1 X137.404 Y100.002 E5.32111
G1 X137.186 Y100.67 E5.35383
G1 X136.968 Y101.207 E5.38081
G1 X136.679 Y101.709 E5.40778
G1 X136.324 Y102.167 E5.43477
G1 X135.909 Y102.571 E5.46174
G1 X135.442 Y102.914 E5.48872
G1 X135.118 Y103.1 E5.50611
G1 X134.184 Y103.581 E5.55503
G1 X133.124 Y104.114 E5.61028
G1 X132.59 Y104.338 E5.63724
G1 X132.029 Y104.487 E5.66427
G1 X131.237 Y104.562 E5.70132
G1 X130.567 Y104.562 E5.73251
G1 X129.989 Y104.522 E5.75949
G1 X129.422 Y104.403 E5.78647
G1 X128.877 Y104.207 E5.81344
G1 X128.686 Y104.107 E5.82348
G1 X128.607 Y104.348 E5.83529
G1 X128.39 Y104.886 E5.8623
G1 X128.101 Y105.388 E5.88927
G1 X127.745 Y105.845 E5.91625
G1 X127.64 Y105.948 E5.92309
G1 X127.817 Y106.076 E5.93327
G1 X128.625 Y106.726 E5.98155
G1 X129.381 Y107.323 E6.02641
G1 X129.831 Y107.735 E6.05482
G1 X130.623 Y108.573 E6.10851
G1 X130.991 Y109.021 E6.1355
G1 X131.238 Y109.411 E6.157
G1 X131.521 Y109.917 E6.184
G1 X131.831 Y110.102 E6.20081
G1 X132.514 Y110.6 E6.24017
G1 X132.958 Y110.973 E6.26717
G1 X133.346 Y111.403 E6.29414
G1 X133.671 Y111.883 E6.32113
G1 X133.927 Y112.403 E6.34812
G1 X134.033 Y112.693 E6.36249
G1 X134.294 Y113.494 E6.40172
G1 X134.435 Y114.056 E6.4287
G1 X134.498 Y114.632 E6.45568
G1 X134.48 Y115.211 E6.48266
G1 X134.383 Y115.782 E6.50963
G1 X134.294 Y116.096 E6.52482
G1 X134.033 Y116.897 E6.56405
G1 X133.816 Y117.434 E6.59102
G1 X133.527 Y117.936 E6.61799
G1 X133.172 Y118.394 E6.64498
G1 X132.757 Y118.798 E6.67194
G1 X132.514 Y118.99 E6.68636
G1 X131.831 Y119.488 E6.72572
G1 X131.341 Y119.796 E6.75267
G1 X130.813 Y120.034 E6.77964
G1 X130.257 Y120.196 E6.80661
G1 X129.684 Y120.281 E6.83358
G1 X129.301 Y120.294 E6.85143
G1 X128.126 Y120.278 E6.90614
G1 X127.397 Y120.352 E6.94026
G1 X126.627 Y120.359 E6.97612
G1 X125.627 Y120.276 E7.02284
G1 X125.19 Y120.209 E7.04343
G1 X125.032 Y120.249 E7.05102
G1 X124.225 Y120.371 E7.08902
G1 X122.945 Y120.439 E7.14871
G1 X122.482 Y120.438 E7.17027
G1 X121.468 Y120.38 E7.21756
G1 X120.857 Y120.3 E7.24626
G1 X119.716 Y120.064 E7.30051
G1 X119.158 Y119.908 E7.32749
G1 X118.789 Y119.747 E7.34624
G1 X118.857 Y120.141 E7.36485
G1 X118.874 Y120.757 E7.39355
G1 X118.811 Y122.132 E7.45764
G1 X118.742 Y122.834 E7.49049
G1 X118.926 Y123.524 E7.52374
G1 X119.245 Y124.558 E7.57413
G1 X119.408 Y125.345 E7.61155
G1 X119.524 Y126.42 E7.6619
G1 X119.543 Y127.078 E7.69255
G1 X119.497 Y128.002 E7.73563
G1 X119.487 Y129.043 E7.7841
G1 X119.441 Y129.621 E7.8111
G1 X119.263 Y130.356 E7.84632
G1 X118.952 Y131.269 E7.89123
G1 X118.8 Y131.651 E7.91037
G1 X118.403 Y132.526 E7.95511
G1 X118.393 Y132.809 E7.9683
G1 X118.333 Y133.386 E7.99531
G1 X118.239 Y133.801 E8.01512
G1 X117.934 Y134.887 E8.06765
G1 X117.739 Y135.432 E8.0946
G1 X117.471 Y135.946 E8.12159
G1 X117.135 Y136.418 E8.14857
G1 X116.737 Y136.839 E8.17555
G1 X116.364 Y137.145 E8.19802
G1 X115.803 Y137.554 E8.23034
G1 X115.313 Y137.862 E8.25729
G1 X114.784 Y138.1 E8.2843
G1 X114.229 Y138.263 E8.31124
G1 X113.655 Y138.347 E8.33825
G1 X113.329 Y138.36 E8.35344
G1 X112.637 Y138.36 E8.38566
G1 X112.059 Y138.32 E8.41264
G1 X111.492 Y138.201 E8.43962
G1 X110.947 Y138.005 E8.46659
G1 X110.434 Y137.736 E8.49356
G1 X110.163 Y137.554 E8.50876
G1 X109.602 Y137.145 E8.54109
G1 X109.158 Y136.772 E8.56809
G1 X108.77 Y136.342 E8.59506
G1 X108.445 Y135.862 E8.62205
G1 X108.189 Y135.343 E8.649
G1 X108.007 Y134.793 E8.67598
G1 X107.895 Y134.149 E8.70641
G1 X107.835 Y133.518 E8.73593
G1 X107.593 Y133.027 E8.76142
G1 X107.486 Y132.734 E8.77594
G1 X107.282 Y132.107 E8.80664
G1 X107.205 Y131.799 E8.82143
G1 X106.822 Y131.477 E8.84473
G1 X106.406 Y131.074 E8.8717
G1 X106.049 Y130.618 E8.89866
G1 X105.64 Y129.856 E8.93893
G1 X105.605 Y129.77 E8.94326
G1 X103.738 Y129.77 E9.03019
G1 X103.16 Y129.73 E9.05717
G1 X102.593 Y129.611 E9.08415
G1 X102.134 Y129.446 E9.10686
G1 X102.105 Y129.973 E9.13143
G1 X102.033 Y130.39 E9.15114
G1 X101.831 Y131.279 E9.19359
G1 X101.664 Y131.833 E9.22053
G1 X101.422 Y132.36 E9.24754
G1 X101.11 Y132.848 E9.27451
G1 X100.734 Y133.289 E9.30149
G1 X100.206 Y133.744 E9.33395
G1 X99.637 Y134.158 E9.36671
G1 X99.146 Y134.466 E9.3937
G1 X98.618 Y134.703 E9.42065
G1 X98.062 Y134.865 E9.44762
G1 X97.488 Y134.95 E9.47464
G1 X97.166 Y134.962 E9.48964
G1 X96.462 Y134.962 E9.52242
G1 X95.884 Y134.922 E9.5494
G1 X95.317 Y134.803 E9.57638
G1 X94.772 Y134.607 E9.60335
G1 X94.259 Y134.338 E9.63032
G1 X93.984 Y134.153 E9.64575
G1 X93.416 Y133.738 E9.67851
G1 X92.973 Y133.365 E9.70547
G1 X92.586 Y132.934 E9.73245
G1 X92.261 Y132.455 E9.7594
G1 X92.006 Y131.935 E9.78637
G1 X91.824 Y131.384 E9.81339
G1 X91.75 Y131.033 E9.83009
G1 X91.646 Y131.069 E9.83522
G1 X91.078 Y131.182 E9.86218
G1 X90.633 Y131.214 E9.88296
G1 X89.777 Y131.231 E9.92282
G1 X89.199 Y131.203 E9.94977
G1 X88.63 Y131.095 E9.97674
G1 X88.081 Y130.91 E10.00371
G1 X87.562 Y130.651 E10.03072
G1 X87.223 Y130.428 E10.04962
G1 X86.548 Y129.937 E10.08848
G1 X86.105 Y129.565 E10.11542
G1 X85.716 Y129.135 E10.14242
G1 X85.391 Y128.656 E10.16937
G1 X85.134 Y128.137 E10.19634
G1 X85.057 Y127.907 E10.20764
G1 X84.922 Y127.823 E10.21504
G1 X84.451 Y127.486 E10.24201
G1 X84.031 Y127.086 E10.26901
G1 X83.578 Y126.493 E10.30376
G1 X83.332 Y126.104 E10.32519
G1 X83.017 Y126.093 E10.33987
G1 X82.461 Y126.032 E10.36591
G1 X81.891 Y125.929 E10.39289
G1 X81.355 Y125.805 E10.4185
G1 X80.805 Y125.625 E10.44545
G1 X80.328 Y125.393 E10.47015
G1 X80.133 Y125.6 E10.48339
G1 X79.615 Y126.009 E10.51412
G1 X79.016 Y126.409 E10.54766
G1 X78.929 Y126.83 E10.56768
G1 X78.772 Y127.387 E10.59463
G1 X78.54 Y127.918 E10.62161
G1 X78.238 Y128.412 E10.64857
G1 X77.87 Y128.859 E10.67553
G1 X77.285 Y129.374 E10.71182
G1 X76.584 Y129.883 E10.75216
G1 X76.093 Y130.19 E10.77913
G1 X75.564 Y130.427 E10.80612
G1 X75.008 Y130.588 E10.83307
G1 X74.434 Y130.672 E10.86008
G1 X74.116 Y130.684 E10.8749
G1 X73.252 Y130.684 E10.91513
G1 X72.674 Y130.644 E10.94211
G1 X72.107 Y130.525 E10.96909
G1 X71.562 Y130.329 E10.99606
G1 X71.049 Y130.06 E11.02303
G1 X70.535 Y129.687 E11.0526
G1 X69.797 Y129.061 E11.09766
G1 X69.382 Y128.657 E11.12463
G1 X68.985 Y128.136 E11.15513
G1 X68.257 Y127.008 E11.21765
G1 X67.977 Y126.5 E11.24466
G1 X67.854 Y126.206 E11.2595
G1 X67.293 Y124.712 E11.3338
G1 X67.127 Y124.157 E11.36078
G1 X67.057 Y123.755 E11.37978
G1 X66.923 Y122.679 E11.43027
G1 X66.891 Y122.101 E11.45723
G1 X66.908 Y121.779 E11.47224
G1 X66.999 Y120.779 E11.519
G1 X67.113 Y119.447 E11.58125
G1 X67.202 Y118.874 E11.60825
G1 X67.29 Y118.55 E11.62388
G1 X67.783 Y116.975 E11.70073
G1 X67.994 Y116.436 E11.72768
G1 X68.065 Y116.298 E11.73491
G1 X68.105 Y115.895 E11.75377
G1 X68.308 Y114.517 E11.81862
G1 X68.432 Y113.951 E11.8456
G1 X68.569 Y113.556 E11.86507
G1 X69.046 Y112.375 E11.92438
G1 X69.299 Y111.854 E11.95135
G1 X69.554 Y111.463 E11.97309
G1 X70.241 Y110.527 E12.02715
G1 X70.615 Y110.085 E12.05411
G1 X70.839 Y109.871 E12.06854
G1 X71.837 Y108.985 E12.13068
G1 X72.341 Y108.605 E12.16007
G1 X72.539 Y107.918 E12.19336
G1 X72.539 Y107.081 E12.23233
G1 X72.541 Y107.061 E12.23327
G1 X72.204 Y106.499 E12.26378
G1 X71.941 Y105.983 E12.29075
G1 X71.805 Y105.618 E12.30889
G1 X71.543 Y104.799 E12.34893
G1 X71.245 Y104.176 E12.38109
G1 X70.982 Y103.468 E12.41625
G1 X70.732 Y102.551 E12.46051
G1 X70.672 Y102.303 E12.47239
G1 X70.451 Y101.243 E12.52281
G1 X70.218 Y100.215 E12.5719
G1 X70.118 Y99.476 E12.60662
G1 X70.07 Y98.409 E12.65635
G1 X70.084 Y97.83 E12.68332
G1 X70.122 Y97.536 E12.69713
G1 X70.32 Y96.337 E12.75371
G1 X70.367 Y96.141 E12.7631
G1 X70.314 Y95.79 E12.77963
G1 X70.246 Y94.778 E12.82686
G1 X70.248 Y94.198 E12.85386
G1 X70.321 Y93.658 E12.87924
G1 X70.503 Y92.763 E12.92177
G1 X70.629 Y92.004 E12.95759
G1 X70.763 Y91.44 E12.98458
G1 X70.973 Y90.9 E13.01156
G1 X71.255 Y90.395 E13.0385
G1 X71.605 Y89.932 E13.06552
G1 X72.015 Y89.523 E13.09249
M204 S3000
M205 X10 Y10
G0 F3000 X72.63 Y89.748
M204 S1800
M205 X8 Y8
G1 F2400 X73.181 Y89.347 E13.12422
G1 X73.639 Y89.063 E13.14931
G1 X74.135 Y88.849 E13.17447
G1 X74.656 Y88.712 E13.19955
G1 X75.323 Y88.65 E13.23075
G1 X76.005 Y88.65 E13.2625
G1 X76.543 Y88.69 E13.28762
G1 X77.069 Y88.809 E13.31273
G1 X77.571 Y89.004 E13.33781
G1 X78.04 Y89.272 E13.36296
G1 X78.271 Y89.441 E13.37629
G1 X78.945 Y89.977 E13.41639
G1 X79.341 Y90.343 E13.4415
G1 X79.678 Y90.764 E13.46661
G1 X79.95 Y91.229 E13.49169
G1 X80.161 Y91.764 E13.51847
G1 X80.605 Y93.22 E13.58935
G1 X80.621 Y93.289 E13.59265
G1 X81.056 Y93.609 E13.6178
G1 X81.872 Y94.327 E13.66841
G1 X82.249 Y94.713 E13.69353
G1 X82.54 Y95.109 E13.71642
G1 X83.032 Y95.884 E13.75916
G1 X83.287 Y96.36 E13.78431
G1 X83.468 Y96.867 E13.80937
G1 X83.498 Y96.942 E13.81313
G1 X85.572 Y96.93 E13.90971
G1 X86.11 Y96.967 E13.93482
G1 X86.281 Y97.005 E13.94298
G1 X86.492 Y96.428 E13.97158
G1 X86.514 Y95.996 E13.99173
G1 X86.621 Y95.468 E14.01681
G1 X86.804 Y94.961 E14.04191
G1 X87.054 Y94.498 E14.06641
G1 X87.175 Y94.308 E14.0769
G1 X87.185 Y94.228 E14.08066
G1 X87.293 Y93.7 E14.10575
G1 X87.477 Y93.193 E14.13086
G1 X87.735 Y92.72 E14.15595
G1 X87.917 Y92.477 E14.17009
G1 X88.076 Y91.962 E14.19519
G1 X88.31 Y91.476 E14.2203
G1 X88.613 Y91.03 E14.24541
G1 X88.979 Y90.634 E14.27052
G1 X89.037 Y90.578 E14.27427
G1 X89.313 Y90.115 E14.29937
G1 X89.654 Y89.698 E14.32446
G1 X90.054 Y89.335 E14.34961
G1 X90.166 Y89.26 E14.35588
G1 X90.357 Y88.923 E14.37392
G1 X90.689 Y88.498 E14.39903
G1 X91.239 Y88.005 E14.43343
G1 X91.774 Y87.615 E14.46426
G1 X92.06 Y87.437 E14.47994
G1 X92.111 Y87.352 E14.48456
G1 X92.446 Y86.942 E14.50921
G1 X92.342 Y86.699 E14.52152
G1 X92.116 Y86.001 E14.55568
G1 X91.988 Y85.477 E14.5808
G1 X91.939 Y84.94 E14.60591
G1 X91.969 Y84.416 E14.63035
G1 X91.868 Y83.89 E14.65529
G1 X91.819 Y83.353 E14.6804
G1 X91.849 Y82.814 E14.70553
G1 X91.939 Y82.381 E14.72613
G1 X91.904 Y81.995 E14.74417
G1 X91.934 Y81.457 E14.76926
G1 X92.044 Y80.929 E14.79438
G1 X92.23 Y80.423 E14.81948
G1 X92.539 Y79.861 E14.84934
G1 X92.562 Y79.495 E14.86642
G1 X92.666 Y78.186 E14.92757
