;FLAVOR:Marlin
;TIME:2131
;Filament used: 3.8766m
;Layer height: 0.3
;MINX:88.078
;MINY:82.971
;MINZ:0.3
;MAXX:133.158
;MAXY:121.371
;MAXZ:37.5
;Generated with Cura_SteamEngine 4.11.0
M140 S60
M105
M190 S60
M104 S200
M105
M109 S200
M82 ;absolute extrusion mode
G21 ;metric values
G90 ;absolute positioning
M82 ;set extruder to absolute mode
M107 ;start with the fan off
G28 X0 Y0 ;move X/Y to min endstops
G28 Z0 ;move Z to min endstops
G1 Z15.0 F100 ;move the platform down 15mm
G92 E0 ;zero the extruded length
G1 F200 E3 ;extrude 3mm of feed stock
G92 E0 ;zero the extruded length again
G1 F100
G0 Y20 F100
M117 Printing...
G5
G92 E0
G92 E0
G1 F2400 E-6
;LAYER_COUNT:125
;LAYER:0
M107
M204 S3000
M205 X10 Y10
G1 F600 Z0.375
G0 F3000 X91.206 Y95.369 Z0.375
M204 S1800
M205 X8 Y8
;TYPE:SKIRT
G1 F600 Z0.3
G1 F2400 E0
G1 X91.628 Y94.973 E0.04042
G1 X92.102 Y94.638 E0.08096
G1 X92.616 Y94.372 E0.12138
G1 X93.163 Y94.18 E0.16188
G1 X93.492 Y94.113 E0.18533
G1 X94.156 Y93.48 E0.2494
G1 X94.815 Y92.968 E0.30769
G1 X95.296 Y92.645 E0.34816
G1 X95.817 Y92.392 E0.38861
G1 X96.368 Y92.212 E0.4291
G1 X96.938 Y92.11 E0.46954
G1 X97.517 Y92.087 E0.51002
G1 X97.581 Y92.093 E0.51451
G1 X97.712 Y91.849 E0.53385
G1 X98.053 Y91.38 E0.57435
G1 X98.456 Y90.964 E0.61481
G1 X99.165 Y90.424 E0.67705
G1 X99.757 Y90.071 E0.7252
G1 X99.806 Y90.047 E0.72901
G1 X100.342 Y89.829 E0.76942
G1 X100.904 Y89.686 E0.80993
G1 X101.479 Y89.623 E0.85033
G1 X102.059 Y89.639 E0.89086
G1 X102.63 Y89.734 E0.93129
G1 X103.183 Y89.907 E0.97176
G1 X103.684 Y90.145 E1.0105
G1 X103.972 Y89.707 E1.04711
G1 X104.157 Y89.453 E1.06906
G1 X104.739 Y88.715 E1.13471
G1 X104.964 Y88.453 E1.15883
G1 X105.633 Y87.735 E1.22737
G1 X105.878 Y87.492 E1.25147
G1 X106.604 Y86.831 E1.32005
G1 X106.872 Y86.608 E1.3444
G1 X107.647 Y86.012 E1.41269
G1 X107.929 Y85.812 E1.43684
G1 X108.744 Y85.286 E1.50459
G1 X109.036 Y85.114 E1.52826
G1 X109.91 Y84.645 E1.59754
G1 X110.232 Y84.49 E1.6225
G1 X111.129 Y84.103 E1.69073
G1 X111.444 Y83.981 E1.71433
G1 X112.379 Y83.664 E1.78329
G1 X113.103 Y83.471 E1.83562
G1 X113.651 Y83.334 E1.87507
G1 X113.997 Y83.263 E1.89974
G1 X114.982 Y83.103 E1.96944
G1 X115.323 Y83.062 E1.99343
G1 X116.308 Y82.984 E2.06245
G1 X116.67 Y82.971 E2.08775
G1 X117.656 Y82.978 E2.15662
G1 X118.006 Y82.995 E2.18109
G1 X118.969 Y83.08 E2.24862
G1 X119.322 Y83.126 E2.27348
G1 X120.287 Y83.292 E2.34187
G1 X120.643 Y83.369 E2.36731
G1 X121.176 Y83.509 E2.4058
G1 X121.933 Y83.72 E2.46069
G1 X122.866 Y84.048 E2.52977
G1 X123.189 Y84.176 E2.55404
G1 X124.094 Y84.581 E2.62329
G1 X124.405 Y84.737 E2.64759
G1 X125.274 Y85.216 E2.7169
G1 X125.579 Y85.401 E2.74181
G1 X126.394 Y85.945 E2.81025
G1 X126.67 Y86.146 E2.8341
G1 X127.454 Y86.767 E2.90396
G1 X127.718 Y86.994 E2.92828
G1 X128.434 Y87.665 E2.99681
G1 X128.686 Y87.923 E3.022
G1 X129.349 Y88.661 E3.0913
G1 X129.565 Y88.922 E3.11496
G1 X130.165 Y89.709 E3.18408
G1 X130.363 Y89.992 E3.20821
G1 X130.895 Y90.824 E3.27718
G1 X131.078 Y91.138 E3.30257
G1 X131.53 Y92.001 E3.37061
G1 X131.674 Y92.306 E3.39417
G1 X132.065 Y93.225 E3.46393
G1 X132.187 Y93.55 E3.48817
G1 X132.496 Y94.484 E3.55689
G1 X132.591 Y94.815 E3.58094
G1 X132.818 Y95.753 E3.64835
G1 X132.886 Y96.097 E3.67284
G1 X133.041 Y97.096 E3.74345
G1 X133.081 Y97.447 E3.76813
G1 X133.148 Y98.404 E3.83513
G1 X133.158 Y98.744 E3.85889
G1 X133.147 Y99.728 E3.92762
G1 X133.129 Y100.066 E3.95126
G1 X133.039 Y101.044 E4.01986
G1 X132.993 Y101.392 E4.04438
G1 X132.824 Y102.346 E4.11205
G1 X132.748 Y102.689 E4.13659
G1 X132.496 Y103.64 E4.20531
G1 X132.394 Y103.969 E4.22936
G1 X132.067 Y104.89 E4.29763
G1 X131.85 Y105.409 E4.33692
G1 X131.8 Y105.518 E4.34529
G1 X131.491 Y106.164 E4.39531
G1 X131.326 Y106.475 E4.4199
G1 X130.832 Y107.318 E4.48815
G1 X130.644 Y107.611 E4.51246
G1 X130.089 Y108.401 E4.5799
G1 X129.875 Y108.681 E4.60451
G1 X129.268 Y109.411 E4.67082
G1 X129.048 Y109.657 E4.69387
G1 X128.371 Y110.352 E4.76164
G1 X127.771 Y110.889 E4.81788
G1 X127.307 Y111.236 E4.85835
G1 X126.8 Y111.516 E4.8988
G1 X126.259 Y111.723 E4.93926
G1 X125.695 Y111.854 E4.97971
G1 X125.118 Y111.906 E5.02017
G1 X124.539 Y111.878 E5.06066
G1 X123.97 Y111.771 E5.1011
G1 X123.421 Y111.586 E5.14156
G1 X122.902 Y111.328 E5.18204
G1 X122.55 Y111.087 E5.21184
G1 X122.039 Y111.382 E5.25305
G1 X121.803 Y111.619 E5.27641
G1 X121.367 Y112.001 E5.3169
G1 X120.883 Y112.318 E5.35731
G1 X120.359 Y112.566 E5.3978
G1 X119.807 Y112.74 E5.43823
G1 X119.235 Y112.836 E5.47874
G1 X119.01 Y112.843 E5.49446
G1 X118.746 Y112.934 E5.51397
G1 X118.187 Y113.085 E5.55441
G1 X117.612 Y113.158 E5.59489
G1 X117.288 Y113.164 E5.61753
G1 X116.703 Y113.152 E5.6584
G1 X116.703 Y113.211 E5.66252
G1 X116.623 Y113.785 E5.703
G1 X116.465 Y114.342 E5.74344
G1 X116.232 Y114.872 E5.78387
G1 X115.928 Y115.365 E5.82433
G1 X115.559 Y115.812 E5.86481
G1 X115.132 Y116.204 E5.9053
G1 X114.655 Y116.533 E5.94577
G1 X114.337 Y116.704 E5.97099
G1 X113.803 Y116.926 E6.01138
G1 X113.681 Y116.962 E6.02027
G1 X113.617 Y117.042 E6.02742
G1 X113.196 Y117.441 E6.06794
G1 X112.725 Y117.778 E6.10839
G1 X112.212 Y118.046 E6.14882
G1 X111.905 Y118.167 E6.17186
G1 X111.376 Y118.351 E6.21098
G1 X110.891 Y118.489 E6.2462
G1 X110.119 Y118.616 E6.30085
G1 X109.494 Y118.671 E6.34467
G1 X107.905 Y118.867 E6.4565
G1 X107.516 Y119.207 E6.49258
G1 X107.334 Y119.327 E6.50781
G1 X107.156 Y119.614 E6.5314
G1 X106.787 Y120.061 E6.57188
G1 X106.36 Y120.452 E6.61232
G1 X105.883 Y120.781 E6.6528
G1 X105.366 Y121.041 E6.69322
G1 X104.817 Y121.227 E6.7337
G1 X103.982 Y121.36 E6.79276
G1 X103.465 Y121.371 E6.82888
G1 X102.107 Y121.321 E6.92379
G1 X101.514 Y121.264 E6.9654
G1 X101.364 Y121.242 E6.97599
G1 X100.763 Y121.146 E7.0185
G1 X100.198 Y121.016 E7.059
G1 X99.657 Y120.809 E7.09946
G1 X99.15 Y120.529 E7.13991
G1 X98.954 Y120.376 E7.15728
G1 X97.145 Y119.654 E7.29332
G1 X96.766 Y119.48 E7.32245
G1 X95.89 Y119.025 E7.39139
G1 X95.66 Y118.896 E7.40981
G1 X95.165 Y118.598 E7.45017
G1 X94.587 Y118.217 E7.49852
G1 X94.317 Y118.019 E7.52191
G1 X93.768 Y117.583 E7.57087
G1 X93.34 Y117.192 E7.61137
G1 X92.97 Y116.746 E7.65184
G1 X92.665 Y116.254 E7.69227
G1 X92.511 Y115.905 E7.71892
G1 X91.865 Y115.205 E7.78545
G1 X91.612 Y114.904 E7.81291
G1 X91.018 Y114.125 E7.88133
G1 X90.805 Y113.818 E7.90743
G1 X90.218 Y112.887 E7.98431
G1 X90.031 Y112.557 E8.0108
G1 X89.578 Y111.67 E8.08036
G1 X89.417 Y111.317 E8.10746
G1 X89.078 Y110.468 E8.17132
G1 X88.949 Y110.094 E8.19895
G1 X88.646 Y109.062 E8.27407
G1 X88.563 Y108.728 E8.29811
G1 X88.362 Y107.754 E8.36757
G1 X88.29 Y107.257 E8.40265
G1 X88.181 Y105.961 E8.49349
G1 X88.167 Y105.702 E8.51161
G1 X88.154 Y105.112 E8.55283
G1 X88.168 Y104.666 E8.58399
G1 X88.25 Y103.69 E8.6524
G1 X88.166 Y103.399 E8.67356
G1 X88.082 Y102.825 E8.71408
G1 X88.078 Y102.246 E8.75452
G1 X88.186 Y101.529 E8.80516
G1 X88.368 Y100.77 E8.85968
G1 X88.462 Y100.437 E8.88385
G1 X88.656 Y99.847 E8.92723
G1 X88.834 Y99.363 E8.96325
G1 X88.968 Y99.044 E8.98741
G1 X89.359 Y98.215 E9.05143
G1 X89.536 Y97.882 E9.07777
G1 X90.165 Y96.81 E9.16459
G1 X90.346 Y96.526 E9.18811
G1 X90.841 Y95.819 E9.24839
G1 X91.206 Y95.369 E9.28886
M204 S3000
M205 X10 Y10
G0 F3000 X91.641 Y95.723
M204 S1800
M205 X8 Y8
G1 F2400 X92.04 Y95.36 E9.32654
G1 X92.489 Y95.06 E9.36425
G1 X92.976 Y94.83 E9.40187
G1 X93.493 Y94.675 E9.43957
G1 X93.784 Y94.632 E9.46012
G1 X94.143 Y94.238 E9.49735
G1 X94.5 Y93.923 E9.5306
G1 X95.159 Y93.411 E9.58889
G1 X95.608 Y93.112 E9.62657
G1 X96.096 Y92.883 E9.66422
G1 X96.613 Y92.729 E9.7019
G1 X97.147 Y92.653 E9.73957
G1 X97.686 Y92.657 E9.77722
G1 X97.82 Y92.654 E9.78658
G1 X98.024 Y92.449 E9.80678
G1 X98.227 Y92.084 E9.83595
G1 X98.555 Y91.656 E9.87362
G1 X99.155 Y91.119 E9.92986
G1 X99.49 Y90.88 E9.9586
G1 X100.003 Y90.574 E10.00032
G1 X100.052 Y90.55 E10.00413
G1 X100.552 Y90.349 E10.04177
G1 X101.077 Y90.225 E10.07945
G1 X101.614 Y90.179 E10.11709
G1 X102.153 Y90.213 E10.15482
G1 X102.68 Y90.327 E10.19248
G1 X103.184 Y90.517 E10.2301
G1 X103.656 Y90.779 E10.2678
G1 X103.851 Y90.93 E10.28503
G1 X104.215 Y90.351 E10.3328
G1 X104.597 Y89.8 E10.37963
G1 X105.179 Y89.062 E10.44527
G1 X105.374 Y88.835 E10.46618
G1 X106.043 Y88.117 E10.53472
G1 X106.255 Y87.906 E10.55561
G1 X106.981 Y87.245 E10.62419
G1 X107.213 Y87.052 E10.64527
G1 X107.988 Y86.456 E10.71356
G1 X108.233 Y86.283 E10.7345
G1 X109.048 Y85.757 E10.80226
G1 X109.301 Y85.608 E10.82276
G1 X110.175 Y85.139 E10.89204
G1 X110.454 Y85.004 E10.91369
G1 X111.351 Y84.617 E10.98193
G1 X111.624 Y84.512 E11.00236
G1 X112.559 Y84.195 E11.07131
G1 X113.26 Y84.009 E11.12197
G1 X113.787 Y83.878 E11.1599
G1 X114.086 Y83.816 E11.18123
G1 X115.071 Y83.656 E11.25093
G1 X115.368 Y83.62 E11.27182
G1 X116.353 Y83.542 E11.34084
G1 X116.666 Y83.531 E11.36271
G1 X117.652 Y83.538 E11.43158
G1 X117.955 Y83.553 E11.45277
G1 X118.921 Y83.638 E11.5205
G1 X119.227 Y83.678 E11.54206
G1 X120.192 Y83.844 E11.61045
G1 X120.501 Y83.911 E11.63253
G1 X121.037 Y84.052 E11.67125
G1 X121.747 Y84.248 E11.72269
G1 X122.68 Y84.576 E11.79177
G1 X122.96 Y84.688 E11.81283
G1 X123.865 Y85.093 E11.88208
G1 X124.135 Y85.227 E11.90314
G1 X125.004 Y85.706 E11.97244
G1 X125.268 Y85.866 E11.994
G1 X126.083 Y86.41 E12.06245
G1 X126.322 Y86.585 E12.08314
G1 X127.106 Y87.206 E12.15299
G1 X127.335 Y87.403 E12.17409
G1 X128.051 Y88.074 E12.24263
G1 X128.27 Y88.297 E12.26446
G1 X128.933 Y89.035 E12.33375
G1 X129.12 Y89.261 E12.35424
G1 X129.72 Y90.048 E12.42336
G1 X129.892 Y90.294 E12.44433
G1 X130.424 Y91.126 E12.51331
G1 X130.581 Y91.398 E12.53524
G1 X131.033 Y92.261 E12.60329
G1 X131.158 Y92.525 E12.62369
G1 X131.549 Y93.444 E12.69344
G1 X131.656 Y93.726 E12.71451
G1 X131.965 Y94.66 E12.78323
G1 X132.047 Y94.947 E12.80407
G1 X132.274 Y95.885 E12.87148
G1 X132.333 Y96.183 E12.8927
G1 X132.488 Y97.182 E12.96331
G1 X132.522 Y97.486 E12.98468
G1 X132.589 Y98.443 E13.05168
G1 X132.598 Y98.738 E13.0723
G1 X132.587 Y99.722 E13.14103
G1 X132.572 Y100.015 E13.16152
G1 X132.482 Y100.993 E13.23012
G1 X132.441 Y101.294 E13.25134
G1 X132.272 Y102.248 E13.31901
G1 X132.207 Y102.545 E13.34024
G1 X131.955 Y103.496 E13.40896
G1 X131.866 Y103.782 E13.42988
G1 X131.539 Y104.703 E13.49814
G1 X131.339 Y105.182 E13.5344
G1 X130.986 Y105.923 E13.59173
G1 X130.843 Y106.192 E13.61301
G1 X130.349 Y107.035 E13.68125
G1 X130.186 Y107.288 E13.70227
G1 X129.63 Y108.08 E13.76986
G1 X129.445 Y108.323 E13.79119
G1 X128.838 Y109.053 E13.8575
G1 X128.646 Y109.266 E13.87753
G1 X127.969 Y109.961 E13.9453
G1 X127.406 Y110.465 E13.99808
G1 X126.972 Y110.786 E14.03578
G1 X126.496 Y111.039 E14.07343
G1 X125.988 Y111.219 E14.11108
G1 X125.458 Y111.322 E14.14879
G1 X124.92 Y111.345 E14.1864
G1 X124.383 Y111.289 E14.22411
G1 X123.861 Y111.154 E14.26177
G1 X123.365 Y110.944 E14.29939
G1 X122.905 Y110.662 E14.33708
G1 X122.559 Y110.386 E14.36799
G1 X122.124 Y110.705 E14.40567
G1 X121.706 Y110.924 E14.43863
G1 X121.407 Y111.224 E14.46821
G1 X120.999 Y111.577 E14.5059
G1 X120.543 Y111.866 E14.5436
G1 X120.05 Y112.084 E14.58125
G1 X119.53 Y112.227 E14.61892
G1 X118.995 Y112.292 E14.65657
G1 X118.897 Y112.289 E14.66341
G1 X118.563 Y112.405 E14.68811
G1 X118.042 Y112.543 E14.72575
G1 X117.299 Y112.604 E14.77782
G1 X116.65 Y112.591 E14.82316
G1 X116.129 Y112.552 E14.85966
G1 X116.152 Y113.005 E14.89134
G1 X116.099 Y113.542 E14.92903
G1 X115.968 Y114.065 E14.96668
G1 X115.761 Y114.563 E15.00435
G1 X115.483 Y115.025 E15.04201
G1 X115.139 Y115.441 E15.07972
G1 X114.738 Y115.801 E15.11736
G1 X114.141 Y116.176 E15.1666
G1 X114.087 Y116.203 E15.17082
G1 X113.362 Y116.473 E15.22485
G1 X113.048 Y116.823 E15.25769
G1 X112.633 Y117.167 E15.29534
G1 X112.172 Y117.446 E15.33298
G1 X111.721 Y117.638 E15.36722
G1 X111.192 Y117.822 E15.40634
G1 X110.365 Y118.019 E15.46572
G1 X109.779 Y118.086 E15.50691
G1 X109.455 Y118.112 E15.52962
G1 X107.631 Y118.337 E15.65798
G1 X107.448 Y118.534 E15.67676
G1 X107.026 Y118.87 E15.71444
G1 X106.911 Y118.959 E15.72459
G1 X106.612 Y119.407 E15.76221
G1 X106.249 Y119.807 E15.79994
G1 X105.832 Y120.148 E15.83757
G1 X105.369 Y120.424 E15.87522
G1 X104.87 Y120.628 E15.91287
G1 X104.346 Y120.757 E15.95056
G1 X103.827 Y120.808 E15.98699
G1 X103.486 Y120.812 E16.01081
G1 X102.128 Y120.762 E16.10572
G1 X101.582 Y120.708 E16.14404
G1 X101.452 Y120.689 E16.15322
G1 X100.851 Y120.593 E16.19573
G1 X100.326 Y120.469 E16.23341
G1 X99.825 Y120.269 E16.27109
G1 X99.36 Y119.997 E16.30871
G1 X99.207 Y119.874 E16.32242
G1 X97.353 Y119.134 E16.46185
G1 X97.024 Y118.983 E16.48714
G1 X96.148 Y118.528 E16.55608
G1 X95.949 Y118.416 E16.57203
G1 X95.454 Y118.118 E16.61239
G1 X94.899 Y117.752 E16.65882
G1 X94.665 Y117.58 E16.67911
G1 X94.116 Y117.144 E16.72808
G1 X93.72 Y116.779 E16.76569
G1 X93.382 Y116.358 E16.8034
G1 X93.11 Y115.893 E16.84103
G1 X92.994 Y115.602 E16.86291
G1 X92.277 Y114.825 E16.93675
G1 X92.057 Y114.564 E16.9606
G1 X91.463 Y113.785 E17.02902
G1 X91.279 Y113.519 E17.05161
G1 X90.692 Y112.588 E17.12848
G1 X90.529 Y112.303 E17.15142
G1 X90.076 Y111.416 E17.22098
G1 X89.938 Y111.11 E17.24443
G1 X89.599 Y110.261 E17.30828
G1 X89.486 Y109.936 E17.33231
G1 X89.183 Y108.904 E17.40744
G1 X89.111 Y108.615 E17.42824
G1 X88.91 Y107.641 E17.4977
G1 X88.848 Y107.21 E17.52812
G1 X88.739 Y105.914 E17.61896
G1 X88.727 Y105.689 E17.6347
G1 X88.714 Y105.099 E17.67591
G1 X88.726 Y104.713 E17.70289
G1 X88.816 Y103.644 E17.77782
G1 X88.793 Y103.585 E17.78224
G1 X88.672 Y103.06 E17.81987
G1 X88.63 Y102.522 E17.85756
G1 X88.668 Y101.984 E17.89523
G1 X88.73 Y101.659 E17.91834
G1 X88.912 Y100.9 E17.97286
G1 X88.994 Y100.612 E17.99377
G1 X89.188 Y100.022 E18.03715
G1 X89.475 Y99.283 E18.09253
G1 X89.866 Y98.454 E18.15655
G1 X90.019 Y98.165 E18.17939
G1 X90.648 Y97.093 E18.2662
G1 X90.805 Y96.847 E18.28658
G1 X91.3 Y96.14 E18.34686
G1 X91.641 Y95.723 E18.38449
M204 S3000
M205 X10 Y10
G0 F3000 X92.075 Y96.079
M204 S1800
M205 X8 Y8
G1 F2400 X92.449 Y95.753 E18.41914
G1 X92.87 Y95.491 E18.45378
G1 X93.327 Y95.3 E18.48837
G1 X93.81 Y95.184 E18.52307
G1 X94.063 Y95.166 E18.54078
G1 X94.532 Y94.641 E18.58995
G1 X94.843 Y94.365 E18.619
G1 X95.502 Y93.853 E18.67728
G1 X95.917 Y93.581 E18.71194
G1 X96.37 Y93.379 E18.74658
G1 X96.85 Y93.253 E18.78125
G1 X97.344 Y93.205 E18.81591
G1 X97.78 Y93.234 E18.84643
G1 X98.078 Y93.189 E18.86748
G1 X98.477 Y92.787 E18.90704
G1 X98.739 Y92.325 E18.94414
G1 X99.054 Y91.942 E18.97878
G1 X99.48 Y91.575 E19.01805
G1 X99.815 Y91.336 E19.04679
G1 X100.249 Y91.077 E19.0821
G1 X100.76 Y90.871 E19.12058
G1 X101.244 Y90.766 E19.15517
G1 X101.74 Y90.74 E19.18986
G1 X102.233 Y90.794 E19.2245
G1 X102.711 Y90.926 E19.25914
G1 X103.161 Y91.134 E19.29376
G1 X103.573 Y91.411 E19.32844
G1 X103.998 Y91.832 E19.37022
G1 X104.312 Y91.251 E19.41635
G1 X104.744 Y90.566 E19.47292
G1 X105.037 Y90.147 E19.50863
G1 X105.619 Y89.409 E19.57427
G1 X105.784 Y89.216 E19.59201
G1 X106.453 Y88.498 E19.66055
G1 X106.632 Y88.321 E19.67814
G1 X107.358 Y87.66 E19.74671
G1 X107.554 Y87.495 E19.76461
G1 X108.329 Y86.899 E19.8329
G1 X108.537 Y86.753 E19.85065
G1 X109.352 Y86.227 E19.9184
G1 X109.566 Y86.101 E19.93574
G1 X110.44 Y85.632 E20.00502
G1 X110.676 Y85.518 E20.02333
G1 X111.573 Y85.131 E20.09156
G1 X111.804 Y85.042 E20.10885
G1 X112.739 Y84.725 E20.17781
G1 X113.375 Y84.558 E20.22374
G1 X113.923 Y84.421 E20.26319
G1 X114.176 Y84.369 E20.28123
G1 X115.161 Y84.209 E20.35093
G1 X115.412 Y84.179 E20.36859
G1 X116.397 Y84.101 E20.4376
G1 X116.662 Y84.091 E20.45613
G1 X117.648 Y84.098 E20.525
G1 X117.904 Y84.111 E20.5429
G1 X118.418 Y84.157 E20.57894
G1 X119.132 Y84.23 E20.62907
G1 X120.097 Y84.396 E20.69747
G1 X120.358 Y84.452 E20.71611
G1 X120.898 Y84.594 E20.75511
G1 X121.562 Y84.776 E20.8032
G1 X122.495 Y85.104 E20.87227
G1 X122.731 Y85.199 E20.89004
G1 X123.636 Y85.604 E20.95929
G1 X123.865 Y85.718 E20.97716
G1 X124.734 Y86.197 E21.04647
G1 X124.957 Y86.332 E21.06468
G1 X125.772 Y86.876 E21.13312
G1 X125.974 Y87.024 E21.15061
G1 X126.758 Y87.645 E21.22046
G1 X126.952 Y87.812 E21.23834
G1 X127.668 Y88.483 E21.30688
G1 X127.853 Y88.672 E21.32535
G1 X128.516 Y89.41 E21.39465
G1 X128.674 Y89.601 E21.41196
