;FLAVOR:Marlin
;TIME:37401
;Filament used: 30.8132m
;Layer height: 0.2
;MINX:0.676
;MINY:0.669
;MINZ:0.2
;MAXX:209.327
;MAXY:209.331
;MAXZ:10
;Generated with Cura_SteamEngine 4.11.0
M140 S60
M105
M190 S60
M104 S200
M105
M109 S200
M82 ;absolute extrusion mode
G21 ;metric values
G90 ;absolute positioning
M82 ;set extruder to absolute mode
M107 ;start with the fan off
G28 X0 Y0 ;move X/Y to min endstops
G28 Z0 ;move Z to min endstops
G1 Z15.0 F100 ;move the platform down 15mm
G92 E0 ;zero the extruded length
G1 F200 E3 ;extrude 3mm of feed stock
G92 E0 ;zero the extruded length again
G1 F100
G0 Y20 F100
M117 Printing...
G5
G92 E0
G92 E0
G1 F2400 E-6
;LAYER_COUNT:50
;LAYER:0
M107
M204 S3000
M205 X10 Y10
G1 F600 Z0.275
G0 F3000 X118.915 Y40.11 Z0.275
M204 S1800
M205 X8 Y8
;TYPE:SKIRT
G1 F600 Z0.2
G1 F2400 E0
G1 X118.932 Y44.713 E0.21434
G1 X132.595 Y44.656 E0.85055
G1 X132.349 Y40.061 E1.06482
G1 X118.915 Y40.11 E1.69036
M204 S3000
M205 X10 Y10
G0 F3000 X118.353 Y39.552
M204 S1800
M205 X8 Y8
G1 F2400 X118.374 Y45.276 E1.9569
G1 X133.185 Y45.214 E2.64657
G1 X132.879 Y39.499 E2.91306
G1 X118.353 Y39.552 E3.58946
M204 S3000
M205 X10 Y10
G0 F3000 X117.791 Y38.994
M204 S1800
M205 X8 Y8
G1 F2400 X117.816 Y45.838 E3.90815
G1 X133.776 Y45.771 E4.65132
G1 X133.41 Y38.937 E4.96999
G1 X117.791 Y38.994 E5.69728
M204 S3000
M205 X10 Y10
G0 F3000 X117.228 Y38.436
M204 S1800
M205 X8 Y8
G1 F2400 X117.258 Y46.401 E6.06817
G1 X134.367 Y46.329 E6.86484
G1 X133.941 Y38.375 E7.23575
G1 X117.228 Y38.436 E8.01398
M204 S3000
M205 X10 Y10
G0 F3000 X116.666 Y37.878
M204 S1800
M205 X8 Y8
G1 F2400 X116.7 Y46.963 E8.43702
G1 X134.958 Y46.886 E9.28719
G1 X134.472 Y37.813 E9.71028
G1 X116.666 Y37.878 E10.5394
M204 S3000
M205 X10 Y10
G0 F3000 X116.104 Y37.32
M204 S1800
M205 X8 Y8
G1 F2400 X116.142 Y47.525 E11.0146
G1 X135.548 Y47.444 E11.91823
G1 X135.002 Y37.251 E12.39354
G1 X116.104 Y37.32 E13.27351
M204 S3000
M205 X10 Y10
G0 F3000 X115.542 Y36.762
M204 S1800
M205 X8 Y8
G1 F2400 X115.584 Y48.088 E13.8009
G1 X136.139 Y48.002 E14.75804
G1 X135.533 Y36.689 E15.28557
G1 X115.542 Y36.762 E16.21645
M204 S3000
M205 X10 Y10
G0 F3000 X114.981 Y36.478
M204 S1800
M205 X8 Y8
G1 F2400 X115.026 Y48.531 E16.77769
G1 X115.3 Y48.649 E16.79158
G1 X136.461 Y48.56 E17.77693
G1 X136.651 Y48.479 E17.78655
G1 X136.713 Y48.267 E17.79683
G1 X136.07 Y36.248 E18.35729
G1 X135.942 Y36.127 E18.36549
G1 X115.099 Y36.204 E19.33604
G1 X114.981 Y36.478 E19.34993
M204 S3000
M205 X10 Y10
G0 F3000 X132.409 Y32.793
M204 S1800
M205 X8 Y8
G1 F2400 X132.732 Y33.252 E19.37606
G1 X133.112 Y33.662 E19.40209
G1 X133.563 Y34.066 E19.43029
G1 X134.034 Y34.385 E19.45677
G1 X134.525 Y34.632 E19.48237
G1 X135.065 Y34.818 E19.50896
G1 X135.611 Y34.928 E19.5349
G1 X136.173 Y34.964 E19.56112
G1 X145.834 Y34.938 E20.01098
G1 X146.303 Y34.903 E20.03288
G1 X146.449 Y34.931 E20.0398
G1 X146.559 Y35.03 E20.04669
G1 X146.604 Y35.167 E20.05341
G1 X147.711 Y56.112 E21.03005
G1 X147.679 Y56.257 E21.03697
G1 X147.578 Y56.366 E21.04389
G1 X147.395 Y56.41 E21.05265
G1 X146.842 Y56.529 E21.07899
G1 X146.311 Y56.719 E21.10525
G1 X145.813 Y56.977 E21.13137
G1 X145.335 Y57.311 E21.15852
G1 X144.943 Y57.678 E21.18352
G1 X144.783 Y57.847 E21.19436
G1 X144.408 Y58.301 E21.22178
G1 X144.114 Y58.777 E21.24783
G1 X143.885 Y59.291 E21.27403
G1 X143.727 Y59.829 E21.30014
G1 X143.642 Y60.385 E21.32633
G1 X143.631 Y60.943 E21.35232
G1 X144.097 Y70.585 E21.80182
G1 X144.137 Y71.002 E21.82132
G1 X144.257 Y71.556 E21.84772
G1 X144.444 Y72.074 E21.87336
G1 X144.706 Y72.579 E21.89985
G1 X145.029 Y73.038 E21.92599
G1 X145.409 Y73.448 E21.95202
G1 X145.861 Y73.852 E21.98025
G1 X146.327 Y74.169 E22.00649
G1 X146.827 Y74.421 E22.03256
G1 X147.361 Y74.603 E22.05883
G1 X147.909 Y74.714 E22.08487
G1 X148.47 Y74.75 E22.11104
G1 X178.872 Y74.665 E23.52669
G1 X179.015 Y74.704 E23.5336
G1 X179.119 Y74.81 E23.54051
G1 X179.153 Y74.93 E23.54632
G1 X182.528 Y136.05 E26.39666
G1 X182.496 Y136.195 E26.40357
G1 X182.395 Y136.303 E26.41046
G1 X182.249 Y136.345 E26.41753
G1 X151.956 Y136.429 E27.82811
G1 X151.31 Y136.48 E27.85828
G1 X150.757 Y136.605 E27.88468
G1 X150.237 Y136.798 E27.91051
G1 X149.742 Y137.06 E27.93659
G1 X149.287 Y137.388 E27.9627
G1 X148.864 Y137.788 E27.98981
G1 X148.725 Y137.938 E27.99933
G1 X148.314 Y138.454 E28.03005
G1 X148.033 Y138.932 E28.05587
G1 X147.816 Y139.452 E28.08211
G1 X147.673 Y139.983 E28.10771
G1 X147.6 Y140.551 E28.13438
G1 X147.602 Y141.122 E28.16097
G1 X148.279 Y150.595 E28.6032
G1 X148.318 Y150.942 E28.61946
G1 X148.44 Y151.488 E28.64551
G1 X148.635 Y152.018 E28.6718
G1 X148.898 Y152.516 E28.69803
G1 X149.225 Y152.972 E28.72416
G1 X149.614 Y153.387 E28.75064
G1 X150.008 Y153.738 E28.77521
G1 X150.488 Y154.07 E28.80239
G1 X150.987 Y154.322 E28.82842
G1 X151.527 Y154.509 E28.85503
G1 X152.073 Y154.62 E28.88097
G1 X152.635 Y154.658 E28.9072
G1 X152.805 Y154.697 E28.91532
G1 X152.908 Y154.804 E28.92224
G1 X152.942 Y154.923 E28.928
G1 X154.08 Y176.398 E29.92937
G1 X154.048 Y176.543 E29.93629
G1 X153.947 Y176.651 E29.94317
G1 X153.801 Y176.693 E29.95024
G1 X144.205 Y176.719 E30.39708
G1 X143.601 Y176.764 E30.42528
G1 X143.039 Y176.887 E30.45207
G1 X142.521 Y177.074 E30.47771
G1 X142.022 Y177.335 E30.50393
G1 X141.567 Y177.655 E30.52984
G1 X141.146 Y178.046 E30.55659
G1 X141.001 Y178.2 E30.56644
G1 X140.614 Y178.672 E30.59486
G1 X140.323 Y179.147 E30.6208
G1 X140.097 Y179.657 E30.64677
G1 X139.942 Y180.195 E30.67284
G1 X139.859 Y180.752 E30.69907
G1 X139.815 Y181.078 E30.71438
G1 X139.706 Y181.179 E30.7213
G1 X139.577 Y181.211 E30.72749
G1 X78.521 Y181.384 E33.57053
G1 X78.378 Y181.345 E33.57743
G1 X78.274 Y181.239 E33.58434
G1 X78.199 Y180.663 E33.61139
G1 X78.078 Y180.108 E33.63784
G1 X77.889 Y179.585 E33.66374
G1 X77.632 Y179.09 E33.68971
G1 X77.307 Y178.629 E33.71597
G1 X76.926 Y178.218 E33.74207
G1 X76.476 Y177.815 E33.77019
G1 X76.005 Y177.496 E33.79668
G1 X75.514 Y177.249 E33.82228
G1 X74.974 Y177.063 E33.84887
G1 X74.428 Y176.953 E33.87481
G1 X73.866 Y176.917 E33.90103
G1 X64.205 Y176.943 E34.35089
G1 X63.797 Y176.973 E34.36994
G1 X63.651 Y176.945 E34.37686
G1 X63.541 Y176.846 E34.38375
G1 X63.496 Y176.709 E34.39046
G1 X62.331 Y154.727 E35.41547
G1 X62.363 Y154.582 E35.42239
G1 X62.464 Y154.474 E35.42927
G1 X62.803 Y154.416 E35.44529
G1 X63.355 Y154.291 E35.47164
G1 X63.875 Y154.098 E35.49747
G1 X64.37 Y153.836 E35.52355
G1 X64.825 Y153.508 E35.54967
G1 X65.248 Y153.108 E35.57678
G1 X65.388 Y152.957 E35.58636
G1 X65.798 Y152.442 E35.61702
G1 X66.079 Y151.964 E35.64283
G1 X66.296 Y151.444 E35.66907
G1 X66.439 Y150.913 E35.69468
G1 X66.512 Y150.345 E35.72134
G1 X66.51 Y149.769 E35.74817
G1 X65.832 Y140.288 E36.19077
G1 X65.794 Y139.953 E36.20647
G1 X65.671 Y139.405 E36.23262
G1 X65.476 Y138.876 E36.25887
G1 X65.212 Y138.377 E36.28516
G1 X64.887 Y137.923 E36.31116
G1 X64.497 Y137.507 E36.33771
G1 X64.104 Y137.157 E36.36221
G1 X63.624 Y136.825 E36.38939
G1 X63.125 Y136.573 E36.41542
G1 X62.585 Y136.386 E36.44203
G1 X62.039 Y136.275 E36.46797
G1 X61.477 Y136.237 E36.4942
G1 X32.013 Y136.237 E37.86617
G1 X31.87 Y136.198 E37.87307
G1 X31.767 Y136.091 E37.87999
G1 X31.733 Y135.972 E37.88575
G1 X28.362 Y74.941 E40.73194
G1 X28.394 Y74.796 E40.73886
G1 X28.495 Y74.688 E40.74574
G1 X28.641 Y74.646 E40.75282
G1 X58.149 Y74.564 E42.12684
G1 X58.795 Y74.513 E42.15701
G1 X59.348 Y74.388 E42.18341
G1 X59.868 Y74.195 E42.20924
G1 X60.363 Y73.933 E42.23532
G1 X60.818 Y73.605 E42.26143
G1 X61.241 Y73.205 E42.28854
G1 X61.38 Y73.055 E42.29807
G1 X61.791 Y72.539 E42.32878
G1 X62.072 Y72.061 E42.3546
G1 X62.289 Y71.541 E42.38084
G1 X62.432 Y71.01 E42.40645
G1 X62.505 Y70.442 E42.43311
G1 X62.503 Y69.866 E42.45993
G1 X61.825 Y60.386 E42.90249
G1 X61.787 Y60.051 E42.91819
G1 X61.664 Y59.503 E42.94434
G1 X61.469 Y58.974 E42.97059
G1 X61.205 Y58.475 E42.99688
G1 X60.88 Y58.021 E43.02288
G1 X60.49 Y57.605 E43.04943
G1 X60.097 Y57.255 E43.07393
G1 X59.617 Y56.923 E43.10111
G1 X59.118 Y56.671 E43.12714
G1 X58.578 Y56.484 E43.15375
G1 X58.032 Y56.373 E43.1797
G1 X57.47 Y56.335 E43.20592
G1 X57.249 Y56.296 E43.21637
G1 X57.146 Y56.189 E43.22329
G1 X57.112 Y56.07 E43.22905
G1 X56.02 Y35.483 E44.18902
G1 X56.052 Y35.338 E44.19593
G1 X56.153 Y35.23 E44.20282
G1 X56.299 Y35.188 E44.20989
G1 X65.835 Y35.162 E44.65393
G1 X66.439 Y35.117 E44.68213
G1 X67.001 Y34.994 E44.70892
G1 X67.519 Y34.807 E44.73456
G1 X68.018 Y34.546 E44.76079
G1 X68.473 Y34.226 E44.78669
G1 X68.894 Y33.835 E44.81344
G1 X69.052 Y33.667 E44.82418
G1 X69.424 Y33.214 E44.85147
G1 X69.717 Y32.734 E44.87766
G1 X69.943 Y32.224 E44.90364
G1 X70.098 Y31.686 E44.92971
G1 X70.185 Y31.11 E44.95683
G1 X70.22 Y30.982 E44.96301
G1 X70.327 Y30.879 E44.96993
G1 X70.46 Y30.845 E44.97632
G1 X131.532 Y30.674 E47.8201
G1 X131.675 Y30.713 E47.827
G1 X131.779 Y30.819 E47.83391
G1 X131.84 Y31.216 E47.85262
G1 X131.96 Y31.77 E47.87901
G1 X132.147 Y32.288 E47.90466
G1 X132.409 Y32.793 E47.93115
M204 S3000
M205 X10 Y10
G0 F3000 X132.887 Y32.499
M204 S1800
M205 X8 Y8
G1 F2400 X133.169 Y32.899 E47.95394
G1 X133.513 Y33.27 E47.97749
G1 X133.905 Y33.621 E48.002
G1 X134.316 Y33.9 E48.02513
G1 X134.747 Y34.116 E48.04758
G1 X135.21 Y34.276 E48.07039
G1 X135.685 Y34.372 E48.09295
G1 X136.192 Y34.404 E48.11661
G1 X145.804 Y34.378 E48.56418
G1 X146.261 Y34.344 E48.58552
G1 X146.519 Y34.365 E48.59757
G1 X146.758 Y34.463 E48.6096
G1 X146.956 Y34.629 E48.62163
G1 X147.094 Y34.847 E48.63365
G1 X147.163 Y35.138 E48.64757
G1 X148.27 Y56.083 E49.62422
G1 X148.244 Y56.34 E49.63625
G1 X148.14 Y56.577 E49.6483
G1 X147.97 Y56.771 E49.66031
G1 X147.749 Y56.905 E49.67235
G1 X147 Y57.067 E49.70803
G1 X146.533 Y57.234 E49.73112
G1 X146.107 Y57.455 E49.75347
G1 X145.689 Y57.747 E49.77721
G1 X145.198 Y58.223 E49.80906
G1 X144.865 Y58.627 E49.83343
G1 X144.608 Y59.042 E49.85616
G1 X144.412 Y59.483 E49.87864
G1 X144.274 Y59.953 E49.90144
G1 X144.201 Y60.426 E49.92373
G1 X144.191 Y60.946 E49.94795
G1 X144.656 Y70.553 E50.39581
G1 X144.795 Y71.397 E50.43564
G1 X144.959 Y71.851 E50.45812
G1 X145.184 Y72.285 E50.48088
G1 X145.466 Y72.685 E50.50367
G1 X145.81 Y73.056 E50.52723
G1 X146.204 Y73.408 E50.55183
G1 X146.616 Y73.688 E50.57503
G1 X147.041 Y73.902 E50.59719
G1 X147.508 Y74.061 E50.62016
G1 X147.983 Y74.158 E50.64273
G1 X148.489 Y74.19 E50.66634
G1 X178.871 Y74.105 E52.08106
G1 X179.126 Y74.144 E52.09307
G1 X179.358 Y74.259 E52.10513
G1 X179.543 Y74.439 E52.11715
G1 X179.665 Y74.667 E52.12919
G1 X179.712 Y74.899 E52.14021
G1 X183.087 Y136.019 E54.99055
G1 X183.061 Y136.276 E55.00258
G1 X182.959 Y136.513 E55.01459
G1 X182.789 Y136.708 E55.02664
G1 X182.568 Y136.842 E55.03867
G1 X182.25 Y136.905 E55.05377
G1 X151.976 Y136.989 E56.46346
G1 X151.393 Y137.035 E56.49069
G1 X150.919 Y137.142 E56.51332
G1 X150.467 Y137.31 E56.53577
G1 X150.04 Y137.536 E56.55827
G1 X149.645 Y137.821 E56.58095
G1 X149.264 Y138.18 E56.60532
G1 X149.147 Y138.307 E56.61336
G1 X148.776 Y138.773 E56.6411
G1 X148.537 Y139.18 E56.66308
G1 X148.346 Y139.635 E56.68605
G1 X148.224 Y140.091 E56.70803
G1 X148.16 Y140.583 E56.73114
G1 X148.162 Y141.095 E56.75498
G1 X148.836 Y150.532 E57.19552
G1 X148.981 Y151.337 E57.23361
G1 X149.147 Y151.788 E57.25599
G1 X149.374 Y152.22 E57.27871
G1 X149.653 Y152.609 E57.301
G1 X150.011 Y152.99 E57.32535
G1 X150.352 Y153.295 E57.34665
G1 X150.773 Y153.586 E57.37048
G1 X151.21 Y153.807 E57.39328
G1 X151.672 Y153.967 E57.41605
G1 X152.148 Y154.064 E57.43867
G1 X152.687 Y154.1 E57.46382
G1 X152.917 Y154.138 E57.47468
G1 X153.149 Y154.253 E57.48674
G1 X153.334 Y154.434 E57.49879
G1 X153.455 Y154.662 E57.51081
G1 X153.501 Y154.894 E57.52182
G1 X154.639 Y176.369 E58.52319
G1 X154.613 Y176.626 E58.53522
G1 X154.51 Y176.863 E58.54725
G1 X154.339 Y177.057 E58.55929
G1 X154.118 Y177.191 E58.57133
G1 X153.802 Y177.253 E58.58632
G1 X144.235 Y177.279 E59.0318
G1 X143.677 Y177.321 E59.05786
G1 X143.198 Y177.425 E59.08068
G1 X142.743 Y177.589 E59.1032
G1 X142.32 Y177.81 E59.12543
G1 X141.917 Y178.094 E59.14838
G1 X141.539 Y178.445 E59.1724
G1 X141.424 Y178.568 E59.18024
G1 X141.071 Y178.998 E59.20615
G1 X140.819 Y179.408 E59.22856
G1 X140.625 Y179.847 E59.25091
G1 X140.491 Y180.313 E59.27348
G1 X140.416 Y180.943 E59.30303
G1 X140.372 Y181.198 E59.31508
G1 X140.253 Y181.428 E59.32713
G1 X140.07 Y181.61 E59.33915
G1 X139.84 Y181.728 E59.35119
G1 X139.578 Y181.771 E59.36355
G1 X78.522 Y181.944 E62.20659
G1 X78.267 Y181.905 E62.2186
G1 X78.035 Y181.79 E62.23066
G1 X77.85 Y181.61 E62.24268
G1 X77.728 Y181.383 E62.25468
G1 X77.645 Y180.751 E62.28436
G1 X77.54 Y180.266 E62.30746
G1 X77.374 Y179.809 E62.3301
G1 X77.154 Y179.385 E62.35235
G1 X76.871 Y178.982 E62.37528
G1 X76.525 Y178.61 E62.39893
G1 X76.134 Y178.26 E62.42337
G1 X75.723 Y177.981 E62.4465
G1 X75.292 Y177.765 E62.46895
G1 X74.829 Y177.605 E62.49176
G1 X74.354 Y177.509 E62.51432
G1 X73.847 Y177.477 E62.53798
G1 X64.233 Y177.503 E62.98565
G1 X63.58 Y177.511 E63.01606
G1 X63.341 Y177.413 E63.02808
G1 X63.143 Y177.246 E63.04015
G1 X63.005 Y177.028 E63.05216
G1 X62.937 Y176.738 E63.06603
G1 X61.772 Y154.756 E64.09104
G1 X61.798 Y154.499 E64.10307
G1 X61.901 Y154.262 E64.1151
G1 X62.072 Y154.068 E64.12714
G1 X62.293 Y153.934 E64.13918
G1 X63.193 Y153.754 E64.18192
G1 X63.645 Y153.586 E64.20437
G1 X64.072 Y153.36 E64.22687
G1 X64.467 Y153.075 E64.24955
G1 X64.848 Y152.716 E64.27392
G1 X64.965 Y152.589 E64.28196
G1 X65.336 Y152.123 E64.3097
G1 X65.575 Y151.716 E64.33168
G1 X65.766 Y151.261 E64.35465
G1 X65.889 Y150.801 E64.37683
G1 X65.952 Y150.313 E64.39974
G1 X65.95 Y149.801 E64.42358
G1 X65.276 Y140.363 E64.86417
G1 X65.131 Y139.558 E64.90226
G1 X64.963 Y139.103 E64.92484
G1 X64.736 Y138.673 E64.94748
G1 X64.457 Y138.283 E64.96981
G1 X64.101 Y137.904 E64.99402
G1 X63.76 Y137.6 E65.0153
G1 X63.339 Y137.309 E65.03913
G1 X62.902 Y137.088 E65.06193
G1 X62.44 Y136.928 E65.0847
G1 X61.964 Y136.831 E65.10732
G1 X61.455 Y136.797 E65.13107
G1 X32.013 Y136.797 E66.50201
G1 X31.758 Y136.757 E66.51403
G1 X31.526 Y136.642 E66.52609
G1 X31.341 Y136.461 E66.53814
G1 X31.22 Y136.233 E66.55016
G1 X31.174 Y136.003 E66.56108
G1 X27.803 Y74.972 E69.40727
G1 X27.829 Y74.715 E69.4193
G1 X27.931 Y74.478 E69.43132
G1 X28.101 Y74.283 E69.44336
G1 X28.322 Y74.149 E69.4554
G1 X28.64 Y74.086 E69.47049
G1 X58.129 Y74.004 E70.84363
G1 X58.712 Y73.958 E70.87086
G1 X59.186 Y73.851 E70.89349
G1 X59.638 Y73.683 E70.91594
G1 X60.065 Y73.457 E70.93844
G1 X60.46 Y73.172 E70.96112
G1 X60.841 Y72.813 E70.98549
G1 X60.958 Y72.686 E70.99353
G1 X61.329 Y72.22 E71.02127
G1 X61.568 Y71.813 E71.04325
G1 X61.759 Y71.358 E71.06622
G1 X61.882 Y70.898 E71.0884
G1 X61.945 Y70.41 E71.11131
G1 X61.943 Y69.898 E71.13515
G1 X61.269 Y60.461 E71.57569
G1 X61.124 Y59.656 E71.61378
G1 X60.956 Y59.201 E71.63637
G1 X60.729 Y58.771 E71.65901
G1 X60.45 Y58.381 E71.68134
G1 X60.094 Y58.002 E71.70555
G1 X59.753 Y57.698 E71.72682
G1 X59.332 Y57.407 E71.75065
G1 X58.895 Y57.186 E71.77345
G1 X58.433 Y57.026 E71.79622
G1 X57.957 Y56.929 E71.81884
G1 X57.448 Y56.895 E71.8426
G1 X57.137 Y56.855 E71.8572
G1 X56.905 Y56.74 E71.86925
G1 X56.72 Y56.559 E71.8813
G1 X56.599 Y56.331 E71.89332
G1 X56.553 Y56.099 E71.90434
G1 X55.461 Y35.512 E72.8643
G1 X55.487 Y35.255 E72.87633
G1 X55.59 Y35.018 E72.88836
G1 X55.761 Y34.824 E72.9004
G1 X55.982 Y34.69 E72.91244
G1 X56.298 Y34.628 E72.92743
G1 X65.805 Y34.602 E73.37012
G1 X66.363 Y34.56 E73.39618
G1 X66.842 Y34.456 E73.419
G1 X67.297 Y34.292 E73.44152
G1 X67.72 Y34.071 E73.46375
G1 X68.123 Y33.787 E73.4867
G1 X68.501 Y33.436 E73.51072
G1 X68.624 Y33.305 E73.51909
G1 X68.965 Y32.89 E73.5441
G1 X69.222 Y32.471 E73.56699
G1 X69.415 Y32.034 E73.58923
G1 X69.55 Y31.565 E73.61196
G1 X69.63 Y31.027 E73.63728
G1 X69.776 Y30.638 E73.65663
G1 X69.957 Y30.453 E73.66868
G1 X70.185 Y30.332 E73.6807
G1 X70.459 Y30.285 E73.69365
G1 X131.531 Y30.114 E76.53743
G1 X131.786 Y30.153 E76.54944
G1 X132.018 Y30.268 E76.5615
G1 X132.203 Y30.448 E76.57352
G1 X132.325 Y30.676 E76.58556
G1 X132.498 Y31.611 E76.62983
G1 X132.662 Y32.065 E76.65231
G1 X132.887 Y32.499 E76.67507
M204 S3000
M205 X10 Y10
