;FLAVOR:Marlin
;TIME:109
;Filament used: 0.112658m
;Layer height: 0.2
;MINX:92.817
;MINY:78.561
;MINZ:0.2
;MAXX:127.728
;MAXY:112.732
;MAXZ:1.6
;Generated with Cura_SteamEngine 4.11.0
M140 S60
M105
M190 S60
M104 S200
M105
M109 S200
M82 ;absolute extrusion mode
G21 ;metric values
G90 ;absolute positioning
M82 ;set extruder to absolute mode
M107 ;start with the fan off
G28 X0 Y0 ;move X/Y to min endstops
G28 Z0 ;move Z to min endstops
G1 Z15.0 F100 ;move the platform down 15mm
G92 E0 ;zero the extruded length
G1 F200 E3 ;extrude 3mm of feed stock
G92 E0 ;zero the extruded length again
G1 F100
G0 Y20 F100
M117 Printing...
G5
G92 E0
G92 E0
G1 F2400 E-6
;LAYER_COUNT:9
;LAYER:0
M107
M204 S3000
M205 X10 Y10
G1 F600 Z0.275
G0 F3000 X100.726 Y81.326 Z0.275
M204 S1800
M205 X8 Y8
;TYPE:SKIRT
G1 F600 Z0.2
G1 F2400 E0
G1 X101.136 Y80.916 E0.027
G1 X101.912 Y80.35 E0.07172
G1 X102.406 Y80.042 E0.09883
G1 X102.612 Y79.924 E0.10989
G1 X103.182 Y79.619 E0.13999
G1 X103.487 Y79.471 E0.15577
G1 X104.068 Y79.218 E0.18528
G1 X104.468 Y79.068 E0.20517
G1 X105.032 Y78.888 E0.23274
G1 X105.812 Y78.694 E0.27017
G1 X106.417 Y78.601 E0.29867
G1 X107.112 Y78.561 E0.33108
G1 X107.843 Y78.565 E0.36512
G1 X108.651 Y78.648 E0.40295
G1 X109.389 Y78.797 E0.438
G1 X110.051 Y78.988 E0.47009
G1 X110.753 Y79.255 E0.50506
G1 X111.176 Y79.444 E0.52663
G1 X111.648 Y79.686 E0.55133
G1 X112.316 Y80.076 E0.58735
G1 X112.457 Y80.164 E0.59509
G1 X112.963 Y80.496 E0.62327
G1 X113.071 Y80.569 E0.62934
G1 X113.546 Y80.903 E0.65638
G1 X114.132 Y81.32 E0.68987
G1 X114.262 Y81.43 E0.6978
G1 X114.922 Y81.884 E0.7351
G1 X115.406 Y82.198 E0.76196
G1 X115.85 Y82.469 E0.78618
G1 X116.365 Y82.763 E0.8138
G1 X116.855 Y83.029 E0.83976
G1 X119.425 Y84.351 E0.97433
G1 X119.996 Y84.691 E1.00528
G1 X120.598 Y85.07 E1.0384
G1 X120.633 Y85.066 E1.04004
G1 X121.213 Y85.075 E1.06705
G1 X121.53 Y85.114 E1.08193
G1 X122.929 Y85.34 E1.14791
G1 X123.493 Y85.471 E1.17487
G1 X124.034 Y85.679 E1.20186
G1 X124.541 Y85.96 E1.22885
G1 X125.004 Y86.307 E1.2558
G1 X125.415 Y86.715 E1.28276
G1 X125.761 Y87.161 E1.30905
G1 X126.066 Y87.653 E1.336
G1 X126.302 Y88.182 E1.36297
G1 X126.462 Y88.739 E1.38996
G1 X126.544 Y89.312 E1.41691
G1 X126.546 Y89.892 E1.44392
G1 X126.5 Y90.297 E1.4629
G1 X126.271 Y91.697 E1.52896
G1 X126.138 Y92.261 E1.55594
G1 X126.018 Y92.571 E1.57142
G1 X126.177 Y93.108 E1.5975
G1 X126.289 Y93.591 E1.62058
G1 X126.514 Y94.907 E1.68275
G1 X126.549 Y95.105 E1.69211
G1 X126.664 Y95.841 E1.7268
G1 X126.792 Y96.723 E1.7683
G1 X126.836 Y97.275 E1.79408
G1 X127.07 Y98.554 E1.85463
G1 X127.242 Y99.623 E1.90505
G1 X127.342 Y99.957 E1.92128
G1 X127.458 Y100.569 E1.95029
G1 X127.567 Y101.234 E1.98166
G1 X127.687 Y102.22 E2.02791
G1 X127.718 Y102.68 E2.04938
G1 X127.728 Y103.579 E2.09125
G1 X127.67 Y104.473 E2.13296
G1 X127.54 Y105.322 E2.17296
G1 X127.481 Y105.603 E2.18633
G1 X127.343 Y106.165 E2.21327
G1 X127.244 Y106.503 E2.22967
G1 X127.081 Y106.987 E2.25345
G1 X126.993 Y107.253 E2.2665
G1 X126.783 Y107.769 E2.29244
G1 X126.692 Y107.976 E2.30297
G1 X126.431 Y108.53 E2.33149
G1 X126.327 Y108.737 E2.34227
G1 X126.013 Y109.318 E2.37302
G1 X125.903 Y109.508 E2.38325
G1 X125.54 Y110.103 E2.4157
G1 X125.453 Y110.241 E2.4233
G1 X125.043 Y110.858 E2.45779
G1 X124.69 Y111.317 E2.48476
G1 X124.277 Y111.723 E2.51172
G1 X123.812 Y112.069 E2.53871
G1 X123.304 Y112.347 E2.56568
G1 X122.762 Y112.553 E2.59268
G1 X122.198 Y112.682 E2.61962
G1 X121.621 Y112.732 E2.64658
G1 X121.042 Y112.703 E2.67358
G1 X120.473 Y112.594 E2.70056
G1 X119.924 Y112.408 E2.72755
G1 X119.407 Y112.148 E2.75449
G1 X118.842 Y111.967 E2.78212
G1 X110.877 Y112.228 E3.1532
G1 X110.298 Y112.207 E3.18018
G1 X109.728 Y112.106 E3.20714
G1 X109.177 Y111.928 E3.2341
G1 X108.655 Y111.676 E3.26109
G1 X108.173 Y111.354 E3.28808
G1 X107.74 Y110.97 E3.31503
G1 X107.364 Y110.529 E3.34201
G1 X107.053 Y110.041 E3.36896
G1 X106.811 Y109.514 E3.39596
G1 X106.644 Y108.959 E3.42295
G1 X106.555 Y108.387 E3.44991
G1 X106.546 Y107.808 E3.47687
G1 X106.574 Y107.292 E3.50093
G1 X106.649 Y106.718 E3.52789
G1 X106.683 Y106.592 E3.53396
G1 X105.653 Y107.335 E3.5931
G1 X105.161 Y107.641 E3.62008
G1 X104.631 Y107.875 E3.64706
G1 X104.075 Y108.035 E3.674
G1 X103.501 Y108.117 E3.701
G1 X102.922 Y108.119 E3.72796
G1 X102.348 Y108.041 E3.75493
G1 X101.79 Y107.885 E3.78191
G1 X101.732 Y107.86 E3.78485
G1 X101.619 Y108.188 E3.80101
G1 X101.393 Y108.722 E3.82801
G1 X100.956 Y109.41 E3.86596
G1 X100.899 Y109.483 E3.87027
G1 X100.512 Y109.914 E3.89724
G1 X99.894 Y110.409 E3.93411
G1 X99.632 Y110.581 E3.94871
G1 X99.127 Y110.865 E3.97569
G1 X98.588 Y111.076 E4.00264
G1 X98.024 Y111.212 E4.02965
G1 X97.448 Y111.268 E4.0566
G1 X96.869 Y111.245 E4.08358
G1 X96.299 Y111.142 E4.11055
G1 X95.748 Y110.962 E4.13755
G1 X95.228 Y110.708 E4.16449
G1 X94.754 Y110.389 E4.1911
G1 X94.438 Y110.144 E4.20972
G1 X94.005 Y109.759 E4.2367
G1 X93.63 Y109.317 E4.26369
G1 X93.319 Y108.828 E4.29067
G1 X93.079 Y108.301 E4.31764
G1 X92.913 Y107.746 E4.34461
G1 X92.825 Y107.173 E4.3716
G1 X92.817 Y106.594 E4.39857
G1 X92.889 Y106.019 E4.42555
G1 X93.033 Y105.479 E4.45157
G1 X94.124 Y102.255 E4.61006
G1 X94.347 Y101.72 E4.63705
G1 X94.641 Y101.221 E4.66402
G1 X95.082 Y100.682 E4.69645
G1 X95.168 Y100.593 E4.70221
G1 X95.598 Y100.206 E4.72915
G1 X96.078 Y99.881 E4.75614
G1 X96.7 Y99.584 E4.78823
G1 X96.993 Y99.473 E4.80282
G1 X97.548 Y99.306 E4.82981
G1 X98.12 Y99.217 E4.85677
G1 X98.699 Y99.207 E4.88373
G1 X99.274 Y99.277 E4.9107
G1 X99.834 Y99.425 E4.93767
G1 X100.369 Y99.649 E4.96468
G1 X100.506 Y99.73 E4.97209
G1 X100.701 Y99.561 E4.98411
G1 X103.093 Y97.836 E5.12143
G1 X103.382 Y97.636 E5.1378
G1 X108.65 Y93.844 E5.44004
G1 X111.622 Y91.699 E5.61071
G1 X111.129 Y91.377 E5.63812
G1 X110.872 Y91.197 E5.65273
G1 X108.17 Y89.453 E5.80248
G1 X108.07 Y89.4 E5.80775
G1 X107.003 Y92.506 E5.96068
G1 X106.778 Y93.039 E5.98762
G1 X106.481 Y93.537 E6.01462
G1 X106.118 Y93.989 E6.04161
G1 X105.697 Y94.386 E6.06855
G1 X105.225 Y94.722 E6.09553
G1 X104.711 Y94.99 E6.12253
G1 X104.166 Y95.185 E6.14948
G1 X103.599 Y95.302 E6.17644
G1 X103.021 Y95.341 E6.20341
G1 X102.443 Y95.3 E6.23039
G1 X102.077 Y95.296 E6.24744
G1 X101.503 Y95.22 E6.2744
G1 X100.945 Y95.066 E6.30135
G1 X100.413 Y94.837 E6.32832
G1 X99.917 Y94.536 E6.35534
G1 X99.468 Y94.171 E6.38228
G1 X99.073 Y93.746 E6.4093
G1 X98.741 Y93.272 E6.43625
G1 X98.477 Y92.757 E6.46319
G1 X98.286 Y92.21 E6.49017
G1 X98.173 Y91.641 E6.51718
G1 X98.138 Y91.063 E6.54415
G1 X98.184 Y90.486 E6.5711
G1 X98.36 Y89.757 E6.60602
G1 X99.878 Y85.276 E6.82632
G1 X99.827 Y85.123 E6.83383
G1 X99.723 Y84.553 E6.86081
G1 X99.697 Y83.974 E6.8878
G1 X99.752 Y83.398 E6.91474
G1 X99.885 Y82.834 E6.94173
G1 X100.095 Y82.294 E6.96871
G1 X100.377 Y81.788 E6.99568
G1 X100.726 Y81.326 E7.02264
M204 S3000
M205 X10 Y10
G0 F3000 X101.162 Y81.678
M204 S1800
M205 X8 Y8
G1 F2400 X101.547 Y81.301 E7.04773
G1 X102.228 Y80.812 E7.08677
G1 X102.698 Y80.52 E7.11253
G1 X102.877 Y80.418 E7.12213
G1 X103.447 Y80.113 E7.15223
G1 X103.711 Y79.985 E7.16589
G1 X104.292 Y79.732 E7.1954
G1 X104.638 Y79.601 E7.21263
G1 X105.202 Y79.421 E7.24019
G1 X105.937 Y79.24 E7.27544
G1 X106.461 Y79.159 E7.30013
G1 X107.109 Y79.121 E7.33036
G1 X107.84 Y79.125 E7.36439
G1 X108.54 Y79.197 E7.39716
G1 X109.278 Y79.346 E7.43222
G1 X109.852 Y79.512 E7.46004
G1 X110.554 Y79.779 E7.49501
G1 X110.921 Y79.942 E7.51371
G1 X111.393 Y80.184 E7.53841
G1 X112.028 Y80.556 E7.57268
G1 X112.15 Y80.633 E7.5794
G1 X112.749 Y81.028 E7.61281
G1 X113.221 Y81.359 E7.63965
G1 X113.807 Y81.776 E7.67314
G1 X113.934 Y81.883 E7.68088
G1 X114.61 Y82.348 E7.71908
G1 X115.102 Y82.668 E7.74641
G1 X115.583 Y82.961 E7.77264
G1 X116.089 Y83.25 E7.79977
G1 X116.619 Y83.538 E7.82786
G1 X119.168 Y84.849 E7.96133
G1 X119.7 Y85.166 E7.99016
G1 X120.469 Y85.651 E8.0325
G1 X120.775 Y85.621 E8.04682
G1 X121.44 Y85.667 E8.07785
G1 X122.839 Y85.893 E8.14384
G1 X123.364 Y86.018 E8.16897
G1 X123.864 Y86.219 E8.19406
G1 X124.329 Y86.492 E8.21917
G1 X124.749 Y86.831 E8.24431
G1 X125.21 Y87.356 E8.27684
G1 X125.306 Y87.489 E8.28448
G1 X125.589 Y87.948 E8.30959
G1 X125.8 Y88.444 E8.33468
G1 X125.936 Y88.966 E8.3598
G1 X125.993 Y89.502 E8.3849
G1 X125.947 Y90.207 E8.4178
G1 X125.718 Y91.607 E8.48385
G1 X125.592 Y92.131 E8.50895
G1 X125.426 Y92.542 E8.52959
G1 X125.64 Y93.266 E8.56474
G1 X125.737 Y93.685 E8.58477
G1 X125.965 Y95.02 E8.64783
G1 X125.996 Y95.191 E8.65593
G1 X126.11 Y95.921 E8.69033
G1 X126.238 Y96.803 E8.73183
G1 X126.278 Y97.34 E8.7569
G1 X126.517 Y98.643 E8.81859
G1 X126.691 Y99.724 E8.86957
G1 X126.792 Y100.061 E8.88595
G1 X126.906 Y100.664 E8.91453
G1 X127.011 Y101.301 E8.94459
G1 X127.131 Y102.287 E8.99084
G1 X127.158 Y102.687 E9.00951
G1 X127.168 Y103.586 E9.05137
G1 X127.112 Y104.424 E9.09048
G1 X126.988 Y105.226 E9.12827
G1 X126.937 Y105.469 E9.13983
G1 X126.799 Y106.031 E9.16678
G1 X126.714 Y106.325 E9.18103
G1 X126.551 Y106.809 E9.20481
G1 X126.474 Y107.042 E9.21624
G1 X126.264 Y107.558 E9.24218
G1 X126.186 Y107.737 E9.25127
G1 X125.925 Y108.291 E9.27979
G1 X125.834 Y108.471 E9.28918
G1 X125.52 Y109.052 E9.31993
G1 X125.425 Y109.217 E9.3288
G1 X125.062 Y109.812 E9.36125
G1 X124.987 Y109.931 E9.3678
G1 X124.577 Y110.548 E9.40229
G1 X124.246 Y110.973 E9.42738
G1 X123.856 Y111.346 E9.45251
G1 X123.415 Y111.656 E9.47761
G1 X122.933 Y111.898 E9.50272
G1 X122.42 Y112.066 E9.52786
G1 X121.889 Y112.157 E9.55294
G1 X121.35 Y112.168 E9.57805
G1 X120.815 Y112.099 E9.60316
G1 X120.296 Y111.952 E9.62828
G1 X119.805 Y111.73 E9.65337
G1 X119.628 Y111.616 E9.66318
G1 X118.939 Y111.404 E9.69674
G1 X110.859 Y111.668 E10.07318
G1 X110.32 Y111.646 E10.0983
G1 X109.791 Y111.544 E10.12339
G1 X109.282 Y111.365 E10.14851
G1 X108.805 Y111.113 E10.17363
G1 X108.371 Y110.794 E10.19871
G1 X107.989 Y110.413 E10.22384
G1 X107.667 Y109.981 E10.24892
G1 X107.412 Y109.505 E10.27407
G1 X107.231 Y108.997 E10.29918
G1 X107.126 Y108.468 E10.32429
G1 X107.101 Y107.93 E10.34937
G1 X107.128 Y107.41 E10.37362
G1 X107.133 Y107.326 E10.37754
G1 X107.205 Y106.791 E10.40267
G1 X107.355 Y106.273 E10.42778
G1 X107.58 Y105.783 E10.45289
G1 X107.875 Y105.332 E10.47799
G1 X108.233 Y104.929 E10.50309
G1 X108.647 Y104.583 E10.52821
G1 X109.108 Y104.302 E10.55335
G1 X109.604 Y104.093 E10.57841
G1 X110.127 Y103.959 E10.60355
G1 X110.648 Y103.904 E10.62795
G1 X118.293 Y103.654 E10.98412
G1 X118.347 Y101.425 E11.08794
G1 X117.413 Y98.178 E11.24527
G1 X113.027 Y101.336 E11.49693
G1 X107.423 Y105.377 E11.81864
G1 X107.096 Y105.605 E11.8372
G1 X105.326 Y106.881 E11.93881
G1 X104.866 Y107.163 E11.96393
G1 X104.37 Y107.374 E11.98903
G1 X103.848 Y107.509 E12.01413
G1 X103.312 Y107.566 E12.03923
G1 X102.773 Y107.543 E12.06435
G1 X102.243 Y107.441 E12.08949
G1 X101.735 Y107.261 E12.11458
G1 X101.405 Y107.086 E12.13198
G1 X101.089 Y108.006 E12.17727
G1 X100.877 Y108.502 E12.20239
G1 X100.515 Y109.065 E12.23356
G1 X100.458 Y109.138 E12.23787
G1 X100.096 Y109.537 E12.26295
G1 X99.587 Y109.941 E12.29321
G1 X99.325 Y110.113 E12.30781
G1 X98.853 Y110.375 E12.33294
G1 X98.348 Y110.564 E12.35805
G1 X97.821 Y110.676 E12.38314
G1 X97.283 Y110.71 E12.40824
G1 X96.745 Y110.663 E12.43339
G1 X96.221 Y110.538 E12.45847
G1 X95.721 Y110.336 E12.48358
G1 X95.097 Y109.947 E12.51782
G1 X94.781 Y109.702 E12.53644
G1 X94.38 Y109.341 E12.56157
G1 X94.037 Y108.924 E12.58671
G1 X93.76 Y108.462 E12.61179
G1 X93.554 Y107.964 E12.63688
G1 X93.423 Y107.44 E12.66204
G1 X93.372 Y106.904 E12.68711
G1 X93.4 Y106.365 E12.71224
G1 X93.563 Y105.658 E12.74602
G1 X94.654 Y102.434 E12.90451
G1 X94.864 Y101.938 E12.92959
G1 X95.146 Y101.478 E12.95471
G1 X95.484 Y101.072 E12.97931
G1 X95.57 Y100.983 E12.98508
G1 X95.973 Y100.624 E13.01021
G1 X96.424 Y100.328 E13.03533
G1 X96.898 Y100.108 E13.05966
G1 X97.191 Y99.997 E13.07425
G1 X97.709 Y99.844 E13.0994
G1 X98.243 Y99.769 E13.12451
G1 X98.782 Y99.773 E13.14961
G1 X99.314 Y99.858 E13.17469
G1 X99.829 Y100.02 E13.19983
G1 X100.314 Y100.256 E13.22495
G1 X100.564 Y100.428 E13.23908
G1 X101.029 Y100.015 E13.26804
G1 X103.412 Y98.297 E13.40483
G1 X103.693 Y98.103 E13.42073
G1 X108.977 Y94.299 E13.7239
G1 X112.614 Y91.674 E13.93276
G1 X111.563 Y90.994 E13.99105
G1 X111.186 Y90.733 E14.0124
G1 X108.458 Y88.973 E14.16357
G1 X107.754 Y88.595 E14.20078
G1 X106.473 Y92.324 E14.38437
G1 X106.261 Y92.819 E14.40945
G1 X105.978 Y93.278 E14.43456
G1 X105.629 Y93.69 E14.4597
G1 X105.224 Y94.046 E14.48481
G1 X104.771 Y94.338 E14.5099
G1 X104.28 Y94.56 E14.53499
G1 X103.761 Y94.707 E14.56011
G1 X103.226 Y94.776 E14.58523
G1 X102.687 Y94.765 E14.61033
G1 X102.428 Y94.743 E14.62244
G1 X101.889 Y94.716 E14.64757
G1 X101.361 Y94.61 E14.67264
G1 X100.853 Y94.427 E14.69779
G1 X100.379 Y94.172 E14.72285
G1 X99.947 Y93.849 E14.74797
G1 X99.568 Y93.465 E14.77309
G1 X99.249 Y93.03 E14.79821
G1 X98.999 Y92.553 E14.82328
G1 X98.821 Y92.043 E14.84844
G1 X98.721 Y91.513 E14.87355
G1 X98.7 Y90.975 E14.89862
G1 X98.759 Y90.439 E14.92373
G1 X98.89 Y89.936 E14.94793
G1 X100.465 Y85.284 E15.17663
G1 X100.437 Y85.216 E15.18005
G1 X100.308 Y84.692 E15.20518
G1 X100.257 Y84.156 E15.23025
G1 X100.286 Y83.617 E15.25539
G1 X100.394 Y83.089 E15.28048
G1 X100.579 Y82.582 E15.30561
G1 X100.837 Y82.109 E15.3307
G1 X101.162 Y81.678 E15.35584
M204 S3000
M205 X10 Y10
G0 F3000 X101.623 Y82.003
M204 S1800
M205 X8 Y8
G1 F2400 X102.159 Y81.538 E15.38888
G1 X102.677 Y81.189 E15.41796
G1 X103.141 Y80.911 E15.44315
G1 X103.711 Y80.606 E15.47325
G1 X103.934 Y80.498 E15.48479
G1 X104.515 Y80.245 E15.5143
G1 X104.809 Y80.135 E15.52891
G1 X105.373 Y79.955 E15.55648
G1 X106.062 Y79.786 E15.58951
G1 X106.844 Y79.691 E15.62619
G1 X107.106 Y79.681 E15.6384
G1 X107.837 Y79.685 E15.67244
G1 X108.43 Y79.746 E15.7002
G1 X109.168 Y79.895 E15.73526
G1 X109.653 Y80.035 E15.75876
G1 X110.355 Y80.302 E15.79374
G1 X110.665 Y80.44 E15.80954
G1 X111.137 Y80.682 E15.83423
G1 X111.739 Y81.036 E15.86675
G1 X111.843 Y81.101 E15.87246
G1 X112.428 Y81.486 E15.90507
G1 X112.897 Y81.816 E15.93178
G1 X113.483 Y82.233 E15.96527
G1 X113.605 Y82.336 E15.9727
G1 X114.323 Y82.83 E16.01328
G1 X114.799 Y83.139 E16.03971
G1 X115.277 Y83.431 E16.06579
G1 X115.832 Y83.748 E16.09555
G1 X116.365 Y84.036 E16.12376
G1 X118.912 Y85.347 E16.25715
G1 X119.404 Y85.641 E16.28384
G1 X120.186 Y86.134 E16.32688
G1 X120.331 Y86.232 E16.33503
G1 X120.908 Y86.18 E16.36201
G1 X121.351 Y86.219 E16.38272
G1 X122.75 Y86.445 E16.44871
G1 X123.232 Y86.564 E16.47182
G1 X123.688 Y86.758 E16.4949
G1 X124.108 Y87.023 E16.51802
G1 X124.479 Y87.351 E16.54108
G1 X124.852 Y87.816 E16.56884
G1 X125.109 Y88.241 E16.59197
G1 X125.295 Y88.701 E16.61507
G1 X125.404 Y89.184 E16.63813
G1 X125.434 Y89.679 E16.66122
G1 X125.395 Y90.116 E16.68165
G1 X125.166 Y91.516 E16.7477
G1 X125.046 Y91.998 E16.77083
G1 X124.827 Y92.492 E16.79599
G1 X125.103 Y93.425 E16.8413
G1 X125.185 Y93.78 E16.85827
G1 X125.417 Y95.133 E16.92219
G1 X125.443 Y95.278 E16.92905
G1 X125.556 Y96.002 E16.96317
G1 X125.684 Y96.884 E17.00467
G1 X125.719 Y97.4 E17.02875
G1 X125.964 Y98.732 E17.09181
G1 X126.14 Y99.826 E17.14341
G1 X126.242 Y100.166 E17.15994
G1 X126.354 Y100.759 E17.18804
G1 X126.455 Y101.369 E17.21683
G1 X126.575 Y102.355 E17.26308
G1 X126.598 Y102.693 E17.27886
G1 X126.608 Y103.592 E17.32072
G1 X126.554 Y104.376 E17.35731
G1 X126.436 Y105.13 E17.39285
G1 X126.393 Y105.335 E17.4026
G1 X126.255 Y105.897 E17.42955
G1 X126.032 Y106.593 E17.46358
G1 X125.956 Y106.831 E17.47521
G1 X125.746 Y107.347 E17.50115
G1 X125.679 Y107.499 E17.50889
G1 X125.418 Y108.053 E17.53741
G1 X125.342 Y108.204 E17.54528
G1 X125.028 Y108.785 E17.57603
G1 X124.947 Y108.925 E17.58356
G1 X124.584 Y109.52 E17.61602
G1 X124.52 Y109.621 E17.62158
G1 X124.11 Y110.238 E17.65608
G1 X123.803 Y110.627 E17.67915
G1 X123.438 Y110.963 E17.70225
G1 X123.023 Y111.235 E17.72536
G1 X122.571 Y111.437 E17.74841
G1 X122.091 Y111.564 E17.77153
G1 X121.597 Y111.613 E17.79465
G1 X121.103 Y111.581 E17.8177
G1 X120.619 Y111.471 E17.84081
G1 X120.16 Y111.284 E17.86389
G1 X119.819 Y111.076 E17.88249
G1 X119.172 Y110.905 E17.91365
G1 X119.041 Y110.84 E17.92046
