;FLAVOR:Marlin
;TIME:2628
;Filament used: 4.742m
;Layer height: 0.3
;MINX:83.907
;MINY:70.404
;MINZ:0.3
;MAXX:130.239
;MAXY:98.226
;MAXZ:58.8
;Generated with Cura_SteamEngine 4.11.0
M140 S60
M105
M190 S60
M104 S200
M105
M109 S200
M82 ;absolute extrusion mode
G21 ;metric values
G90 ;absolute positioning
M82 ;set extruder to absolute mode
M107 ;start with the fan off
G28 X0 Y0 ;move X/Y to min endstops
G28 Z0 ;move Z to min endstops
G1 Z15.0 F100 ;move the platform down 15mm
G92 E0 ;zero the extruded length
G1 F200 E3 ;extrude 3mm of feed stock
G92 E0 ;zero the extruded length again
G1 F100
G0 Y20 F100
M117 Printing...
G5
G92 E0
G92 E0
G1 F2400 E-6
;LAYER_COUNT:196
;LAYER:0
M107
M204 S3000
M205 X10 Y10
G1 F600 Z0.375
G0 F3000 X86.461 Y79.05 Z0.375
M204 S1800
M205 X8 Y8
;TYPE:SKIRT
G1 F600 Z0.3
G1 F2400 E0
G1 X87.392 Y78.051 E0.09538
G1 X87.934 Y77.441 E0.15237
G1 X88.268 Y77.079 E0.18678
G1 X88.782 Y76.581 E0.23676
G1 X89.348 Y76.144 E0.28671
G1 X89.973 Y75.765 E0.33776
G1 X90.682 Y75.389 E0.39382
G1 X91.262 Y75.081 E0.43968
G1 X91.719 Y74.86 E0.47514
G1 X92.507 Y74.513 E0.53528
G1 X93.596 Y74.052 E0.61788
G1 X96.006 Y72.948 E0.80303
G1 X99.273 Y71.318 E1.05804
G1 X99.622 Y71.137 E1.0855
G1 X100.274 Y70.843 E1.13546
G1 X101.195 Y70.565 E1.20265
G1 X101.9 Y70.45 E1.25254
G1 X102.402 Y70.416 E1.28769
G1 X103.093 Y70.404 E1.33596
G1 X104.313 Y70.421 E1.42118
G1 X107.033 Y70.422 E1.61116
G1 X108.207 Y70.406 E1.69317
G1 X108.389 Y70.406 E1.70588
G1 X108.995 Y70.415 E1.74821
G1 X109.709 Y70.465 E1.7982
G1 X110.297 Y70.568 E1.8399
G1 X110.986 Y70.762 E1.88989
G1 X111.625 Y71.021 E1.93805
G1 X112.454 Y71.409 E2.00198
G1 X114.932 Y72.529 E2.19192
G1 X117.407 Y73.566 E2.37935
G1 X118.691 Y74.068 E2.47564
G1 X119.655 Y74.438 E2.54776
G1 X120.155 Y74.649 E2.58567
G1 X120.749 Y74.93 E2.63157
G1 X121.663 Y75.47 E2.70572
G1 X122.126 Y75.798 E2.74535
G1 X124.354 Y77.331 E2.93424
G1 X126.686 Y78.839 E3.12821
G1 X126.904 Y78.976 E3.1462
G1 X127.488 Y79.39 E3.1962
G1 X128.021 Y79.866 E3.24611
G1 X128.477 Y80.365 E3.29332
G1 X128.917 Y80.929 E3.34329
G1 X129.291 Y81.539 E3.39326
G1 X129.65 Y82.286 E3.45115
G1 X129.913 Y82.951 E3.5011
G1 X130.1 Y83.642 E3.5511
G1 X130.209 Y84.348 E3.60099
G1 X130.239 Y84.989 E3.64582
G1 X130.238 Y85.289 E3.66677
G1 X130.196 Y86.003 E3.71673
G1 X130.074 Y86.708 E3.7667
G1 X129.889 Y87.352 E3.8135
G1 X129.816 Y87.564 E3.82916
G1 X129.546 Y88.226 E3.8791
G1 X129.259 Y88.762 E3.92156
G1 X129.124 Y88.988 E3.93995
G1 X128.724 Y89.581 E3.98991
G1 X128.19 Y90.196 E4.0468
G1 X127.834 Y90.54 E4.08138
G1 X127.058 Y91.234 E4.15409
G1 X126.317 Y91.88 E4.22275
G1 X124.367 Y93.68 E4.40811
G1 X122.914 Y95.111 E4.55055
G1 X122.501 Y95.505 E4.59042
G1 X122.049 Y95.924 E4.63347
G1 X121.558 Y96.333 E4.6781
G1 X120.977 Y96.75 E4.72805
G1 X120.39 Y97.085 E4.77526
G1 X119.859 Y97.339 E4.81637
G1 X119.715 Y97.4 E4.8273
G1 X119.042 Y97.642 E4.87725
G1 X118.346 Y97.807 E4.92721
G1 X117.682 Y97.896 E4.974
G1 X116.39 Y98.054 E5.06492
G1 X115.733 Y98.1 E5.11092
G1 X115.4 Y98.106 E5.13418
G1 X111.42 Y98.139 E5.41218
G1 X109.973 Y98.175 E5.51328
G1 X109.274 Y98.187 E5.56211
G1 X107.276 Y98.207 E5.70167
G1 X105.573 Y98.216 E5.82062
G1 X101.974 Y98.226 E6.07199
G1 X100.457 Y98.225 E6.17795
G1 X99.726 Y98.22 E6.22901
G1 X98.769 Y98.201 E6.29586
G1 X98.6 Y98.195 E6.30768
G1 X96.656 Y98.105 E6.4436
G1 X95.097 Y98.05 E6.55256
G1 X94.766 Y98.033 E6.57571
G1 X94.055 Y97.956 E6.62566
G1 X93.356 Y97.801 E6.67567
G1 X92.967 Y97.677 E6.70419
G1 X92.479 Y97.505 E6.74033
G1 X92.144 Y97.377 E6.76538
G1 X91.373 Y97.007 E6.82511
G1 X90.475 Y96.499 E6.89717
G1 X89.949 Y96.187 E6.93989
G1 X89.857 Y96.13 E6.94745
G1 X89.271 Y95.72 E6.9974
G1 X88.735 Y95.247 E7.04733
G1 X88.254 Y94.718 E7.09727
G1 X87.836 Y94.137 E7.14726
G1 X87.492 Y93.528 E7.19611
G1 X87.08 Y92.695 E7.26102
G1 X86.684 Y91.867 E7.32513
G1 X85.288 Y89.15 E7.53848
G1 X84.794 Y88.226 E7.61167
G1 X84.548 Y87.721 E7.6509
G1 X84.282 Y87.057 E7.70086
G1 X84.044 Y86.119 E7.76846
G1 X83.995 Y85.839 E7.78831
G1 X83.911 Y85.129 E7.83825
G1 X83.907 Y84.414 E7.88819
G1 X83.975 Y83.723 E7.93668
G1 X84.099 Y83.019 E7.98661
G1 X84.302 Y82.333 E8.03658
G1 X84.489 Y81.867 E8.07165
G1 X84.611 Y81.595 E8.09247
G1 X84.94 Y80.96 E8.14243
G1 X85.449 Y80.222 E8.20504
G1 X85.963 Y79.598 E8.26151
G1 X86.461 Y79.05 E8.31323
M204 S3000
M205 X10 Y10
G0 F3000 X86.87 Y79.432
M204 S1800
M205 X8 Y8
G1 F2400 X87.786 Y78.45 E8.40703
G1 X88.269 Y77.905 E8.45789
G1 X88.68 Y77.459 E8.50025
G1 X89.172 Y76.985 E8.54797
G1 X89.716 Y76.571 E8.59572
G1 X90.236 Y76.26 E8.63804
G1 X90.917 Y75.898 E8.69191
G1 X91.36 Y75.66 E8.72703
G1 X91.946 Y75.372 E8.77264
G1 X92.725 Y75.029 E8.83209
G1 X93.81 Y74.569 E8.9144
G1 X96.251 Y73.451 E9.10193
G1 X99.483 Y71.839 E9.35419
G1 X99.88 Y71.633 E9.38543
G1 X100.504 Y71.354 E9.43317
G1 X101.316 Y71.112 E9.49235
G1 X101.991 Y71.003 E9.54011
G1 X102.736 Y70.966 E9.59221
G1 X103.093 Y70.964 E9.61714
G1 X104.305 Y70.981 E9.70181
G1 X107.04 Y70.982 E9.89284
G1 X108.214 Y70.966 E9.97484
G1 X108.381 Y70.966 E9.98651
G1 X108.987 Y70.975 E10.02884
G1 X109.668 Y71.025 E10.07653
G1 X110.176 Y71.115 E10.11257
G1 X110.833 Y71.302 E10.16028
G1 X111.388 Y71.528 E10.20213
G1 X112.234 Y71.924 E10.26738
G1 X114.693 Y73.036 E10.45587
G1 X117.202 Y74.087 E10.64587
G1 X118.525 Y74.604 E10.74508
G1 X119.455 Y74.961 E10.81466
G1 X119.931 Y75.162 E10.85075
G1 X120.505 Y75.434 E10.89512
G1 X121.339 Y75.927 E10.96279
G1 X121.774 Y76.235 E11.00001
G1 X124.052 Y77.802 E11.19313
G1 X126.409 Y79.326 E11.38918
G1 X126.606 Y79.45 E11.40544
G1 X127.163 Y79.847 E11.45321
G1 X127.896 Y80.551 E11.5242
G1 X128.056 Y80.734 E11.54117
G1 X128.474 Y81.274 E11.58887
G1 X128.961 Y82.131 E11.65772
G1 X129.141 Y82.521 E11.68772
G1 X129.391 Y83.157 E11.73545
G1 X129.565 Y83.818 E11.78319
G1 X129.66 Y84.494 E11.83087
G1 X129.678 Y85.287 E11.88628
G1 X129.636 Y85.969 E11.934
G1 X129.514 Y86.642 E11.98177
G1 X129.36 Y87.169 E12.02012
G1 X129.287 Y87.381 E12.03578
G1 X129.027 Y88.013 E12.08351
G1 X128.779 Y88.475 E12.12014
G1 X128.644 Y88.701 E12.13853
G1 X128.26 Y89.266 E12.18624
G1 X127.791 Y89.803 E12.23604
G1 X127.46 Y90.123 E12.2682
G1 X126.69 Y90.811 E12.34032
G1 X125.947 Y91.458 E12.40913
G1 X123.99 Y93.265 E12.59518
G1 X122.521 Y94.712 E12.7392
G1 X121.851 Y95.349 E12.80377
G1 X121.423 Y95.722 E12.84343
G1 X121.206 Y95.897 E12.8629
G1 X120.65 Y96.294 E12.91062
G1 X120.125 Y96.592 E12.95278
G1 X119.641 Y96.823 E12.99024
G1 X119.497 Y96.884 E13.00116
G1 X118.853 Y97.114 E13.04893
G1 X117.884 Y97.309 E13.11796
G1 X117.614 Y97.34 E13.13695
G1 X116.322 Y97.498 E13.22786
G1 X115.722 Y97.54 E13.26987
G1 X115.395 Y97.546 E13.29271
G1 X111.399 Y97.58 E13.57183
G1 X109.964 Y97.615 E13.67209
G1 X109.268 Y97.627 E13.72071
G1 X107.273 Y97.647 E13.86006
G1 X105.571 Y97.656 E13.97894
G1 X101.974 Y97.666 E14.23018
G1 X100.461 Y97.665 E14.33585
G1 X99.737 Y97.66 E14.38642
G1 X98.78 Y97.641 E14.45328
G1 X98.626 Y97.636 E14.46404
G1 X96.64 Y97.544 E14.60291
G1 X95.125 Y97.49 E14.70879
G1 X94.794 Y97.473 E14.73194
G1 X94.115 Y97.398 E14.77965
G1 X93.153 Y97.149 E14.84906
G1 X92.665 Y96.977 E14.8852
G1 X92.352 Y96.857 E14.90861
G1 X91.648 Y96.52 E14.96313
G1 X90.759 Y96.016 E15.03451
G1 X90.244 Y95.711 E15.07631
G1 X90.152 Y95.654 E15.08387
G1 X89.593 Y95.261 E15.1316
G1 X89.084 Y94.805 E15.17933
G1 X88.632 Y94.293 E15.22704
G1 X88.243 Y93.732 E15.27472
G1 X87.993 Y93.279 E15.31086
G1 X87.586 Y92.454 E15.37511
G1 X87.194 Y91.633 E15.43865
G1 X85.77 Y88.863 E15.6562
G1 X85.288 Y87.962 E15.72757
G1 X85.055 Y87.484 E15.76471
G1 X84.803 Y86.849 E15.81243
G1 X84.595 Y86.023 E15.87192
G1 X84.546 Y85.743 E15.89178
G1 X84.468 Y85.064 E15.93951
G1 X84.47 Y84.381 E15.98722
G1 X84.531 Y83.79 E16.02872
G1 X84.652 Y83.118 E16.07641
G1 X84.85 Y82.464 E16.12414
G1 X85.122 Y81.824 E16.17271
G1 X85.438 Y81.218 E16.22044
G1 X85.887 Y80.571 E16.27545
G1 X86.378 Y79.974 E16.32944
G1 X86.87 Y79.432 E16.38057
M204 S3000
M205 X10 Y10
G0 F3000 X87.28 Y79.814
M204 S1800
M205 X8 Y8
G1 F2400 X88.198 Y78.829 E16.47461
G1 X88.757 Y78.201 E16.53333
G1 X89.091 Y77.839 E16.56774
G1 X89.56 Y77.389 E16.61313
G1 X90.081 Y77.001 E16.65851
G1 X90.498 Y76.754 E16.69236
G1 X91.763 Y76.082 E16.79241
G1 X92.172 Y75.885 E16.82412
G1 X92.944 Y75.545 E16.88303
G1 X94.041 Y75.08 E16.96626
G1 X96.471 Y73.967 E17.15294
G1 X99.741 Y72.336 E17.40817
G1 X100.138 Y72.13 E17.43941
G1 X100.732 Y71.867 E17.48478
G1 X101.438 Y71.659 E17.53619
G1 X102.079 Y71.557 E17.58152
G1 X102.752 Y71.526 E17.62858
G1 X103.168 Y71.525 E17.65764
G1 X104.297 Y71.541 E17.7365
G1 X106.976 Y71.542 E17.92362
G1 X108.222 Y71.525 E18.01066
G1 X108.978 Y71.535 E18.06346
G1 X109.626 Y71.584 E18.10885
G1 X110.054 Y71.662 E18.13924
G1 X110.679 Y71.841 E18.18465
G1 X111.15 Y72.035 E18.22023
G1 X111.986 Y72.427 E18.28472
G1 X114.483 Y73.555 E18.4761
G1 X116.997 Y74.608 E18.66647
G1 X118.29 Y75.114 E18.76345
G1 X119.254 Y75.484 E18.83557
G1 X119.899 Y75.763 E18.88466
G1 X120.261 Y75.938 E18.91274
G1 X121.016 Y76.384 E18.97399
G1 X121.515 Y76.738 E19.01672
G1 X123.708 Y78.246 E19.20261
G1 X126.118 Y79.805 E19.40309
G1 X126.308 Y79.924 E19.41875
G1 X126.836 Y80.303 E19.46415
G1 X127.474 Y80.92 E19.52614
G1 X127.634 Y81.103 E19.54312
G1 X128.031 Y81.617 E19.58848
G1 X128.453 Y82.365 E19.64847
G1 X128.633 Y82.755 E19.67847
G1 X128.868 Y83.361 E19.72387
G1 X129.028 Y83.991 E19.76927
G1 X129.109 Y84.635 E19.8146
G1 X129.118 Y85.286 E19.86008
G1 X129.076 Y85.934 E19.90543
G1 X128.954 Y86.572 E19.9508
G1 X128.757 Y87.199 E19.99671
G1 X128.508 Y87.799 E20.04208
G1 X128.163 Y88.414 E20.09133
G1 X127.796 Y88.95 E20.1367
G1 X127.392 Y89.41 E20.17947
G1 X127.087 Y89.706 E20.20915
G1 X126.322 Y90.389 E20.28078
G1 X125.578 Y91.038 E20.34974
G1 X123.597 Y92.866 E20.53801
G1 X122.128 Y94.313 E20.68203
G1 X121.467 Y94.941 E20.74572
G1 X121.072 Y95.286 E20.78235
G1 X120.855 Y95.461 E20.80182
G1 X120.325 Y95.837 E20.84721
G1 X119.86 Y96.098 E20.88445
G1 X119.279 Y96.369 E20.92923
G1 X118.666 Y96.585 E20.97463
G1 X117.82 Y96.753 E21.03487
G1 X117.506 Y96.789 E21.05695
G1 X116.254 Y96.942 E21.14504
G1 X115.712 Y96.98 E21.18299
G1 X115.39 Y96.986 E21.20549
G1 X111.38 Y97.02 E21.48558
G1 X109.954 Y97.055 E21.58521
G1 X109.263 Y97.067 E21.63348
G1 X107.27 Y97.087 E21.77269
G1 X105.57 Y97.096 E21.89143
G1 X101.974 Y97.106 E22.1426
G1 X100.464 Y97.105 E22.24807
G1 X99.748 Y97.1 E22.29808
G1 X98.791 Y97.081 E22.36494
G1 X96.725 Y96.987 E22.50939
G1 X95.154 Y96.931 E22.61919
G1 X94.823 Y96.914 E22.64234
G1 X94.178 Y96.841 E22.68768
G1 X93.339 Y96.621 E22.74826
G1 X92.851 Y96.449 E22.7844
G1 X92.56 Y96.337 E22.80618
G1 X91.924 Y96.032 E22.85544
G1 X91.043 Y95.533 E22.92616
G1 X90.539 Y95.235 E22.96706
G1 X90.447 Y95.178 E22.97462
G1 X89.917 Y94.803 E23.01997
G1 X89.437 Y94.365 E23.06535
G1 X89.014 Y93.872 E23.11072
G1 X88.656 Y93.33 E23.15609
G1 X88.495 Y93.031 E23.17981
G1 X88.091 Y92.213 E23.24354
G1 X87.69 Y91.373 E23.30855
G1 X86.268 Y88.607 E23.52578
G1 X85.782 Y87.698 E23.59777
G1 X85.563 Y87.247 E23.63279
G1 X85.325 Y86.643 E23.67814
G1 X85.147 Y85.926 E23.72974
G1 X85.098 Y85.646 E23.74959
G1 X85.026 Y85.001 E23.79492
G1 X85.057 Y84.107 E23.8574
G1 X85.087 Y83.857 E23.87499
G1 X85.204 Y83.218 E23.92036
G1 X85.511 Y82.325 E23.98632
G1 X85.633 Y82.053 E24.00714
G1 X85.935 Y81.478 E24.0525
G1 X86.324 Y80.92 E24.10001
G1 X86.793 Y80.35 E24.15157
G1 X87.28 Y79.814 E24.20215
M204 S3000
M205 X10 Y10
G0 F3000 X90.817 Y84.177
M204 S1800
M205 X8 Y8
;TYPE:SUPPORT
G1 F1800 X92.41 Y84.395 E24.31445
G1 X92.908 Y83.998 E24.35894
G1 X93.116 Y81.779 E24.51461
G1 X93.15 Y81.697 E24.52081
G1 X93.421 Y81.705 E24.53974
G1 X93.994 Y81.215 E24.5924
G1 X94.407 Y80.965 E24.62612
G1 X95.132 Y80.732 E24.67931
G1 X95.547 Y80.954 E24.71219
G1 X97.407 Y80.785 E24.84263
G1 X97.667 Y80.772 E24.86082
G1 X99.358 Y80.735 E24.97896
G1 X103.276 Y80.754 E25.25262
G1 X103.664 Y80.694 E25.28004
G1 X107.377 Y80.889 E25.53974
G1 X107.843 Y80.464 E25.58379
G1 X107.854 Y80.223 E25.60064
G1 X108.196 Y80.765 E25.6454
G1 X112.399 Y80.824 E25.93899
G1 X114.205 Y80.886 E26.06521
G1 X114.634 Y80.525 E26.10437
G1 X115.515 Y80.625 E26.1663
G1 X115.651 Y80.656 E26.17605
G1 X116.879 Y80.862 E26.26301
G1 X117.315 Y80.689 E26.29578
G1 X117.821 Y80.923 E26.33472
G1 X118.123 Y81.168 E26.36188
G1 X118.32 Y81.483 E26.38783
G1 X118.39 Y81.716 E26.40482
G1 X118.462 Y82.911 E26.48844
G1 X118.791 Y83.365 E26.5276
G1 X121.747 Y84.539 E26.74975
G1 X122.294 Y84.449 E26.78847
G1 X122.304 Y84.44 E26.78941
G1 X123.068 Y84.803 E26.84849
G1 X123.413 Y84.705 E26.87354
G1 X123.575 Y85.03 E26.89891
G1 X123.555 Y85.299 E26.91775
G1 X123.394 Y85.56 E26.93917
G1 X123.34 Y85.531 E26.94345
G1 X122.807 Y85.529 E26.98067
G1 X122.221 Y85.825 E27.02653
G1 X121.677 Y85.674 E27.06596
G1 X121.021 Y85.931 E27.11517
G1 X119.612 Y85.399 E27.22037
G1 X119.037 Y85.721 E27.2664
G1 X118.488 Y88.524 E27.4659
G1 X118.436 Y89.023 E27.50094
G1 X118.237 Y89.339 E27.52702
G1 X117.853 Y90.634 E27.62137
G1 X117.663 Y90.899 E27.64414
G1 X117.268 Y91.189 E27.67837
G1 X116.777 Y91.063 E27.71377
G1 X115.735 Y91.392 E27.79009
G1 X115.645 Y91.411 E27.79652
G1 X115.216 Y91.171 E27.83085
G1 X113.263 Y91.369 E27.96796
G1 X112.248 Y91.431 E28.03899
G1 X110.936 Y91.47 E28.13067
G1 X109.523 Y91.504 E28.22939
G1 X107.355 Y91.526 E28.38082
G1 X105.647 Y91.536 E28.50012
G1 X101.978 Y91.546 E28.75639
G1 X101.615 Y91.545 E28.78174
G1 X100.87 Y91.548 E28.83378
G1 X99.219 Y91.536 E28.9491
G1 X98.154 Y91.504 E29.02352
G1 X97.444 Y91.458 E29.07321
G1 X96.733 Y91.37 E29.12325
G1 X95.484 Y91.131 E29.21207
G1 X94.979 Y91.32 E29.24974
G1 X94.643 Y91.194 E29.2748
G1 X94.173 Y90.897 E29.31363
G1 X93.586 Y90.394 E29.36763
G1 X93.424 Y90.405 E29.37897
G1 X93.369 Y90.007 E29.40703
G1 X93.367 Y89.368 E29.45166
G1 X93.325 Y88.644 E29.50232
G1 X93.243 Y88.113 E29.53984
G1 X93.068 Y87.392 E29.59167
G1 X92.639 Y85.526 E29.7254
G1 X92.149 Y85.168 E29.76778
G1 X91.23 Y85.245 E29.8322
G1 X91.096 Y85.079 E29.8471
G1 X90.641 Y85.005 E29.8793
G1 X90.572 Y84.731 E29.89903
G1 X90.593 Y84.556 E29.91134
G1 X90.703 Y84.314 E29.92991
G1 X90.817 Y84.177 E29.94236
M204 S3000
M205 X10 Y10
G0 F3000 X98.548 Y84.582
M204 S1800
M205 X8 Y8
G1 F1800 X98.497 Y84.702 E29.95147
G1 X98.334 Y85.355 E29.99847
G1 X98.334 Y85.557 E30.01258
G1 X98.444 Y86.068 E30.04909
G1 X98.494 Y86.196 E30.05869
G1 X98.808 Y86.739 E30.1025
G1 X98.883 Y86.836 E30.11107
G1 X99.279 Y87.218 E30.1495
G1 X99.455 Y87.323 E30.16381
G1 X99.981 Y87.486 E30.20227
G1 X100.099 Y87.508 E30.21066
G1 X100.723 Y87.526 E30.25426
G1 X101.224 Y87.402 E30.29031
G1 X101.711 Y87.134 E30.32913
G1 X102.152 Y86.695 E30.3726
G1 X102.426 Y86.202 E30.41199
G1 X102.473 Y86.064 E30.42217
G1 X102.595 Y85.374 E30.47112
G1 X102.582 Y85.156 E30.48637
G1 X102.416 Y84.651 E30.5235
G1 X102.368 Y84.551 E30.53125
G1 X102.051 Y84.057 E30.57224
G1 X101.954 Y83.956 E30.58202
G1 X101.437 Y83.537 E30.6285
G1 X101.212 Y83.438 E30.64567
G1 X100.458 Y83.342 E30.69876
G1 X99.947 Y83.404 E30.73472
G1 X99.449 Y83.603 E30.77217
G1 X99.323 Y83.676 E30.78235
G1 X98.894 Y84.044 E30.82182
G1 X98.548 Y84.582 E30.8665
M204 S3000
M205 X10 Y10
G1 F2400 E24.8665
G0 F3000 X100.396 Y84.154
G0 X108.33 Y84.547
M204 S1800
M205 X8 Y8
G1 F2400 E30.8665
G1 F1800 X108.187 Y85.168 E30.91101
G1 X108.193 Y85.559 E30.93832
G1 X108.219 Y85.687 E30.94745
G1 X108.442 Y86.262 E30.99052
G1 X108.51 Y86.376 E30.99979
G1 X108.929 Y86.9 E31.04666
G1 X109.09 Y87.026 E31.06094
G1 X109.586 Y87.257 E31.09915
G1 X110.175 Y87.382 E31.14121
G1 X110.311 Y87.387 E31.15071
G1 X110.819 Y87.326 E31.18645
G1 X110.953 Y87.288 E31.19618
G1 X111.462 Y87.054 E31.23531
G1 X111.933 Y86.639 E31.27915
G1 X112.143 Y86.307 E31.30659
G1 X112.469 Y86.045 E31.3358
G1 X112.501 Y85.446 E31.3777
G1 X112.434 Y84.915 E31.41508
G1 X112.407 Y84.813 E31.42245
G1 X112.216 Y84.334 E31.45847
G1 X111.905 Y83.869 E31.49754
G1 X111.823 Y83.781 E31.50595
G1 X111.323 Y83.373 E31.55102
G1 X111.134 Y83.28 E31.56573
G1 X110.573 Y83.174 E31.60561
G1 X109.977 Y83.182 E31.64724
G1 X109.821 Y83.213 E31.65835
G1 X109.286 Y83.424 E31.69852
