;FLAVOR:Marlin
;TIME:4269
;Filament used: 6.36983m
;Layer height: 0.3
;MINX:66.1
;MINY:18.1
;MINZ:0.3
;MAXX:143.9
;MAXY:191.9
;MAXZ:15
;Generated with Cura_SteamEngine 4.11.0
M140 S60
M105
M190 S60
M104 S200
M105
M109 S200
M82 ;absolute extrusion mode
G21 ;metric values
G90 ;absolute positioning
M82 ;set extruder to absolute mode
M107 ;start with the fan off
G28 X0 Y0 ;move X/Y to min endstops
G28 Z0 ;move Z to min endstops
G1 Z15.0 F100 ;move the platform down 15mm
G92 E0 ;zero the extruded length
G1 F200 E3 ;extrude 3mm of feed stock
G92 E0 ;zero the extruded length again
G1 F100
G0 Y20 F100
M117 Printing...
G5
G92 E0
G92 E0
G1 F2400 E-6
;LAYER_COUNT:50
;LAYER:0
M107
M204 S3000
M205 X10 Y10
G1 F600 Z0.375
G0 F3000 X66.99 Y25.983 Z0.375
M204 S1800
M205 X8 Y8
;TYPE:SKIRT
G1 F600 Z0.3
G1 F2400 E0
G1 X67.211 Y25.504 E0.03685
G1 X67.402 Y25.116 E0.06705
G1 X67.76 Y24.496 E0.11706
G1 X68.08 Y24.046 E0.15562
G1 X68.535 Y23.478 E0.20646
G1 X69.017 Y22.95 E0.25639
G1 X69.431 Y22.579 E0.29522
G1 X70.039 Y22.09 E0.34972
G1 X70.21 Y21.963 E0.36459
G1 X71.047 Y21.437 E0.43364
G1 X71.88 Y21.031 E0.49837
G1 X72.762 Y20.696 E0.56426
G1 X73.293 Y20.538 E0.60296
G1 X73.479 Y20.485 E0.61647
G1 X74.683 Y20.166 E0.70346
G1 X77.216 Y19.457 E0.88719
G1 X79.563 Y18.733 E1.05874
G1 X80.536 Y18.419 E1.13015
G1 X81.228 Y18.238 E1.18011
G1 X81.936 Y18.135 E1.23008
G1 X82.636 Y18.103 E1.27902
G1 X82.83 Y18.1 E1.29258
G1 X91.885 Y18.101 E1.92503
G1 X92.583 Y18.111 E1.97379
G1 X93.093 Y18.138 E2.00946
G1 X93.448 Y18.173 E2.03438
G1 X95.735 Y18.433 E2.19515
G1 X98.354 Y18.655 E2.37873
G1 X101.035 Y18.807 E2.56629
G1 X103.641 Y18.881 E2.74838
G1 X106.32 Y18.881 E2.9355
G1 X108.926 Y18.807 E3.11759
G1 X111.599 Y18.656 E3.30459
G1 X114.241 Y18.431 E3.48979
G1 X115.688 Y18.276 E3.59144
G1 X116.782 Y18.151 E3.66834
G1 X117.331 Y18.112 E3.70679
G1 X117.83 Y18.1 E3.74165
G1 X126.884 Y18.101 E4.37404
G1 X127.588 Y18.111 E4.42322
G1 X128.301 Y18.161 E4.47314
G1 X129.005 Y18.29 E4.52313
G1 X129.683 Y18.485 E4.5724
G1 X131.704 Y19.135 E4.72068
G1 X135.219 Y20.139 E4.97601
G1 X136.634 Y20.514 E5.07826
G1 X137.149 Y20.663 E5.1157
G1 X138.017 Y20.99 E5.18049
G1 X138.496 Y21.211 E5.21734
G1 X138.901 Y21.411 E5.24888
G1 X139.519 Y21.77 E5.2988
G1 X139.964 Y22.088 E5.33701
G1 X140.516 Y22.53 E5.3864
G1 X141.044 Y23.012 E5.43633
G1 X141.421 Y23.432 E5.47575
G1 X141.839 Y23.946 E5.52203
G1 X141.965 Y24.11 E5.53647
G1 X142.368 Y24.7 E5.58638
G1 X142.643 Y25.199 E5.62617
G1 X142.969 Y25.88 E5.67891
G1 X143.304 Y26.76 E5.74467
G1 X143.458 Y27.277 E5.78235
G1 X143.571 Y27.691 E5.81233
G1 X143.718 Y28.41 E5.86359
G1 X143.795 Y28.948 E5.90155
G1 X143.847 Y29.388 E5.93249
G1 X143.887 Y29.911 E5.96913
G1 X143.9 Y30.53 E6.01237
G1 X143.899 Y160.871 E15.11621
G1 X143.888 Y161.597 E15.16692
G1 X143.837 Y162.31 E15.21685
G1 X143.707 Y163.014 E15.26685
G1 X143.496 Y163.707 E15.31745
G1 X142.986 Y165.094 E15.42067
G1 X142.871 Y165.396 E15.44324
G1 X141.997 Y167.889 E15.62776
G1 X141.186 Y170.433 E15.81426
G1 X140.453 Y172.979 E15.99931
G1 X139.799 Y175.519 E16.1825
G1 X139.197 Y178.157 E16.37149
G1 X138.694 Y180.708 E16.5531
G1 X138.253 Y183.327 E16.73861
G1 X137.92 Y185.685 E16.90494
G1 X137.847 Y186.258 E16.94528
G1 X137.777 Y186.689 E16.97578
G1 X137.604 Y187.383 E17.02574
G1 X137.355 Y188.053 E17.07566
G1 X137.032 Y188.691 E17.12561
G1 X136.641 Y189.29 E17.17557
G1 X136.185 Y189.841 E17.22553
G1 X135.67 Y190.338 E17.27552
G1 X135.103 Y190.774 E17.32547
G1 X134.491 Y191.144 E17.37543
G1 X133.841 Y191.443 E17.4254
G1 X133.162 Y191.669 E17.47538
G1 X132.463 Y191.817 E17.52529
G1 X131.67 Y191.888 E17.5809
G1 X131.17 Y191.9 E17.61583
G1 X122.116 Y191.899 E18.24822
G1 X121.413 Y191.889 E18.29732
G1 X120.508 Y191.812 E18.36076
G1 X119.58 Y191.666 E18.42638
G1 X116.922 Y191.287 E18.61391
G1 X114.28 Y190.985 E18.79964
G1 X111.644 Y190.76 E18.98443
G1 X108.974 Y190.608 E19.17122
G1 X106.367 Y190.533 E19.35338
G1 X103.725 Y190.531 E19.53792
G1 X101.048 Y190.606 E19.72497
G1 X98.401 Y190.755 E19.91015
G1 X95.778 Y190.976 E20.094
G1 X93.149 Y191.274 E20.2788
G1 X90.507 Y191.649 E20.46519
G1 X89.614 Y191.795 E20.52839
G1 X89.398 Y191.826 E20.54363
G1 X88.669 Y191.888 E20.59473
G1 X88.17 Y191.9 E20.62959
G1 X79.115 Y191.899 E21.26205
G1 X78.418 Y191.889 E21.31074
G1 X77.705 Y191.839 E21.36066
G1 X77.001 Y191.71 E21.41065
G1 X76.317 Y191.502 E21.46059
G1 X75.659 Y191.22 E21.51059
G1 X75.038 Y190.866 E21.56052
G1 X74.46 Y190.445 E21.61046
G1 X73.932 Y189.962 E21.66044
G1 X73.462 Y189.424 E21.71034
G1 X73.054 Y188.836 E21.76033
G1 X72.715 Y188.206 E21.8103
G1 X72.448 Y187.542 E21.86028
G1 X72.257 Y186.853 E21.91022
G1 X72.176 Y186.405 E21.94202
G1 X72.069 Y185.661 E21.99452
G1 X71.896 Y184.313 E22.08945
G1 X71.486 Y181.711 E22.27343
G1 X71 Y179.099 E22.459
G1 X70.442 Y176.516 E22.64357
G1 X69.809 Y173.936 E22.82912
G1 X69.106 Y171.389 E23.01367
G1 X68.33 Y168.861 E23.19838
G1 X67.491 Y166.377 E23.3815
G1 X66.507 Y163.716 E23.57966
G1 X66.297 Y163.032 E23.62964
G1 X66.165 Y162.33 E23.67953
G1 X66.113 Y161.692 E23.72424
G1 X66.1 Y161.17 E23.76071
G1 X66.101 Y30.739 E32.87083
G1 X66.111 Y30.041 E32.91959
G1 X66.139 Y29.529 E32.95541
G1 X66.203 Y28.948 E32.99623
G1 X66.292 Y28.357 E33.03798
G1 X66.431 Y27.683 E33.08604
G1 X66.562 Y27.196 E33.12127
G1 X66.66 Y26.862 E33.14558
G1 X66.99 Y25.983 E33.21116
M204 S3000
M205 X10 Y10
G0 F3000 X67.498 Y26.217
M204 S1800
M205 X8 Y8
G1 F2400 X67.719 Y25.738 E33.248
G1 X67.902 Y25.368 E33.27684
G1 X68.42 Y24.529 E33.34571
G1 X68.968 Y23.832 E33.40763
G1 X69.431 Y23.329 E33.45538
G1 X70.149 Y22.714 E33.52142
G1 X70.544 Y22.413 E33.5561
G1 X71.307 Y21.932 E33.6191
G1 X72.117 Y21.538 E33.68201
G1 X72.921 Y21.233 E33.74208
G1 X73.452 Y21.075 E33.78077
G1 X73.622 Y21.027 E33.79311
G1 X74.77 Y20.723 E33.87606
G1 X77.413 Y19.983 E34.06776
G1 X79.664 Y19.289 E34.23229
G1 X80.708 Y18.952 E34.30891
G1 X81.37 Y18.781 E34.35667
G1 X82.324 Y18.673 E34.42373
G1 X82.83 Y18.66 E34.45908
G1 X91.793 Y18.66 E35.08511
G1 X92.575 Y18.671 E35.13974
G1 X93.273 Y18.718 E35.1886
G1 X93.384 Y18.729 E35.19639
G1 X95.691 Y18.991 E35.35856
G1 X98.313 Y19.214 E35.54236
G1 X100.987 Y19.365 E35.72943
G1 X103.66 Y19.441 E35.9162
G1 X106.301 Y19.441 E36.10066
G1 X108.974 Y19.365 E36.28744
G1 X111.644 Y19.214 E36.47423
G1 X114.297 Y18.988 E36.6602
G1 X115.747 Y18.833 E36.76205
G1 X116.845 Y18.707 E36.83925
G1 X117.346 Y18.671 E36.87433
G1 X117.83 Y18.66 E36.90815
G1 X126.876 Y18.661 E37.53998
G1 X127.58 Y18.671 E37.58915
G1 X128.261 Y18.72 E37.63684
G1 X129.194 Y18.922 E37.70352
G1 X129.614 Y19.05 E37.73418
G1 X131.564 Y19.678 E37.87727
G1 X135.033 Y20.669 E38.12926
G1 X136.49 Y21.055 E38.23454
G1 X136.99 Y21.2 E38.2709
G1 X137.783 Y21.498 E38.33007
G1 X138.262 Y21.719 E38.36692
G1 X138.647 Y21.91 E38.39694
G1 X139.495 Y22.437 E38.46667
G1 X140.162 Y22.964 E38.52605
G1 X140.666 Y23.426 E38.5738
G1 X141.278 Y24.139 E38.63943
G1 X141.521 Y24.451 E38.66705
G1 X142.058 Y25.289 E38.73657
G1 X142.462 Y26.117 E38.80092
G1 X142.767 Y26.92 E38.86092
G1 X142.921 Y27.437 E38.89859
G1 X143.03 Y27.835 E38.92742
G1 X143.164 Y28.491 E38.97418
G1 X143.239 Y29.014 E39.01109
G1 X143.327 Y29.931 E39.07543
G1 X143.34 Y30.535 E39.11763
G1 X143.339 Y160.862 E48.22048
G1 X143.328 Y161.588 E48.2712
G1 X143.278 Y162.27 E48.31896
G1 X143.149 Y162.941 E48.36668
G1 X142.971 Y163.514 E48.40859
G1 X142.463 Y164.894 E48.5113
G1 X142.351 Y165.188 E48.53328
G1 X141.456 Y167.743 E48.72237
G1 X140.656 Y170.253 E48.90637
G1 X139.916 Y172.821 E49.09304
G1 X139.252 Y175.4 E49.27904
G1 X138.651 Y178.034 E49.46775
G1 X138.143 Y180.61 E49.65114
G1 X137.702 Y183.23 E49.83671
G1 X137.354 Y185.693 E50.01045
G1 X137.235 Y186.542 E50.07033
G1 X137.227 Y186.584 E50.07331
G1 X137.06 Y187.246 E50.121
G1 X136.817 Y187.885 E50.16875
G1 X136.501 Y188.491 E50.21649
G1 X136.116 Y189.055 E50.26418
G1 X135.668 Y189.571 E50.31191
G1 X135.163 Y190.031 E50.35962
G1 X134.608 Y190.429 E50.40733
G1 X134.01 Y190.759 E50.45503
G1 X133.377 Y191.018 E50.5028
G1 X132.719 Y191.2 E50.55049
G1 X132.044 Y191.305 E50.5982
G1 X131.334 Y191.338 E50.64784
G1 X131.17 Y191.34 E50.6593
G1 X122.124 Y191.339 E51.29113
G1 X121.421 Y191.329 E51.34024
G1 X120.596 Y191.259 E51.39807
G1 X119.687 Y191.116 E51.46234
G1 X116.956 Y190.727 E51.65501
G1 X114.357 Y190.43 E51.83772
G1 X111.689 Y190.202 E52.02475
G1 X109.022 Y190.05 E52.21134
G1 X106.347 Y189.973 E52.39825
G1 X103.709 Y189.971 E52.58251
G1 X101.036 Y190.046 E52.76928
G1 X98.36 Y190.196 E52.95648
G1 X95.738 Y190.418 E53.14027
G1 X93.082 Y190.718 E53.32696
G1 X90.43 Y191.095 E53.51406
G1 X89.535 Y191.241 E53.5774
G1 X89.319 Y191.272 E53.59264
G1 X88.654 Y191.329 E53.63926
G1 X88.17 Y191.34 E53.67307
G1 X79.123 Y191.339 E54.30497
G1 X78.426 Y191.329 E54.35366
G1 X77.745 Y191.28 E54.40135
G1 X77.074 Y191.151 E54.44907
G1 X76.423 Y190.944 E54.49679
G1 X75.8 Y190.663 E54.54452
G1 X75.214 Y190.311 E54.59227
G1 X74.674 Y189.893 E54.63996
G1 X74.186 Y189.415 E54.68768
G1 X73.757 Y188.883 E54.73541
G1 X73.393 Y188.305 E54.78312
G1 X73.099 Y187.688 E54.83086
G1 X72.88 Y187.041 E54.87857
G1 X72.73 Y186.325 E54.92966
G1 X72.624 Y185.589 E54.9816
G1 X72.449 Y184.223 E55.07779
G1 X72.035 Y181.595 E55.26361
G1 X71.549 Y178.987 E55.4489
G1 X70.992 Y176.409 E55.63312
G1 X70.357 Y173.822 E55.81918
G1 X69.64 Y171.221 E56.00763
G1 X68.865 Y168.695 E56.19217
G1 X68.005 Y166.15 E56.37981
G1 X67.033 Y163.522 E56.57552
G1 X66.834 Y162.868 E56.62326
G1 X66.712 Y162.196 E56.67097
G1 X66.673 Y161.675 E56.70746
G1 X66.66 Y161.17 E56.74274
G1 X66.661 Y30.747 E65.85231
G1 X66.671 Y30.049 E65.90106
G1 X66.718 Y29.35 E65.95
G1 X66.757 Y29.031 E65.97244
G1 X66.846 Y28.44 E66.01419
G1 X66.973 Y27.826 E66.05798
G1 X67.197 Y27.02 E66.11641
G1 X67.498 Y26.217 E66.17631
M204 S3000
M205 X10 Y10
G0 F3000 X68.007 Y26.452
M204 S1800
M205 X8 Y8
G1 F2400 X68.228 Y25.973 E66.21315
G1 X68.402 Y25.621 E66.24058
G1 X68.87 Y24.862 E66.30286
G1 X69.402 Y24.187 E66.36289
G1 X69.843 Y23.71 E66.40826
G1 X70.505 Y23.147 E66.46896
G1 X70.878 Y22.862 E66.50175
G1 X71.568 Y22.428 E66.55868
G1 X72.354 Y22.046 E66.61972
G1 X73.081 Y21.769 E66.67406
G1 X73.612 Y21.611 E66.71276
G1 X73.766 Y21.568 E66.72393
G1 X74.912 Y21.264 E66.80674
G1 X77.575 Y20.519 E66.99988
G1 X79.847 Y19.818 E67.16595
G1 X80.88 Y19.485 E67.24176
G1 X81.51 Y19.324 E67.28718
G1 X82.341 Y19.232 E67.34557
G1 X82.83 Y19.22 E67.37974
G1 X91.793 Y19.22 E68.00577
G1 X92.567 Y19.231 E68.05984
G1 X93.22 Y19.275 E68.10555
G1 X95.618 Y19.547 E68.27412
G1 X98.266 Y19.772 E68.45974
G1 X100.976 Y19.925 E68.64932
G1 X103.644 Y20.001 E68.83575
G1 X106.317 Y20.001 E69.02245
G1 X108.985 Y19.925 E69.20887
G1 X111.688 Y19.772 E69.39797
G1 X114.362 Y19.545 E69.58541
G1 X115.767 Y19.394 E69.68411
G1 X116.909 Y19.263 E69.7644
G1 X117.681 Y19.222 E69.81839
G1 X117.83 Y19.22 E69.8288
G1 X126.868 Y19.221 E70.46007
G1 X127.572 Y19.231 E70.50925
G1 X128.22 Y19.28 E70.55464
G1 X129.031 Y19.458 E70.61263
G1 X129.442 Y19.583 E70.64264
G1 X131.388 Y20.21 E70.78544
G1 X134.883 Y21.208 E71.03931
G1 X136.347 Y21.596 E71.14509
G1 X136.831 Y21.737 E71.1803
G1 X137.548 Y22.007 E71.23382
G1 X138.027 Y22.228 E71.27066
G1 X138.393 Y22.41 E71.29921
G1 X139.16 Y22.885 E71.36223
G1 X139.809 Y23.398 E71.42001
G1 X140.286 Y23.839 E71.46538
G1 X140.845 Y24.495 E71.52558
G1 X141.077 Y24.792 E71.5519
G1 X141.562 Y25.55 E71.61476
G1 X141.954 Y26.354 E71.67723
G1 X142.23 Y27.08 E71.73148
G1 X142.384 Y27.597 E71.76916
G1 X142.488 Y27.979 E71.79681
G1 X142.61 Y28.572 E71.8391
G1 X142.683 Y29.079 E71.87488
G1 X142.768 Y29.951 E71.93607
G1 X142.78 Y30.541 E71.97729
G1 X142.779 Y160.854 E81.07917
G1 X142.768 Y161.58 E81.12988
G1 X142.719 Y162.228 E81.17527
G1 X142.59 Y162.864 E81.2206
G1 X142.445 Y163.321 E81.25409
G1 X141.94 Y164.695 E81.35633
G1 X141.814 Y165.024 E81.38094
G1 X140.932 Y167.543 E81.56735
G1 X140.119 Y170.094 E81.75436
G1 X139.367 Y172.703 E81.94401
G1 X138.713 Y175.245 E82.12734
G1 X138.1 Y177.93 E82.3197
G1 X137.597 Y180.483 E82.50145
G1 X137.143 Y183.175 E82.69213
G1 X136.809 Y185.543 E82.85916
G1 X136.736 Y186.116 E82.89951
G1 X136.677 Y186.479 E82.9252
G1 X136.516 Y187.108 E82.97055
G1 X136.28 Y187.713 E83.0159
G1 X135.97 Y188.285 E83.06135
G1 X135.593 Y188.814 E83.10672
G1 X135.154 Y189.293 E83.1521
G1 X134.66 Y189.714 E83.19743
G1 X134.117 Y190.071 E83.24282
G1 X133.535 Y190.359 E83.28818
G1 X132.922 Y190.573 E83.33353
G1 X132.287 Y190.711 E83.37892
G1 X131.638 Y190.769 E83.42443
G1 X131.17 Y190.78 E83.45712
G1 X122.132 Y190.779 E84.08839
G1 X121.429 Y190.769 E84.1375
G1 X120.683 Y190.706 E84.18979
G1 X119.716 Y190.554 E84.25816
G1 X117.064 Y190.176 E84.44527
G1 X114.395 Y189.871 E84.6329
G1 X111.701 Y189.641 E84.82175
G1 X109.068 Y189.49 E85.00596
G1 X106.364 Y189.413 E85.1949
G1 X103.693 Y189.411 E85.38146
G1 X101.025 Y189.486 E85.56788
G1 X98.316 Y189.638 E85.75739
G1 X95.698 Y189.859 E85.9409
G1 X92.975 Y190.167 E86.13231
G1 X90.352 Y190.54 E86.31736
G1 X89.455 Y190.686 E86.38083
G1 X89.239 Y190.717 E86.39607
G1 X88.638 Y190.769 E86.43821
G1 X88.17 Y190.78 E86.4709
G1 X79.131 Y190.779 E87.10225
G1 X78.434 Y190.769 E87.15093
G1 X77.787 Y190.72 E87.19625
G1 X77.15 Y190.592 E87.24163
G1 X76.534 Y190.386 E87.287
G1 X75.947 Y190.106 E87.33243
G1 X75.4 Y189.757 E87.37775
G1 X74.899 Y189.342 E87.42319
G1 X74.454 Y188.87 E87.4685
G1 X74.069 Y188.346 E87.51391
G1 X73.752 Y187.779 E87.55928
G1 X73.507 Y187.178 E87.60462
G1 X73.284 Y186.245 E87.67162
G1 X73.18 Y185.518 E87.72291
G1 X73.007 Y184.168 E87.81798
G1 X72.589 Y181.515 E88.00556
G1 X72.096 Y178.87 E88.19349
G1 X71.532 Y176.259 E88.38006
G1 X70.9 Y173.684 E88.56526
G1 X70.183 Y171.085 E88.75357
G1 X69.389 Y168.497 E88.94265
G1 X68.541 Y165.985 E89.12783
G1 X67.558 Y163.328 E89.3257
G1 X67.37 Y162.706 E89.37109
G1 X67.261 Y162.065 E89.4165
G1 X67.222 Y161.332 E89.46777
G1 X67.22 Y161.17 E89.47909
G1 X67.221 Y30.755 E98.58809
G1 X67.231 Y30.057 E98.63685
G1 X67.276 Y29.403 E98.68264
G1 X67.311 Y29.115 E98.7029
G1 X67.4 Y28.524 E98.74464
G1 X67.514 Y27.968 E98.78429
G1 X67.735 Y27.177 E98.84165
G1 X68.007 Y26.452 E98.89574
M204 S3000
M205 X10 Y10
G1 F2400 E92.89574
G1 F600 Z0.375
G0 F3000 X102.4 Y51.4 Z0.375
M204 S1800
M205 X8 Y8
;TYPE:SUPPORT-INTERFACE
G1 F600 Z0.3
G1 F2400 E98.89574
G1 F1800 X107.6 Y51.4 E99.25894
G1 X107.6 Y70.6 E100.59999
G1 X102.4 Y70.6 E100.96319
G1 X102.4 Y51.4 E102.30424
M204 S3000
M205 X10 Y10
G0 F3000 X105.44 Y68.44
M204 S1800
M205 X8 Y8
G1 F1800 X104.56 Y68.44 E102.3657
G1 X104.56 Y53.56 E103.40501
G1 X105.44 Y53.56 E103.46648
G1 X105.44 Y68.44 E104.50579
M204 S3000
M205 X10 Y10
G0 F3000 X106 Y69
M204 S1800
M205 X8 Y8
G1 F1800 X104 Y69 E104.64548
G1 X104 Y53 E105.76302
G1 X106 Y53 E105.90272
G1 X106 Y69 E107.02026
M204 S3000
M205 X10 Y10
G0 F3000 X106.56 Y69.56
M204 S1800
M205 X8 Y8
G1 F1800 X103.44 Y69.56 E107.23818
G1 X103.44 Y52.44 E108.43395
G1 X106.56 Y52.44 E108.65187
G1 X106.56 Y69.56 E109.84763
M204 S3000
M205 X10 Y10
G0 F3000 X107.12 Y70.12
M204 S1800
M205 X8 Y8
G1 F1800 X102.88 Y70.12 E110.14378
G1 X102.88 Y51.88 E111.41778
G1 X107.12 Y51.88 E111.71393
G1 X107.12 Y70.12 E112.98792
M204 S3000
M205 X10 Y10
G1 F2400 E106.98792
G1 F600 Z0.375
;MESH:woodysmartphone1.stl
G0 F3000 X100.1 Y49.1 Z0.375
M204 S1800
M205 X8 Y8
;TYPE:WALL-INNER
G1 F600 Z0.3
G1 F2400 E112.98792
G1 F1800 X100.1 Y72.9 E114.65026
G1 X109.9 Y72.9 E115.33476
G1 X109.9 Y49.1 E116.9971
G1 X100.1 Y49.1 E117.68159
M204 S3000
M205 X10 Y10
G0 F3000 X100.832 Y72.168
G0 X119.15 Y81.595
G0 X119.814 Y82.097
G0 X120.325 Y82.751
G0 X120.653 Y83.519
G0 X126.918 Y105.353
G0 X127.107 Y106.166
G0 X127.082 Y106.993
G0 X126.847 Y107.782
G0 X126.417 Y108.491
G0 X125.819 Y109.065
G0 X106.818 Y122.483
G0 X104.414 Y123.753
M204 S1800
M205 X8 Y8
G1 F1800 X105.405 Y123.77 E117.75082
G1 X106.366 Y123.54 E117.81984
G1 X107.24 Y123.075 E117.88899
G1 X107.969 Y122.405 E117.95814
G1 X108.507 Y121.577 E118.02711
G1 X108.82 Y120.64 E118.09611
G1 X108.888 Y119.652 E118.16528
G1 X108.705 Y118.681 E118.2343
G1 X108.286 Y117.785 E118.30339
G1 X107.943 Y117.37 E118.34099
