;FLAVOR:Marlin
;TIME:52
;Filament used: 0.0258641m
;Layer height: 0.2
;MINX:97.173
;MINY:95.648
;MINZ:0.2
;MAXX:112.253
;MAXY:114.186
;MAXZ:1.4
;Generated with Cura_SteamEngine 4.11.0
M140 S60
M105
M190 S60
M104 S200
M105
M109 S200
M82 ;absolute extrusion mode
G21 ;metric values
G90 ;absolute positioning
M82 ;set extruder to absolute mode
M107 ;start with the fan off
G28 X0 Y0 ;move X/Y to min endstops
G28 Z0 ;move Z to min endstops
G1 Z15.0 F100 ;move the platform down 15mm
G92 E0 ;zero the extruded length
G1 F200 E3 ;extrude 3mm of feed stock
G92 E0 ;zero the extruded length again
G1 F100
G0 Y20 F100
M117 Printing...
G5
G92 E0
G92 E0
G1 F2400 E-6
;LAYER_COUNT:7
;LAYER:0
M107
M204 S3000
M205 X10 Y10
G1 F600 Z0.275
G0 F3000 X100.581 Y98.771 Z0.275
M204 S1800
M205 X8 Y8
;TYPE:SKIRT
G1 F600 Z0.2
G1 F2400 E0
G1 X100.997 Y98.367 E0.027
G1 X101.273 Y98.166 E0.0429
G1 X101.714 Y97.819 E0.06903
G1 X101.829 Y97.731 E0.07577
G1 X102.198 Y97.284 E0.10276
G1 X102.625 Y96.892 E0.12975
G1 X103.223 Y96.494 E0.1632
G1 X103.751 Y96.204 E0.19125
G1 X104.386 Y95.921 E0.22362
G1 X104.426 Y95.907 E0.2256
G1 X104.984 Y95.754 E0.25254
G1 X105.602 Y95.666 E0.28161
G1 X106.44 Y95.648 E0.32064
G1 X106.478 Y95.651 E0.32241
G1 X107.051 Y95.736 E0.34938
G1 X107.729 Y95.93 E0.38222
G1 X108.27 Y96.139 E0.40923
G1 X108.614 Y96.318 E0.42728
G1 X109.096 Y96.64 E0.45428
G1 X109.661 Y97.133 E0.48919
G1 X110.051 Y97.534 E0.51524
G1 X110.45 Y98.063 E0.54609
G1 X110.753 Y98.557 E0.57308
G1 X110.984 Y99.088 E0.60004
G1 X111.063 Y99.361 E0.61328
G1 X111.43 Y99.937 E0.64508
G1 X111.596 Y100.176 E0.65863
G1 X111.858 Y100.692 E0.68557
G1 X112.046 Y101.24 E0.71255
G1 X112.157 Y101.809 E0.73955
G1 X112.189 Y102.387 E0.7665
G1 X112.14 Y102.965 E0.79351
G1 X112.013 Y103.53 E0.82048
G1 X111.809 Y104.072 E0.84744
G1 X111.533 Y104.581 E0.8744
G1 X111.504 Y104.62 E0.87667
G1 X111.692 Y104.915 E0.89296
G1 X111.946 Y105.436 E0.91995
G1 X112.127 Y105.986 E0.94691
G1 X112.23 Y106.556 E0.97388
G1 X112.253 Y107.135 E1.00086
G1 X112.197 Y107.712 E1.02785
G1 X112.048 Y108.276 E1.05502
G1 X112.14 Y109.053 E1.09145
G1 X112.142 Y109.219 E1.09918
G1 X112.109 Y109.798 E1.12619
G1 X111.996 Y110.366 E1.15315
G1 X111.807 Y110.914 E1.18014
G1 X111.544 Y111.43 E1.20711
G1 X111.213 Y111.905 E1.23407
G1 X110.969 Y112.182 E1.25126
G1 X110.565 Y112.602 E1.2784
G1 X110.136 Y112.99 E1.30533
G1 X109.657 Y113.316 E1.33231
G1 X109.137 Y113.574 E1.35934
G1 X108.588 Y113.757 E1.38629
G1 X108.443 Y113.784 E1.39315
G1 X107.966 Y113.949 E1.41666
G1 X107.649 Y114.036 E1.43196
G1 X107.081 Y114.151 E1.45895
G1 X106.502 Y114.186 E1.48596
G1 X105.925 Y114.141 E1.51291
G1 X105.359 Y114.017 E1.53989
G1 X104.815 Y113.817 E1.56688
G1 X104.305 Y113.544 E1.59381
G1 X103.849 Y113.213 E1.62005
G1 X103.301 Y113.367 E1.64656
G1 X102.727 Y113.446 E1.67354
G1 X102.148 Y113.446 E1.7005
G1 X101.574 Y113.365 E1.72749
G1 X101.017 Y113.207 E1.75445
G1 X100.486 Y112.973 E1.78147
G1 X100.003 Y112.676 E1.80787
G1 X99.735 Y112.485 E1.82319
G1 X99.306 Y112.132 E1.84906
G1 X98.942 Y111.873 E1.86987
G1 X98.521 Y111.475 E1.89684
G1 X98.159 Y111.023 E1.92381
G1 X97.764 Y110.318 E1.96144
G1 X97.528 Y109.781 E1.98875
G1 X97.332 Y109.236 E2.01572
G1 X97.213 Y108.669 E2.0427
G1 X97.173 Y108.091 E2.06967
G1 X97.213 Y107.513 E2.09665
G1 X97.332 Y106.946 E2.12363
G1 X97.513 Y106.427 E2.14922
G1 X97.758 Y105.902 E2.1762
G1 X97.862 Y105.742 E2.18509
G1 X97.888 Y105.37 E2.20245
G1 X98.009 Y104.803 E2.22945
G1 X98.206 Y104.259 E2.25639
G1 X98.476 Y103.746 E2.28338
G1 X98.815 Y103.276 E2.31037
G1 X99.327 Y102.758 E2.34428
G1 X99.621 Y102.525 E2.36175
G1 X99.53 Y101.983 E2.38734
G1 X99.513 Y101.404 E2.41431
G1 X99.577 Y100.828 E2.4413
G1 X99.718 Y100.267 E2.46823
G1 X99.936 Y99.73 E2.49522
G1 X100.226 Y99.228 E2.52222
G1 X100.581 Y98.771 E2.54916
M204 S3000
M205 X10 Y10
G0 F3000 X101.012 Y99.13
M204 S1800
M205 X8 Y8
G1 F2400 X101.402 Y98.758 E2.57426
G1 X102.061 Y98.259 E2.61275
G1 X102.214 Y98.156 E2.62134
G1 X102.285 Y98.057 E2.62701
G1 X102.63 Y97.643 E2.6521
G1 X103.033 Y97.284 E2.67723
G1 X103.493 Y96.985 E2.70278
G1 X104.021 Y96.695 E2.73083
G1 X104.571 Y96.449 E2.75889
G1 X104.611 Y96.435 E2.76086
G1 X105.374 Y96.258 E2.79733
G1 X105.67 Y96.222 E2.81122
G1 X106.395 Y96.206 E2.84498
G1 X106.433 Y96.209 E2.84676
G1 X107.217 Y96.359 E2.88393
G1 X107.565 Y96.466 E2.90088
G1 X108.301 Y96.785 E2.93823
G1 X108.336 Y96.805 E2.94011
G1 X108.965 Y97.26 E2.97626
G1 X109.624 Y97.897 E3.01894
G1 X109.994 Y98.388 E3.04756
G1 X110.273 Y98.849 E3.07265
G1 X110.481 Y99.347 E3.09778
G1 X110.551 Y99.6 E3.11001
G1 X110.954 Y100.232 E3.14491
G1 X111.134 Y100.495 E3.15975
G1 X111.37 Y100.979 E3.18482
G1 X111.532 Y101.494 E3.20996
G1 X111.617 Y102.026 E3.23505
G1 X111.621 Y102.566 E3.26019
G1 X111.546 Y103.1 E3.2853
G1 X111.393 Y103.617 E3.31041
G1 X111.165 Y104.105 E3.33549
G1 X110.867 Y104.555 E3.36062
G1 X110.821 Y104.606 E3.36382
G1 X111.114 Y105.034 E3.38797
G1 X111.207 Y105.195 E3.39663
G1 X111.441 Y105.681 E3.42175
G1 X111.601 Y106.196 E3.44686
G1 X111.684 Y106.729 E3.47198
G1 X111.686 Y107.268 E3.49707
G1 X111.609 Y107.802 E3.5222
G1 X111.475 Y108.261 E3.54446
G1 X111.502 Y108.353 E3.54893
G1 X111.58 Y109.06 E3.58205
G1 X111.582 Y109.226 E3.58978
G1 X111.548 Y109.764 E3.61488
G1 X111.436 Y110.292 E3.64001
G1 X111.246 Y110.797 E3.66514
G1 X110.985 Y111.268 E3.69021
G1 X110.565 Y111.793 E3.72152
G1 X110.161 Y112.213 E3.74865
G1 X109.76 Y112.573 E3.77375
G1 X109.309 Y112.87 E3.79889
G1 X108.82 Y113.097 E3.82399
G1 X108.303 Y113.249 E3.84909
G1 X107.817 Y113.409 E3.87291
G1 X107.5 Y113.496 E3.88822
G1 X106.971 Y113.6 E3.91332
G1 X106.432 Y113.624 E3.93845
G1 X105.896 Y113.569 E3.96353
G1 X105.374 Y113.435 E3.98863
G1 X104.877 Y113.225 E4.01375
G1 X104.417 Y112.945 E4.03883
G1 X104.003 Y112.599 E4.06395
G1 X103.964 Y112.555 E4.06669
G1 X103.563 Y112.719 E4.08686
G1 X103.039 Y112.846 E4.11197
G1 X102.502 Y112.895 E4.13708
G1 X101.964 Y112.865 E4.16217
G1 X101.436 Y112.755 E4.18728
G1 X100.93 Y112.568 E4.2124
G1 X100.328 Y112.22 E4.24478
G1 X100.06 Y112.029 E4.2601
G1 X99.644 Y111.683 E4.2853
G1 X99.52 Y111.609 E4.29202
G1 X99.102 Y111.267 E4.31717
G1 X98.74 Y110.868 E4.34226
G1 X98.44 Y110.419 E4.3674
G1 X98.277 Y110.093 E4.38437
G1 X98.041 Y109.556 E4.41169
G1 X97.861 Y109.047 E4.43683
G1 X97.758 Y108.518 E4.46192
G1 X97.735 Y107.979 E4.48704
G1 X97.791 Y107.443 E4.51214
G1 X97.976 Y106.784 E4.54401
G1 X98.036 Y106.628 E4.55179
G1 X98.266 Y106.141 E4.57687
G1 X98.409 Y105.928 E4.58882
G1 X98.448 Y105.412 E4.61291
G1 X98.568 Y104.886 E4.63803
G1 X98.765 Y104.384 E4.66314
G1 X99.034 Y103.916 E4.68828
G1 X99.368 Y103.493 E4.71338
G1 X99.83 Y103.066 E4.74267
G1 X100.27 Y102.745 E4.76803
G1 X100.235 Y102.656 E4.77248
G1 X100.113 Y102.131 E4.79758
G1 X100.07 Y101.594 E4.82267
G1 X100.107 Y101.056 E4.84778
G1 X100.223 Y100.529 E4.8729
G1 X100.415 Y100.025 E4.89802
G1 X100.68 Y99.555 E4.92314
G1 X101.012 Y99.13 E4.94825
M204 S3000
M205 X10 Y10
G0 F3000 X101.468 Y99.461
M204 S1800
M205 X8 Y8
G1 F2400 X102.034 Y98.992 E4.98248
G1 X102.611 Y98.563 E5.01596
G1 X103.06 Y98.004 E5.04935
G1 X103.437 Y97.681 E5.07247
G1 X103.762 Y97.475 E5.09038
G1 X104.29 Y97.185 E5.11843
G1 X104.756 Y96.978 E5.14218
G1 X104.796 Y96.964 E5.14415
G1 X105.441 Y96.814 E5.17498
G1 X105.737 Y96.778 E5.18887
G1 X106.351 Y96.765 E5.21747
G1 X106.389 Y96.768 E5.21924
G1 X107.052 Y96.894 E5.25067
G1 X107.4 Y97.001 E5.26762
G1 X108.023 Y97.271 E5.29924
G1 X108.058 Y97.291 E5.30111
G1 X108.591 Y97.676 E5.33173
G1 X109.198 Y98.259 E5.37092
G1 X109.538 Y98.713 E5.39733
G1 X109.792 Y99.139 E5.42042
G1 X110.038 Y99.841 E5.45506
G1 X110.477 Y100.525 E5.49291
G1 X110.67 Y100.811 E5.50897
G1 X110.879 Y101.261 E5.53208
G1 X111.012 Y101.739 E5.55518
G1 X111.068 Y102.232 E5.57828
G1 X111.043 Y102.727 E5.60136
G1 X110.939 Y103.212 E5.62446
G1 X110.759 Y103.674 E5.64755
G1 X110.507 Y104.101 E5.67063
G1 X110.049 Y104.603 E5.70228
G1 X110.208 Y104.748 E5.7123
G1 X110.629 Y105.314 E5.74514
G1 X110.935 Y105.923 E5.77688
G1 X111.073 Y106.4 E5.8
G1 X111.133 Y106.892 E5.82308
G1 X111.112 Y107.388 E5.8462
G1 X110.948 Y108.073 E5.87899
G1 X110.889 Y108.236 E5.88707
G1 X110.983 Y108.625 E5.9057
G1 X111.022 Y109.233 E5.93407
G1 X110.988 Y109.728 E5.95717
G1 X110.875 Y110.211 E5.98027
G1 X110.686 Y110.669 E6.00334
G1 X110.426 Y111.091 E6.02642
G1 X110.162 Y111.405 E6.04553
G1 X109.758 Y111.825 E6.07266
G1 X109.386 Y112.154 E6.09579
G1 X108.967 Y112.419 E6.11887
G1 X108.51 Y112.612 E6.14197
G1 X107.919 Y112.789 E6.1707
G1 X107.352 Y112.956 E6.19822
G1 X106.865 Y113.049 E6.22131
G1 X106.369 Y113.061 E6.24441
G1 X105.878 Y112.995 E6.26748
G1 X105.403 Y112.85 E6.2906
G1 X104.958 Y112.631 E6.3137
G1 X104.554 Y112.343 E6.3368
G1 X104.095 Y111.847 E6.36827
G1 X103.741 Y112.048 E6.38722
G1 X103.276 Y112.221 E6.41033
G1 X102.79 Y112.316 E6.43339
G1 X102.294 Y112.332 E6.45649
G1 X101.802 Y112.269 E6.47959
G1 X101.327 Y112.127 E6.50267
G1 X100.653 Y111.764 E6.53832
G1 X100.006 Y111.254 E6.57668
G1 X99.651 Y111.005 E6.59687
G1 X99.295 Y110.66 E6.61996
G1 X98.999 Y110.263 E6.64302
G1 X98.789 Y109.867 E6.66389
G1 X98.553 Y109.33 E6.6912
G1 X98.391 Y108.862 E6.71426
G1 X98.306 Y108.373 E6.73737
G1 X98.3 Y107.877 E6.76047
G1 X98.375 Y107.387 E6.78355
G1 X98.558 Y106.829 E6.8109
G1 X98.773 Y106.382 E6.83399
G1 X98.967 Y106.105 E6.84974
G1 X99.008 Y105.456 E6.88002
G1 X99.128 Y104.975 E6.90311
G1 X99.324 Y104.519 E6.92622
G1 X99.59 Y104.101 E6.94929
G1 X100.052 Y103.611 E6.98065
G1 X100.595 Y103.202 E7.0123
G1 X100.992 Y103.004 E7.03296
G1 X100.842 Y102.695 E7.04895
G1 X100.699 Y102.22 E7.07205
G1 X100.634 Y101.729 E7.09511
G1 X100.649 Y101.233 E7.11822
G1 X100.743 Y100.746 E7.14132
G1 X100.914 Y100.28 E7.16443
G1 X101.158 Y99.848 E7.18753
G1 X101.468 Y99.461 E7.21062
M204 S3000
M205 X10 Y10
G0 F3000 X101.952 Y99.768
M204 S1800
M205 X8 Y8
G1 F2400 X102.753 Y99.139 E7.25804
G1 X103.005 Y98.975 E7.27204
G1 X103.488 Y98.368 E7.30817
G1 X104.032 Y97.966 E7.33966
G1 X104.56 Y97.676 E7.36771
G1 X104.981 Y97.492 E7.38911
G1 X105.509 Y97.369 E7.41435
G1 X105.805 Y97.333 E7.42823
G1 X106.307 Y97.323 E7.45161
G1 X106.345 Y97.326 E7.45339
G1 X106.888 Y97.429 E7.47912
G1 X107.236 Y97.536 E7.49608
G1 X107.745 Y97.757 E7.52192
G1 X107.78 Y97.777 E7.52379
G1 X108.216 Y98.092 E7.54884
G1 X108.771 Y98.622 E7.58457
G1 X109.081 Y99.038 E7.60873
G1 X109.308 Y99.425 E7.62962
G1 X109.491 Y99.961 E7.656
G1 X109.526 Y100.121 E7.66362
G1 X109.991 Y100.805 E7.70214
G1 X110.203 Y101.124 E7.71997
G1 X110.382 Y101.536 E7.74089
G1 X110.484 Y101.973 E7.76178
G1 X110.507 Y102.42 E7.78262
G1 X110.451 Y102.865 E7.80351
G1 X110.316 Y103.293 E7.82441
G1 X110.108 Y103.691 E7.84532
G1 X109.833 Y104.045 E7.86619
G1 X109.499 Y104.344 E7.88706
G1 X109.066 Y104.6 E7.91049
G1 X109.599 Y104.939 E7.9399
G1 X109.913 Y105.26 E7.96081
G1 X110.237 Y105.756 E7.9884
G1 X110.426 Y106.162 E8.00925
G1 X110.54 Y106.596 E8.03014
G1 X110.575 Y107.043 E8.05102
G1 X110.53 Y107.49 E8.07194
G1 X110.294 Y108.232 E8.1082
G1 X110.371 Y108.441 E8.11857
G1 X110.46 Y109.074 E8.14833
G1 X110.427 Y109.687 E8.17692
G1 X110.314 Y110.121 E8.1978
G1 X110.126 Y110.528 E8.21868
G1 X109.758 Y111.017 E8.24717
G1 X109.354 Y111.437 E8.27431
G1 X109.016 Y111.731 E8.29517
G1 X108.63 Y111.961 E8.31609
G1 X108.21 Y112.119 E8.33699
G1 X107.928 Y112.17 E8.35033
G1 X107.521 Y112.329 E8.37068
G1 X106.763 Y112.496 E8.40682
G1 X106.314 Y112.496 E8.42773
G1 X105.872 Y112.417 E8.44864
G1 X105.452 Y112.26 E8.46951
G1 X105.066 Y112.032 E8.49039
G1 X104.727 Y111.739 E8.51125
G1 X104.444 Y111.39 E8.53218
G1 X104.24 Y111.024 E8.55169
G1 X103.822 Y111.364 E8.57678
G1 X103.427 Y111.575 E8.59763
G1 X103 Y111.713 E8.61852
G1 X102.555 Y111.773 E8.63943
G1 X102.107 Y111.754 E8.66031
G1 X101.67 Y111.655 E8.68118
G1 X101.257 Y111.48 E8.70206
G1 X100.71 Y111.117 E8.73263
G1 X100.348 Y110.798 E8.7551
G1 X100.159 Y110.689 E8.76526
G1 X99.817 Y110.4 E8.78611
G1 X99.531 Y110.054 E8.80701
G1 X99.302 Y109.642 E8.82896
G1 X99.066 Y109.105 E8.85627
G1 X98.923 Y108.68 E8.87715
G1 X98.857 Y108.236 E8.89805
G1 X98.871 Y107.788 E8.91892
G1 X99.021 Y107.186 E8.94781
G1 X99.279 Y106.628 E8.97644
G1 X99.526 Y106.292 E8.99586
G1 X99.568 Y105.505 E9.03256
G1 X99.688 Y105.073 E9.05343
G1 X99.882 Y104.669 E9.0743
G1 X100.145 Y104.305 E9.09521
G1 X100.555 Y103.919 E9.12143
G1 X100.921 Y103.66 E9.14231
G1 X101.328 Y103.47 E9.16323
G1 X101.922 Y103.342 E9.19152
G1 X101.67 Y103.052 E9.20941
G1 X101.44 Y102.667 E9.23029
G1 X101.282 Y102.247 E9.25119
G1 X101.201 Y101.806 E9.27207
G1 X101.199 Y101.357 E9.29297
G1 X101.277 Y100.916 E9.31383
G1 X101.432 Y100.495 E9.33472
G1 X101.66 Y100.108 E9.35563
G1 X101.952 Y99.768 E9.3765
M204 S3000
M205 X10 Y10
G0 F3000 X102.187 Y100.339
M204 S1800
M205 X8 Y8
G1 F2400 X102.466 Y100.058 E9.39494
G1 X102.705 Y99.89 E9.40854
G1 X103.1 Y99.579 E9.43195
G1 X103.395 Y99.392 E9.44822
G1 X103.913 Y98.738 E9.48706
G1 X104.301 Y98.457 E9.50937
G1 X104.829 Y98.167 E9.53742
G1 X105.166 Y98.021 E9.55452
G1 X105.872 Y97.889 E9.58797
G1 X106.263 Y97.881 E9.60618
G1 X106.723 Y97.965 E9.62795
G1 X107.467 Y98.243 E9.66493
G1 X107.841 Y98.508 E9.68628
G1 X108.344 Y98.985 E9.71856
G1 X108.625 Y99.363 E9.74049
G1 X108.821 Y99.706 E9.75888
G1 X109.005 Y100.357 E9.79038
G1 X109.275 Y100.703 E9.81082
G1 X109.733 Y101.433 E9.85095
G1 X109.877 Y101.801 E9.86935
G1 X109.944 Y102.191 E9.88778
G1 X109.932 Y102.586 E9.90618
G1 X109.84 Y102.971 E9.92461
G1 X109.673 Y103.329 E9.943
G1 X109.438 Y103.647 E9.96141
G1 X109.143 Y103.911 E9.97985
G1 X108.802 Y104.111 E9.99826
G1 X108.427 Y104.237 E10.01668
G1 X108.035 Y104.286 E10.03507
G1 X107.378 Y104.266 E10.06568
G1 X106.655 Y104.409 E10.1
G1 X106.035 Y104.603 E10.13025
G1 X105.64 Y104.626 E10.14867
G1 X105.248 Y104.57 E10.16711
G1 X104.876 Y104.437 E10.18551
G1 X104.418 Y104.132 E10.21113
G1 X103.992 Y103.794 E10.23645
G1 X103.364 Y103.505 E10.26864
G1 X102.888 Y103.352 E10.29192
G1 X102.548 Y103.151 E10.31031
G1 X102.254 Y102.886 E10.32874
G1 X102.021 Y102.567 E10.34714
G1 X101.856 Y102.207 E10.36558
G1 X101.766 Y101.822 E10.38399
G1 X101.755 Y101.427 E10.40239
G1 X101.825 Y101.037 E10.42084
G1 X101.97 Y100.67 E10.43921
G1 X102.187 Y100.339 E10.45764
M204 S3000
M205 X10 Y10
G0 F3000 X102.747 Y100.557
M204 S1800
M205 X8 Y8
G1 F2400 X103.028 Y100.348 E10.47395
G1 X103.446 Y100.019 E10.49872
G1 X103.769 Y99.831 E10.51612
G1 X104.106 Y99.36 E10.54309
G1 X104.332 Y99.114 E10.55864
G1 X104.571 Y98.948 E10.57219
G1 X105.099 Y98.658 E10.60024
G1 X105.351 Y98.55 E10.61301
G1 X105.94 Y98.445 E10.64087
G1 X106.219 Y98.439 E10.65386
G1 X106.906 Y98.607 E10.6868
G1 X107.225 Y98.749 E10.70305
G1 X107.788 Y99.214 E10.73706
G1 X108.169 Y99.688 E10.76537
G1 X108.329 Y99.981 E10.78092
G1 X108.497 Y100.658 E10.8134
G1 X108.796 Y100.994 E10.83434
G1 X109.081 Y101.451 E10.85942
G1 X109.258 Y101.735 E10.875
G1 X109.362 Y102.052 E10.89054
G1 X109.388 Y102.385 E10.90609
G1 X109.334 Y102.715 E10.92166
G1 X109.204 Y103.023 E10.93723
G1 X109.004 Y103.291 E10.9528
G1 X108.747 Y103.504 E10.96834
G1 X108.447 Y103.65 E10.98388
G1 X108.12 Y103.721 E10.99946
G1 X107.344 Y103.706 E11.0356
G1 X106.936 Y103.757 E11.05475
G1 X106.218 Y103.977 E11.08971
G1 X105.894 Y104.057 E11.10525
G1 X105.56 Y104.059 E11.12081
G1 X105.235 Y103.981 E11.13637
G1 X104.79 Y103.714 E11.16053
G1 X104.293 Y103.321 E11.19004
G1 X103.909 Y103.114 E11.21035
G1 X103.39 Y102.936 E11.2359
G1 X103.076 Y102.821 E11.25147
G1 X102.799 Y102.636 E11.26698
G1 X102.573 Y102.389 E11.28257
G1 X102.412 Y102.097 E11.2981
G1 X102.325 Y101.774 E11.31367
G1 X102.316 Y101.44 E11.32923
G1 X102.387 Y101.114 E11.34477
G1 X102.534 Y100.814 E11.36032
G1 X102.747 Y100.557 E11.37587
M204 S3000
M205 X10 Y10
G0 F3000 X103.138 Y100.958
M204 S1800
M205 X8 Y8
G1 F2400 X103.342 Y100.813 E11.38752
G1 X103.792 Y100.459 E11.41418
G1 X104.123 Y100.3 E11.43128
G1 X104.562 Y99.686 E11.46643
G1 X104.841 Y99.439 E11.48378
G1 X105.369 Y99.149 E11.51183
G1 X105.712 Y99.037 E11.52863
G1 X106.175 Y98.998 E11.55026
G1 X106.742 Y99.142 E11.5775
G1 X107.092 Y99.341 E11.59625
