;FLAVOR:Marlin
;TIME:4727
;Filament used: 8.32752m
;Layer height: 0.3
;MINX:77.173
;MINY:77.173
;MINZ:0.3
;MAXX:132.827
;MAXY:132.827
;MAXZ:52.2
;Generated with Cura_SteamEngine 4.11.0
M140 S60
M105
M190 S60
M104 S200
M105
M109 S200
M82 ;absolute extrusion mode
G21 ;metric values
G90 ;absolute positioning
M82 ;set extruder to absolute mode
M107 ;start with the fan off
G28 X0 Y0 ;move X/Y to min endstops
G28 Z0 ;move Z to min endstops
G1 Z15.0 F100 ;move the platform down 15mm
G92 E0 ;zero the extruded length
G1 F200 E3 ;extrude 3mm of feed stock
G92 E0 ;zero the extruded length again
G1 F100
G0 Y20 F100
M117 Printing...
G5
G92 E0
G92 E0
G1 F2400 E-6
;LAYER_COUNT:174
;LAYER:0
M107
M204 S3000
M205 X10 Y10
G1 F600 Z0.375
G0 F3000 X79.058 Y79.17 Z0.375
M204 S1800
M205 X8 Y8
;TYPE:SKIRT
G1 F600 Z0.3
G1 F2400 E0
G1 X79.17 Y79.058 E0.01106
G1 X79.703 Y78.581 E0.06102
G1 X80.286 Y78.167 E0.11097
G1 X80.912 Y77.82 E0.16096
G1 X81.572 Y77.545 E0.2109
G1 X82.259 Y77.346 E0.26085
G1 X82.964 Y77.225 E0.31082
G1 X83.479 Y77.187 E0.34688
G1 X84.174 Y77.173 E0.39544
G1 X125.603 Y77.173 E3.2891
G1 X126.396 Y77.184 E3.34449
G1 X127.11 Y77.234 E3.39449
G1 X127.813 Y77.363 E3.44441
G1 X128.498 Y77.57 E3.49439
G1 X129.155 Y77.853 E3.54435
G1 X129.777 Y78.206 E3.59431
G1 X130.355 Y78.627 E3.64425
G1 X130.83 Y79.058 E3.68905
G1 X130.942 Y79.17 E3.70011
G1 X131.419 Y79.703 E3.75007
G1 X131.833 Y80.286 E3.80002
G1 X132.18 Y80.912 E3.85001
G1 X132.455 Y81.572 E3.89995
G1 X132.654 Y82.259 E3.9499
G1 X132.775 Y82.964 E3.99987
G1 X132.818 Y83.599 E4.04432
G1 X132.827 Y84.209 E4.08693
G1 X132.826 Y125.664 E6.98241
G1 X132.816 Y126.393 E7.03333
G1 X132.767 Y127.106 E7.08325
G1 X132.638 Y127.81 E7.13324
G1 X132.431 Y128.495 E7.18322
G1 X132.149 Y129.152 E7.23316
G1 X131.795 Y129.774 E7.28315
G1 X131.375 Y130.352 E7.33305
G1 X130.942 Y130.83 E7.3781
G1 X130.83 Y130.942 E7.38916
G1 X130.297 Y131.419 E7.43912
G1 X129.714 Y131.833 E7.48906
G1 X129.088 Y132.18 E7.53906
G1 X128.428 Y132.455 E7.589
G1 X127.741 Y132.654 E7.63895
G1 X127.036 Y132.775 E7.68891
G1 X126.521 Y132.813 E7.72498
G1 X125.826 Y132.827 E7.77354
G1 X84.306 Y132.826 E10.67355
G1 X83.604 Y132.816 E10.72259
G1 X82.89 Y132.766 E10.77258
G1 X82.187 Y132.637 E10.82251
G1 X81.502 Y132.43 E10.87249
G1 X80.845 Y132.147 E10.92245
G1 X80.223 Y131.794 E10.97241
G1 X79.645 Y131.373 E11.02235
G1 X79.17 Y130.942 E11.06715
G1 X79.058 Y130.83 E11.07821
G1 X78.581 Y130.297 E11.12817
G1 X78.167 Y129.714 E11.17811
G1 X77.82 Y129.088 E11.22811
G1 X77.545 Y128.428 E11.27805
G1 X77.346 Y127.741 E11.328
G1 X77.225 Y127.036 E11.37796
G1 X77.187 Y126.521 E11.41403
G1 X77.173 Y125.776 E11.46608
G1 X77.174 Y84.283 E14.36421
G1 X77.184 Y83.601 E14.41185
G1 X77.234 Y82.888 E14.46177
G1 X77.364 Y82.184 E14.51178
G1 X77.571 Y81.5 E14.56169
G1 X77.854 Y80.843 E14.61166
G1 X78.208 Y80.221 E14.66164
G1 X78.629 Y79.643 E14.71159
G1 X79.058 Y79.17 E14.75619
M204 S3000
M205 X10 Y10
G0 F3000 X79.565 Y79.453
M204 S1800
M205 X8 Y8
G1 F2400 X80.076 Y78.999 E14.80393
G1 X80.636 Y78.608 E14.85164
G1 X81.238 Y78.285 E14.89936
G1 X81.874 Y78.034 E14.94711
G1 X82.534 Y77.86 E14.99479
G1 X83.498 Y77.746 E15.06259
G1 X84.181 Y77.733 E15.1103
G1 X125.603 Y77.733 E18.00347
G1 X126.388 Y77.744 E18.05831
G1 X127.07 Y77.793 E18.10607
G1 X127.741 Y77.922 E18.15379
G1 X128.392 Y78.129 E18.2015
G1 X129.015 Y78.41 E18.24924
G1 X129.6 Y78.762 E18.29693
G1 X130.141 Y79.179 E18.34464
G1 X130.547 Y79.565 E18.38376
G1 X131.001 Y80.076 E18.43151
G1 X131.392 Y80.636 E18.47921
G1 X131.715 Y81.238 E18.52693
G1 X131.966 Y81.874 E18.57469
G1 X132.14 Y82.534 E18.62236
G1 X132.253 Y83.482 E18.68904
G1 X132.266 Y84.132 E18.73445
G1 X132.267 Y125.576 E21.62916
G1 X132.256 Y126.385 E21.68567
G1 X132.207 Y127.067 E21.73343
G1 X132.079 Y127.738 E21.78114
G1 X131.873 Y128.389 E21.82883
G1 X131.592 Y129.012 E21.87657
G1 X131.24 Y129.598 E21.92432
G1 X130.823 Y130.138 E21.97197
G1 X130.435 Y130.547 E22.01135
G1 X129.924 Y131.001 E22.05909
G1 X129.364 Y131.392 E22.10679
G1 X128.762 Y131.715 E22.15451
G1 X128.126 Y131.966 E22.20227
G1 X127.466 Y132.14 E22.24994
G1 X126.502 Y132.254 E22.31774
G1 X125.819 Y132.267 E22.36546
G1 X84.314 Y132.266 E25.26443
G1 X83.612 Y132.256 E25.31346
G1 X82.93 Y132.207 E25.36122
G1 X82.259 Y132.078 E25.40895
G1 X81.608 Y131.871 E25.45666
G1 X80.985 Y131.59 E25.5044
G1 X80.4 Y131.238 E25.55208
G1 X79.859 Y130.821 E25.59979
G1 X79.453 Y130.435 E25.63892
G1 X78.999 Y129.924 E25.68666
G1 X78.608 Y129.364 E25.73437
G1 X78.285 Y128.762 E25.78209
G1 X78.034 Y128.126 E25.82984
G1 X77.86 Y127.466 E25.87752
G1 X77.746 Y126.502 E25.94532
G1 X77.733 Y125.77 E25.99645
G1 X77.734 Y84.291 E28.89361
G1 X77.744 Y83.609 E28.94125
G1 X77.794 Y82.928 E28.98894
G1 X77.923 Y82.257 E29.03666
G1 X78.129 Y81.606 E29.08436
G1 X78.411 Y80.983 E29.13212
G1 X78.763 Y80.398 E29.17981
G1 X79.181 Y79.857 E29.22756
G1 X79.565 Y79.453 E29.26649
M204 S3000
M205 X10 Y10
G0 F3000 X79.849 Y79.961
M204 S1800
M205 X8 Y8
G1 F2400 X79.961 Y79.849 E29.27755
G1 X80.448 Y79.419 E29.32293
G1 X80.984 Y79.052 E29.3683
G1 X81.561 Y78.753 E29.41369
G1 X82.17 Y78.528 E29.45904
G1 X82.803 Y78.379 E29.50446
G1 X83.517 Y78.306 E29.55459
G1 X84.187 Y78.293 E29.6014
G1 X125.603 Y78.293 E32.49415
G1 X126.38 Y78.304 E32.54843
G1 X127.028 Y78.353 E32.59382
G1 X127.665 Y78.481 E32.6392
G1 X128.281 Y78.687 E32.68457
G1 X128.867 Y78.966 E32.7299
G1 X129.415 Y79.316 E32.77531
G1 X130.039 Y79.849 E32.83263
G1 X130.151 Y79.961 E32.8437
G1 X130.581 Y80.448 E32.88907
G1 X130.948 Y80.984 E32.93445
G1 X131.247 Y81.561 E32.97984
G1 X131.472 Y82.17 E33.02518
G1 X131.621 Y82.803 E33.0706
G1 X131.693 Y83.502 E33.11969
G1 X131.707 Y84.139 E33.16419
G1 X131.707 Y125.648 E36.06344
G1 X131.697 Y126.377 E36.11436
G1 X131.648 Y127.025 E36.15975
G1 X131.52 Y127.662 E36.20513
G1 X131.314 Y128.278 E36.2505
G1 X131.035 Y128.865 E36.29589
G1 X130.686 Y129.413 E36.34127
G1 X130.151 Y130.039 E36.39879
G1 X130.039 Y130.151 E36.40985
G1 X129.552 Y130.581 E36.45523
G1 X129.016 Y130.948 E36.5006
G1 X128.439 Y131.247 E36.54599
G1 X127.83 Y131.472 E36.59134
G1 X127.197 Y131.621 E36.63676
G1 X126.483 Y131.694 E36.68689
G1 X125.813 Y131.707 E36.7337
G1 X84.322 Y131.706 E39.63169
G1 X83.62 Y131.696 E39.68073
G1 X82.972 Y131.647 E39.72612
G1 X82.335 Y131.519 E39.7715
G1 X81.719 Y131.313 E39.81686
G1 X81.133 Y131.034 E39.8622
G1 X80.585 Y130.684 E39.90761
G1 X79.961 Y130.151 E39.96493
G1 X79.849 Y130.039 E39.976
G1 X79.419 Y129.552 E40.02137
G1 X79.052 Y129.016 E40.06674
G1 X78.753 Y128.439 E40.11214
G1 X78.528 Y127.83 E40.15748
G1 X78.379 Y127.197 E40.2029
G1 X78.306 Y126.483 E40.25303
G1 X78.293 Y125.763 E40.30333
G1 X78.294 Y84.3 E43.19937
G1 X78.304 Y83.618 E43.24701
G1 X78.353 Y82.97 E43.2924
G1 X78.482 Y82.333 E43.33779
G1 X78.688 Y81.717 E43.38316
G1 X78.967 Y81.131 E43.42849
G1 X79.317 Y80.583 E43.47391
G1 X79.849 Y79.961 E43.53108
M204 S3000
M205 X10 Y10
G0 F3000 X83.853 Y83.853
M204 S1800
M205 X8 Y8
;TYPE:SUPPORT
G1 F1800 X126.147 Y83.853 E46.48516
G1 X126.147 Y126.147 E49.43923
G1 X83.853 Y126.147 E52.39331
G1 X83.853 Y83.853 E55.34739
M204 S3000
M205 X10 Y10
G0 F3000 X85.181 Y85.809
M204 S1800
M205 X8 Y8
G1 F1800 X85.181 Y123.793 E58.00043
G1 X85.919 Y124.531 E58.07333
G1 X123.903 Y124.531 E60.72637
G1 X124.641 Y123.793 E60.79927
G1 X124.641 Y85.809 E63.45231
G1 X123.903 Y85.071 E63.52521
G1 X85.919 Y85.071 E66.17825
G1 X85.181 Y85.809 E66.25115
M204 S3000
M205 X10 Y10
G0 F3000 X84.959 Y89.512
M204 S1800
M205 X8 Y8
G1 F1800 X84.072 Y90.025 E66.32272
M204 S3000
M205 X10 Y10
G1 F2400 E60.32272
G0 F3000 X85.5 Y85.941
G0 X93.033 Y84.851
M204 S1800
M205 X8 Y8
G1 F2400 E66.32272
G1 F1800 X94.382 Y84.072 E66.43152
M204 S3000
M205 X10 Y10
G0 F3000 X120 Y84.073
M204 S1800
M205 X8 Y8
G1 F1800 X120 Y84.851 E66.48586
M204 S3000
M205 X10 Y10
G1 F2400 E60.48586
G0 F3000 X123.771 Y85.39
G0 X124.322 Y123.661
G0 X120 Y124.751
M204 S1800
M205 X8 Y8
G1 F2400 E66.48586
G1 F1800 X120 Y125.927 E66.568
M204 S3000
M205 X10 Y10
G0 F3000 X98.11 Y125.926
M204 S1800
M205 X8 Y8
G1 F1800 X96.075 Y124.751 E66.73213
M204 S3000
M205 X10 Y10
G1 F2400 E60.73213
G0 F3000 X86.051 Y124.212
G0 X84.96 Y118.334
M204 S1800
M205 X8 Y8
G1 F2400 E66.73213
G1 F1800 X84.072 Y117.821 E66.80376
M204 S3000
M205 X10 Y10
G1 F2400 E60.80376
;MESH:bill_enter3.stl
G0 F3000 X86.821 Y117.821
G0 X87.321 Y122.711
M204 S1800
M205 X8 Y8
;TYPE:WALL-INNER
G1 F2400 E66.80376
G1 F1800 X87.001 Y122.711 E66.82611
G1 X87.001 Y86.891 E69.328
G1 X87.321 Y86.891 E69.35035
G1 X87.321 Y122.711 E70.78001
M204 S3000
M205 X10 Y10
G0 F3000 X87.493 Y86.743
G0 X87.881 Y86.771
M204 S1800
M205 X8 Y8
;TYPE:WALL-OUTER
G1 F1800 X87.881 Y122.331 E73.26374
G1 X122.441 Y122.331 E75.67763
G1 X122.441 Y86.771 E78.16136
G1 X87.881 Y86.771 E80.57525
M204 S3000
M205 X10 Y10
G0 F3000 X87.881 Y86.971
G0 X87.936 Y86.671
G0 X122.469 Y86.743
G0 X123.311 Y123.201
G0 X123.381 Y123.271
M204 S1800
M205 X8 Y8
G1 F1800 X86.441 Y123.271 E83.15537
G1 X86.441 Y86.331 E85.73549
G1 X87.881 Y86.331 E85.83607
G1 X122.441 Y86.331 E87.7327
G1 X123.381 Y86.331 E87.79835
G1 X123.381 Y123.271 E90.37848
M204 S3000
M205 X10 Y10
G0 F3000 X123.181 Y123.271
G0 X122.8 Y122.8
M204 S1800
M205 X8 Y8
;TYPE:SKIN
G1 F1800 X122.909 Y122.627 E90.38861
G1 X122.909 Y86.988 E92.15418
G1 X122.957 Y86.753 E92.16607
M204 S3000
M205 X10 Y10
G0 F3000 X122.336 Y86.606
G0 X122.469 Y122.359
G0 X122.517 Y122.8
M204 S1800
M205 X8 Y8
G1 F1800 X122.234 Y122.8 E92.17983
G1 X88.01 Y122.8 E93.84394
G1 X87.61 Y122.965 E93.86498
M204 S3000
M205 X10 Y10
G0 F3000 X87.361 Y122.516
G1 F2400 E87.86498
;MESH:NONMESH
G0 F600 X87.361 Y122.516 Z0.6
G0 F3000 X86.815 Y86.705
G0 X85.496 Y86.705
G0 X83.773 Y83.773
;TIME_ELAPSED:53.648855
;LAYER:1
M106 S255
M204 S1800
M205 X8 Y8
;TYPE:SUPPORT
G1 F2400 E93.86498
G1 F2700 X126.227 Y83.773 E95.98302
G1 X126.227 Y126.227 E98.10106
G1 X83.773 Y126.227 E100.2191
G1 X83.773 Y83.773 E102.33714
M204 S3000
M205 X10 Y10
G0 F4500 X85.261 Y85.795
M204 S1800
M205 X8 Y8
G1 F2700 X85.261 Y123.807 E104.23356
G1 X85.905 Y124.451 E104.279
G1 X123.917 Y124.451 E106.17543
G1 X124.561 Y123.807 E106.22087
G1 X124.561 Y85.795 E108.11729
G1 X123.917 Y85.151 E108.16273
G1 X85.905 Y85.151 E110.05916
G1 X85.261 Y85.795 E110.10459
M204 S3000
M205 X10 Y10
G0 F4500 X85.119 Y89.42
M204 S1800
M205 X8 Y8
G1 F2700 X83.912 Y90.117 E110.17413
M204 S3000
M205 X10 Y10
G1 F2400 E104.17413
G0 F4500 X85.5 Y85.894
G0 X92.756 Y85.011
M204 S1800
M205 X8 Y8
G1 F2400 E110.17413
G1 F2700 X94.659 Y83.912 E110.28377
M204 S3000
M205 X10 Y10
G0 F4500 X120 Y83.913
M204 S1800
M205 X8 Y8
G1 F2700 X120 Y85.011 E110.33855
M204 S3000
M205 X10 Y10
G1 F2400 E104.33855
G0 F4500 X123.818 Y85.39
G0 X124.322 Y123.708
G0 X120 Y124.591
M204 S1800
M205 X8 Y8
G1 F2400 E110.33855
G1 F2700 X120 Y126.087 E110.41318
M204 S3000
M205 X10 Y10
G0 F4500 X98.388 Y126.086
M204 S1800
M205 X8 Y8
G1 F2700 X95.796 Y124.59 E110.56249
M204 S3000
M205 X10 Y10
G1 F2400 E104.56249
G0 F4500 X86.004 Y124.212
G0 X85.12 Y118.426
M204 S1800
M205 X8 Y8
G1 F2400 E110.56249
G1 F2700 X83.912 Y117.729 E110.63207
M204 S3000
M205 X10 Y10
G1 F2400 E104.63207
G1 F600 Z0.675
;MESH:bill_enter3.stl
G0 F4500 X122.761 Y122.651 Z0.675
M204 S1800
M205 X8 Y8
;TYPE:WALL-INNER
G1 F600 Z0.6
G1 F2400 E110.63207
G1 F2700 X122.761 Y86.651 E112.42812
G1 X123.061 Y86.651 E112.44309
G1 X123.061 Y122.651 E113.79012
G1 X123.061 Y122.951 E113.80509
G1 X122.761 Y122.951 E113.82005
G1 X87.561 Y122.951 E115.57619
G1 X86.761 Y122.951 E115.6161
G1 X86.761 Y86.651 E117.42712
G1 X87.561 Y86.651 E117.46703
G1 X87.561 Y122.651 E119.26308
G1 X122.761 Y122.651 E120.58018
M204 S3000
M205 X10 Y10
G0 F4500 X123.461 Y123.351
M204 S1800
M205 X8 Y8
;TYPE:WALL-OUTER
G1 F2700 X86.361 Y123.351 E122.4311
G1 X86.361 Y86.251 E124.28203
G1 X123.461 Y86.251 E126.13296
G1 X123.461 Y123.351 E127.98388
M204 S3000
M205 X10 Y10
G0 F4500 X123.261 Y123.351
G0 X123.191 Y123.081
G0 X122.589 Y86.823
G0 X87.961 Y86.751
G0 X87.961 Y86.851
M204 S1800
M205 X8 Y8
G1 F2700 X87.961 Y122.251 E129.75
G1 X122.361 Y122.251 E131.46622
G1 X122.361 Y86.851 E133.23233
G1 X87.961 Y86.851 E134.94856
M204 S3000
M205 X10 Y10
G0 F4500 X87.961 Y87.051
G0 X87.963 Y86.55
M204 S1800
M205 X8 Y8
;TYPE:SKIN
G1 F1800 X88.245 Y86.55 E134.956
G1 X122.469 Y86.55 E135.85953
M204 S3000
M205 X10 Y10
G0 F4500 X122.574 Y86.551
G0 X87.785 Y86.551
G0 X87.762 Y86.467
M204 S1800
M205 X8 Y8
G1 F1800 X87.16 Y87.07 E135.90223
G1 X87.16 Y122.425 E137.67413
G1 X87.239 Y122.629 E137.6851
M204 S3000
M205 X10 Y10
G0 F4500 X87.479 Y122.733
G1 F2400 E131.6851
;MESH:NONMESH
G0 F600 X87.479 Y122.733 Z0.9
G0 F4500 X86.575 Y86.465
G0 X85.749 Y85.64
G0 X83.773 Y83.773
;TIME_ELAPSED:81.558164
;LAYER:2
M204 S1800
M205 X8 Y8
;TYPE:SUPPORT
G1 F2400 E137.6851
G1 F3600 X126.227 Y83.773 E139.80313
G1 X126.227 Y126.227 E141.92117
G1 X83.773 Y126.227 E144.03921
G1 X83.773 Y83.773 E146.15725
M204 S3000
M205 X10 Y10
G0 F6000 X85.261 Y85.795
M204 S1800
M205 X8 Y8
G1 F3600 X85.261 Y123.807 E148.05368
G1 X85.905 Y124.451 E148.09911
G1 X123.917 Y124.451 E149.99554
G1 X124.561 Y123.807 E150.04098
G1 X124.561 Y85.795 E151.9374
G1 X123.917 Y85.151 E151.98284
G1 X85.905 Y85.151 E153.87927
G1 X85.261 Y85.795 E153.92471
M204 S3000
M205 X10 Y10
G0 F6000 X85.119 Y89.42
M204 S1800
M205 X8 Y8
G1 F3600 X83.912 Y90.117 E153.99424
M204 S3000
M205 X10 Y10
G1 F2400 E147.99424
G0 F6000 X85.5 Y85.894
G0 X92.756 Y85.011
M204 S1800
M205 X8 Y8
G1 F2400 E153.99424
G1 F3600 X94.659 Y83.912 E154.10388
M204 S3000
M205 X10 Y10
G0 F6000 X120 Y83.913
M204 S1800
M205 X8 Y8
G1 F3600 X120 Y85.011 E154.15866
M204 S3000
M205 X10 Y10
G1 F2400 E148.15866
G0 F6000 X123.818 Y85.39
G0 X124.322 Y123.708
G0 X120 Y124.591
M204 S1800
M205 X8 Y8
G1 F2400 E154.15866
G1 F3600 X120 Y126.087 E154.23329
M204 S3000
M205 X10 Y10
G0 F6000 X98.388 Y126.086
M204 S1800
M205 X8 Y8
G1 F3600 X95.796 Y124.59 E154.3826
M204 S3000
M205 X10 Y10
G1 F2400 E148.3826
G0 F6000 X86.004 Y124.212
G0 X85.12 Y118.426
M204 S1800
M205 X8 Y8
G1 F2400 E154.3826
G1 F3600 X83.912 Y117.729 E154.45218
M204 S3000
M205 X10 Y10
G1 F2400 E148.45218
G1 F600 Z0.975
;MESH:bill_enter3.stl
G0 F6000 X122.761 Y122.651 Z0.975
M204 S1800
M205 X8 Y8
;TYPE:WALL-INNER
G1 F600 Z0.9
G1 F2400 E154.45218
G1 F3600 X122.761 Y86.651 E156.24823
G1 X123.061 Y86.651 E156.2632
G1 X123.061 Y122.651 E157.61023
G1 X123.061 Y122.951 E157.6252
G1 X122.761 Y122.951 E157.64017
G1 X87.561 Y122.951 E159.3963
G1 X86.761 Y122.951 E159.43621
G1 X86.761 Y86.651 E161.24723
G1 X87.561 Y86.651 E161.28714
G1 X87.561 Y122.651 E163.08319
G1 X122.761 Y122.651 E164.40029
M204 S3000
M205 X10 Y10
G0 F6000 X123.461 Y123.351
M204 S1800
M205 X8 Y8
;TYPE:WALL-OUTER
G1 F3600 X86.361 Y123.351 E166.25122
G1 X86.361 Y86.251 E168.10214
G1 X123.461 Y86.251 E169.95307
G1 X123.461 Y123.351 E171.80399
M204 S3000
M205 X10 Y10
G0 F6000 X123.261 Y123.351
G0 X123.191 Y123.081
G0 X122.589 Y86.823
G0 X87.961 Y86.751
G0 X87.961 Y86.851
M204 S1800
M205 X8 Y8
G1 F3600 X87.961 Y122.251 E173.57011
G1 X122.361 Y122.251 E175.28633
G1 X122.361 Y86.851 E177.05244
G1 X87.961 Y86.851 E178.76867
M204 S3000
M205 X10 Y10
G0 F6000 X87.961 Y87.051
G0 X87.965 Y86.55
M204 S1800
M205 X8 Y8
;TYPE:SKIN
G1 F1800 X87.763 Y86.631 E178.77434
G1 X88.813 Y86.55 E178.80181
G1 X122.471 Y86.55 E179.67958
M204 S3000
M205 X10 Y10
G0 F6000 X122.576 Y86.655
G0 X87.733 Y86.823
G0 X87.246 Y86.964
M204 S1800
M205 X8 Y8
G1 F1800 X87.16 Y87.16 E179.69057
G1 X87.16 Y122.515 E181.50537
G1 X87.035 Y122.674 E181.51575
M204 S3000
M205 X10 Y10
G0 F6000 X87.116 Y122.751
G1 F2400 E175.51575
;MESH:NONMESH
G0 F600 X87.116 Y122.751 Z1.2
G0 F6000 X86.575 Y86.465
G0 X84.573 Y85.351
;TIME_ELAPSED:104.121569
;LAYER:3
M204 S1800
M205 X8 Y8
;TYPE:SUPPORT-INTERFACE
G1 F2400 E181.51575
G1 X84.573 Y84.573 E181.55456
G1 X85.351 Y84.573 E181.59338
G1 X84.573 Y85.351 E181.64827
M204 S3000
M205 X10 Y10
G0 F6000 X84.861 Y85.629
M204 S1800
M205 X8 Y8
G1 F2400 X84.861 Y123.973 E183.56126
G1 X85.739 Y124.851 E183.62321
G1 X124.083 Y124.851 E185.5362
G1 X124.961 Y123.973 E185.59814
G1 X124.961 Y85.629 E187.51113
