;FLAVOR:Marlin
;TIME:1534
;Filament used: 1.5505m
;Layer height: 0.3
;MINX:83.103
;MINY:80.1
;MINZ:0.3
;MAXX:127.357
;MAXY:129.9
;MAXZ:36.3
;Generated with Cura_SteamEngine 4.11.0
M140 S60
M105
M190 S60
M104 S200
M105
M109 S200
M82 ;absolute extrusion mode
G21 ;metric values
G90 ;absolute positioning
M82 ;set extruder to absolute mode
M107 ;start with the fan off
G28 X0 Y0 ;move X/Y to min endstops
G28 Z0 ;move Z to min endstops
G1 Z15.0 F100 ;move the platform down 15mm
G92 E0 ;zero the extruded length
G1 F200 E3 ;extrude 3mm of feed stock
G92 E0 ;zero the extruded length again
G1 F100
G0 Y20 F100
M117 Printing...
G5
G92 E0
G92 E0
G1 F2400 E-6
;LAYER_COUNT:121
;LAYER:0
M107
M204 S3000
M205 X10 Y10
G1 F600 Z0.375
G0 F3000 X88.255 Y82.051 Z0.375
M204 S1800
M205 X8 Y8
;TYPE:SKIRT
G1 F600 Z0.3
G1 F2400 E0
G1 X88.781 Y81.566 E0.04997
G1 X89.358 Y81.144 E0.0999
G1 X89.979 Y80.788 E0.1499
G1 X90.635 Y80.503 E0.19986
G1 X91.319 Y80.294 E0.24981
G1 X92.022 Y80.162 E0.29977
G1 X92.668 Y80.112 E0.34503
G1 X93.168 Y80.1 E0.37996
G1 X117.731 Y80.1 E2.09559
G1 X118.521 Y80.111 E2.15078
G1 X119.234 Y80.161 E2.2007
G1 X119.938 Y80.29 E2.25069
G1 X120.622 Y80.498 E2.30063
G1 X121.279 Y80.78 E2.35056
G1 X121.901 Y81.134 E2.40055
G1 X122.479 Y81.555 E2.4505
G1 X123.007 Y82.038 E2.50048
G1 X123.477 Y82.576 E2.55037
G1 X123.885 Y83.164 E2.60036
G1 X124.224 Y83.794 E2.65033
G1 X124.491 Y84.457 E2.70025
G1 X124.682 Y85.147 E2.75026
G1 X124.806 Y85.964 E2.80798
G1 X124.873 Y86.759 E2.8637
G1 X124.969 Y88.08 E2.95621
G1 X125.237 Y90.74 E3.14295
G1 X125.579 Y93.372 E3.32833
G1 X125.994 Y95.99 E3.51347
G1 X126.477 Y98.566 E3.69653
G1 X126.994 Y100.961 E3.86766
G1 X127.157 Y101.671 E3.91854
G1 X127.272 Y102.326 E3.96499
G1 X127.286 Y102.44 E3.97301
G1 X127.334 Y103.148 E4.02258
G1 X127.346 Y104.306 E4.10346
G1 X127.344 Y105.178 E4.16437
G1 X127.357 Y106.161 E4.23304
G1 X127.327 Y106.876 E4.28302
G1 X127.214 Y107.596 E4.33392
G1 X127.011 Y108.53 E4.40068
G1 X126.792 Y109.477 E4.46857
G1 X126.27 Y112.061 E4.6527
G1 X125.822 Y114.649 E4.83615
G1 X125.44 Y117.304 E5.0235
G1 X125.138 Y119.932 E5.20827
G1 X124.9 Y122.702 E5.40246
G1 X124.811 Y123.947 E5.48964
G1 X124.72 Y124.657 E5.53963
G1 X124.551 Y125.352 E5.58959
G1 X124.305 Y126.023 E5.63951
G1 X123.985 Y126.663 E5.68949
G1 X123.597 Y127.264 E5.73945
G1 X123.143 Y127.817 E5.78943
G1 X122.631 Y128.316 E5.83936
G1 X122.066 Y128.755 E5.88934
G1 X121.456 Y129.129 E5.93931
G1 X120.808 Y129.431 E5.98925
G1 X120.131 Y129.66 E6.03917
G1 X119.432 Y129.812 E6.08913
G1 X118.607 Y129.888 E6.147
G1 X118.108 Y129.9 E6.18186
G1 X93.453 Y129.899 E7.90392
G1 X92.755 Y129.889 E7.95268
G1 X92.042 Y129.839 E8.0026
G1 X91.338 Y129.71 E8.05259
G1 X90.654 Y129.502 E8.10253
G1 X89.997 Y129.22 E8.15246
G1 X89.375 Y128.866 E8.20245
G1 X88.797 Y128.445 E8.2524
G1 X88.269 Y127.962 E8.30238
G1 X87.799 Y127.424 E8.35227
G1 X87.391 Y126.836 E8.40226
G1 X87.052 Y126.206 E8.45223
G1 X86.785 Y125.543 E8.50215
G1 X86.574 Y124.76 E8.55879
G1 X86.491 Y124.347 E8.58822
G1 X86.087 Y122.191 E8.74143
G1 X85.536 Y119.652 E8.9229
G1 X84.895 Y117.049 E9.11014
G1 X84.183 Y114.483 E9.29613
G1 X83.889 Y113.465 E9.37014
G1 X83.718 Y112.7 E9.42489
G1 X83.652 Y112.167 E9.46241
G1 X83.608 Y111.635 E9.49969
G1 X83.514 Y110.554 E9.57548
G1 X83.366 Y108.966 E9.68688
G1 X83.318 Y108.369 E9.72871
G1 X83.235 Y107.584 E9.78384
G1 X83.154 Y106.707 E9.84536
G1 X83.127 Y106.164 E9.88333
G1 X83.117 Y104.75 E9.9821
G1 X83.115 Y104.049 E10.03106
G1 X83.103 Y103.091 E10.09798
G1 X83.122 Y102.5 E10.13928
G1 X83.163 Y101.987 E10.17523
G1 X83.184 Y101.77 E10.19045
G1 X83.286 Y100.885 E10.25268
G1 X83.365 Y100.279 E10.29536
G1 X83.579 Y98.021 E10.45378
G1 X83.697 Y96.877 E10.53411
G1 X83.81 Y96.171 E10.58405
G1 X83.946 Y95.652 E10.62152
G1 X84.02 Y95.413 E10.639
G1 X84.797 Y92.777 E10.83094
G1 X85.463 Y90.258 E11.01293
G1 X86.077 Y87.642 E11.20062
G1 X86.418 Y85.966 E11.32008
G1 X86.59 Y85.165 E11.3773
G1 X86.779 Y84.476 E11.4272
G1 X87.043 Y83.811 E11.47717
G1 X87.381 Y83.18 E11.52717
G1 X87.786 Y82.591 E11.5771
G1 X88.255 Y82.051 E11.62706
M204 S3000
M205 X10 Y10
G0 F3000 X88.765 Y82.333
M204 S1800
M205 X8 Y8
G1 F2400 X89.281 Y81.884 E11.67483
G1 X89.845 Y81.5 E11.72249
G1 X90.451 Y81.183 E11.77026
G1 X91.089 Y80.94 E11.81794
G1 X91.752 Y80.773 E11.86569
G1 X92.683 Y80.671 E11.93111
G1 X93.168 Y80.66 E11.96499
G1 X117.731 Y80.66 E13.68063
G1 X118.513 Y80.671 E13.73525
G1 X119.194 Y80.72 E13.78294
G1 X119.865 Y80.849 E13.83067
G1 X120.516 Y81.056 E13.87838
G1 X121.139 Y81.337 E13.92612
G1 X121.725 Y81.689 E13.97386
G1 X122.265 Y82.107 E14.02156
G1 X122.753 Y82.585 E14.06927
G1 X123.182 Y83.117 E14.11701
G1 X123.546 Y83.695 E14.16472
G1 X123.84 Y84.312 E14.21245
G1 X124.059 Y84.959 E14.26016
G1 X124.202 Y85.627 E14.30788
G1 X124.248 Y86.011 E14.33489
G1 X124.315 Y86.799 E14.39013
G1 X124.415 Y88.181 E14.48691
G1 X124.679 Y90.795 E14.67041
G1 X125.02 Y93.422 E14.85544
G1 X125.441 Y96.077 E15.0432
G1 X125.928 Y98.677 E15.22796
G1 X126.455 Y101.118 E15.40238
G1 X126.611 Y101.796 E15.45097
G1 X126.716 Y102.394 E15.49338
G1 X126.73 Y102.508 E15.5014
G1 X126.774 Y103.155 E15.5467
G1 X126.786 Y104.304 E15.62695
G1 X126.784 Y105.087 E15.68164
G1 X126.798 Y106.168 E15.75715
G1 X126.766 Y106.851 E15.80491
G1 X126.666 Y107.478 E15.84926
G1 X126.465 Y108.404 E15.91544
G1 X126.246 Y109.35 E15.98327
G1 X125.725 Y111.929 E16.16704
G1 X125.261 Y114.611 E16.35715
G1 X124.889 Y117.195 E16.53949
G1 X124.584 Y119.855 E16.7265
G1 X124.335 Y122.746 E16.92917
G1 X124.252 Y123.907 E17.01047
G1 X124.164 Y124.585 E17.05822
G1 X123.997 Y125.247 E17.10591
G1 X123.753 Y125.886 E17.15369
G1 X123.437 Y126.492 E17.20142
G1 X123.053 Y127.056 E17.24908
G1 X122.604 Y127.572 E17.29685
G1 X122.099 Y128.032 E17.34457
G1 X121.544 Y128.43 E17.39227
G1 X120.946 Y128.76 E17.43997
G1 X120.313 Y129.018 E17.48772
G1 X119.655 Y129.201 E17.53542
G1 X118.979 Y129.305 E17.58319
G1 X118.273 Y129.338 E17.63256
G1 X118.108 Y129.34 E17.64408
G1 X93.461 Y129.339 E19.36558
G1 X92.763 Y129.329 E19.41434
G1 X92.082 Y129.28 E19.46203
G1 X91.411 Y129.151 E19.50976
G1 X90.76 Y128.944 E19.55747
G1 X90.137 Y128.663 E19.60521
G1 X89.551 Y128.311 E19.65295
G1 X89.011 Y127.893 E19.70065
G1 X88.523 Y127.415 E19.74836
G1 X88.094 Y126.883 E19.79609
G1 X87.73 Y126.305 E19.8438
G1 X87.436 Y125.688 E19.89154
G1 X87.217 Y125.041 E19.93925
G1 X87.058 Y124.328 E19.99027
G1 X86.641 Y122.105 E20.14825
G1 X86.078 Y119.509 E20.33379
G1 X85.446 Y116.941 E20.5185
G1 X84.706 Y114.274 E20.71182
G1 X84.427 Y113.309 E20.78198
G1 X84.271 Y112.612 E20.83187
G1 X84.21 Y112.12 E20.8665
G1 X84.166 Y111.588 E20.90378
G1 X84.072 Y110.506 E20.97964
G1 X83.925 Y108.921 E21.09082
G1 X83.879 Y108.343 E21.13132
G1 X83.793 Y107.532 E21.18829
G1 X83.712 Y106.655 E21.2498
G1 X83.687 Y106.16 E21.28442
G1 X83.677 Y104.749 E21.38298
G1 X83.675 Y104.105 E21.42796
G1 X83.662 Y103.084 E21.49928
G1 X83.681 Y102.545 E21.53695
G1 X83.722 Y102.032 E21.57289
G1 X83.741 Y101.833 E21.58685
G1 X83.842 Y100.957 E21.64844
G1 X83.917 Y100.377 E21.68929
G1 X84.136 Y98.079 E21.85053
G1 X84.254 Y96.935 E21.93085
G1 X84.364 Y96.26 E21.97862
G1 X84.553 Y95.583 E22.02772
G1 X85.334 Y92.934 E22.22061
G1 X86.008 Y90.385 E22.40477
G1 X86.62 Y87.778 E22.59181
G1 X86.965 Y86.084 E22.71256
G1 X87.137 Y85.283 E22.76978
G1 X87.319 Y84.624 E22.81753
G1 X87.577 Y83.992 E22.86521
G1 X87.907 Y83.394 E22.91292
G1 X88.305 Y82.838 E22.96068
G1 X88.765 Y82.333 E23.00839
M204 S3000
M205 X10 Y10
G0 F3000 X89.272 Y82.623
M204 S1800
M205 X8 Y8
G1 F2400 X89.777 Y82.214 E23.05378
G1 X90.327 Y81.869 E23.09913
G1 X90.916 Y81.595 E23.1445
G1 X91.534 Y81.395 E23.18987
G1 X92.172 Y81.272 E23.23525
G1 X92.699 Y81.231 E23.27217
G1 X93.168 Y81.22 E23.30494
G1 X117.731 Y81.22 E25.02057
G1 X118.505 Y81.231 E25.07464
G1 X119.152 Y81.28 E25.11996
G1 X119.789 Y81.408 E25.16534
G1 X120.405 Y81.614 E25.21071
G1 X120.992 Y81.894 E25.25613
G1 X121.539 Y82.243 E25.30145
G1 X122.04 Y82.657 E25.34685
G1 X122.485 Y83.13 E25.39221
G1 X122.87 Y83.654 E25.43762
G1 X123.187 Y84.221 E25.48299
G1 X123.432 Y84.822 E25.52833
G1 X123.601 Y85.449 E25.57368
G1 X123.69 Y86.059 E25.61674
G1 X123.756 Y86.84 E25.67148
G1 X123.855 Y88.205 E25.76708
G1 X124.122 Y90.853 E25.95297
G1 X124.468 Y93.513 E26.14032
G1 X124.887 Y96.158 E26.32737
G1 X125.388 Y98.832 E26.51739
G1 X125.902 Y101.213 E26.68752
G1 X126.065 Y101.922 E26.73834
G1 X126.161 Y102.462 E26.77664
G1 X126.175 Y102.576 E26.78467
G1 X126.214 Y103.161 E26.82562
G1 X126.226 Y104.303 E26.90539
G1 X126.224 Y105.095 E26.9607
G1 X126.238 Y106.176 E27.03622
G1 X126.206 Y106.824 E27.08153
G1 X126.119 Y107.36 E27.11946
G1 X125.92 Y108.278 E27.18507
G1 X125.701 Y109.223 E27.25282
G1 X125.168 Y111.861 E27.4408
G1 X124.71 Y114.511 E27.62863
G1 X124.329 Y117.155 E27.81522
G1 X124.028 Y119.778 E27.99963
G1 X123.78 Y122.659 E28.2016
G1 X123.694 Y123.867 E28.28618
G1 X123.607 Y124.511 E28.33157
G1 X123.443 Y125.14 E28.37698
G1 X123.203 Y125.743 E28.42231
G1 X122.89 Y126.313 E28.46773
G1 X122.51 Y126.839 E28.51305
G1 X122.067 Y127.315 E28.55847
G1 X121.57 Y127.733 E28.60383
G1 X121.025 Y128.087 E28.64922
G1 X120.441 Y128.372 E28.69461
G1 X119.827 Y128.582 E28.73993
G1 X119.191 Y128.715 E28.78531
G1 X118.576 Y128.769 E28.82843
G1 X118.108 Y128.78 E28.86113
G1 X93.469 Y128.779 E30.58207
G1 X92.771 Y128.769 E30.63083
G1 X92.124 Y128.72 E30.67615
G1 X91.487 Y128.592 E30.72153
G1 X90.871 Y128.386 E30.7669
G1 X90.284 Y128.106 E30.81233
G1 X89.737 Y127.757 E30.85765
G1 X89.236 Y127.343 E30.90304
G1 X88.791 Y126.87 E30.9484
G1 X88.406 Y126.346 E30.99382
G1 X88.089 Y125.779 E31.03919
G1 X87.844 Y125.178 E31.08452
G1 X87.672 Y124.538 E31.13081
G1 X87.592 Y124.141 E31.15909
G1 X87.188 Y121.987 E31.31217
G1 X86.62 Y119.366 E31.49948
G1 X85.986 Y116.793 E31.68457
G1 X85.259 Y114.172 E31.87455
G1 X84.965 Y113.154 E31.94856
G1 X84.824 Y112.523 E31.99372
G1 X84.768 Y112.074 E32.02533
G1 X84.724 Y111.542 E32.06261
G1 X84.63 Y110.458 E32.13861
G1 X84.483 Y108.876 E32.24958
G1 X84.435 Y108.275 E32.29169
G1 X84.35 Y107.481 E32.34747
G1 X84.269 Y106.604 E32.40898
G1 X84.247 Y106.156 E32.44031
G1 X84.237 Y104.747 E32.53873
G1 X84.235 Y104.098 E32.58406
G1 X84.222 Y103.077 E32.65538
G1 X84.239 Y102.589 E32.68948
G1 X84.28 Y102.076 E32.72543
G1 X84.297 Y101.897 E32.73799
G1 X84.397 Y101.029 E32.79901
G1 X84.477 Y100.415 E32.84226
G1 X84.693 Y98.136 E33.00216
G1 X84.811 Y96.992 E33.08248
G1 X84.917 Y96.351 E33.12786
G1 X85.108 Y95.682 E33.17646
G1 X85.86 Y93.134 E33.36201
G1 X86.562 Y90.479 E33.55383
G1 X87.162 Y87.921 E33.73735
G1 X87.513 Y86.201 E33.85996
G1 X87.685 Y85.4 E33.91718
G1 X87.86 Y84.775 E33.96251
G1 X88.111 Y84.176 E34.00787
G1 X88.433 Y83.612 E34.05324
G1 X88.822 Y83.092 E34.09859
G1 X89.272 Y82.623 E34.14399
M204 S3000
M205 X10 Y10
G0 F3000 X91.334 Y97.596
M204 S1800
M205 X8 Y8
;TYPE:SUPPORT
G1 F1800 X91.226 Y98.114 E34.18095
G1 X90.541 Y97.729 E34.23583
G1 X91.334 Y97.596 E34.292
M204 S3000
M205 X10 Y10
G0 F3000 X91.652 Y99.392
M204 S1800
M205 X8 Y8
G1 F1800 X91.858 Y99.427 E34.30659
G1 X91.858 Y108.57 E34.94519
G1 X90.782 Y108.673 E35.02069
G1 X90.409 Y109.218 E35.06682
G1 X90.521 Y109.608 E35.09516
G1 X90.172 Y109.488 E35.12094
G1 X90.324 Y108.727 E35.17514
G1 X90.305 Y108.67 E35.17934
G1 X90.724 Y108.302 E35.21829
G1 X90.793 Y107.69 E35.26131
G1 X89.91 Y106.465 E35.36678
G1 X89.799 Y106.103 E35.39323
G1 X89.817 Y105.278 E35.45086
G1 X89.864 Y104.9 E35.47747
G1 X89.893 Y104.344 E35.51635
G1 X89.863 Y103.873 E35.54932
G1 X89.779 Y103.165 E35.59912
G1 X89.784 Y102.77 E35.62671
G1 X89.884 Y102.4 E35.65348
G1 X90.124 Y102.092 E35.68075
G1 X90.54 Y101.833 E35.71498
G1 X91.652 Y99.392 E35.90233
M204 S3000
M205 X10 Y10
G0 F3000 X90.802 Y110.595
M204 S1800
M205 X8 Y8
G1 F1800 X91.031 Y111.395 E35.96045
G1 X90.421 Y111.462 E36.00331
G1 X90.802 Y110.595 E36.06946
M204 S3000
M205 X10 Y10
G1 F2400 E30.06946
G0 F3000 X92.177 Y123.61
G0 X118.548 Y124.161
G0 X119.418 Y106.87
M204 S1800
M205 X8 Y8
G1 F2400 E36.06946
G1 F1800 X119.418 Y102.571 E36.36973
G1 X120.072 Y103.488 E36.4484
G1 X120.645 Y103.593 E36.48909
G1 X120.588 Y104.467 E36.55026
G1 X120.685 Y106.216 E36.67261
G1 X120.476 Y106.738 E36.71189
G1 X120.147 Y106.619 E36.73632
G1 X119.608 Y106.713 E36.77454
G1 X119.418 Y106.87 E36.79175
M204 S3000
M205 X10 Y10
G0 F3000 X120 Y106.422
M204 S1800
M205 X8 Y8
G1 F1800 X120 Y103.699 E36.98194
M204 S3000
M205 X10 Y10
G1 F2400 E30.98194
;MESH:man.woman.stl
G0 F3000 X117.578 Y103.699
G0 X117.038 Y122.1
M204 S1800
M205 X8 Y8
;TYPE:WALL-INNER
G1 F2400 E36.98194
G1 F1800 X94.238 Y122.1 E38.57444
G1 X94.238 Y87.9 E40.96318
G1 X117.038 Y87.9 E42.55568
G1 X117.038 Y122.1 E44.94442
M204 S3000
M205 X10 Y10
G0 F3000 X117.598 Y122.66
M204 S1800
M205 X8 Y8
G1 F1800 X93.678 Y122.66 E46.61514
G1 X93.678 Y87.34 E49.08211
G1 X117.598 Y87.34 E50.75284
G1 X117.598 Y122.66 E53.21981
M204 S3000
M205 X10 Y10
G0 F3000 X118.158 Y123.22
M204 S1800
M205 X8 Y8
;TYPE:WALL-OUTER
G1 F1800 X93.118 Y123.22 E54.96876
G1 X93.118 Y86.78 E57.51396
G1 X118.158 Y86.78 E59.26291
G1 X118.158 Y123.22 E61.80811
M204 S3000
M205 X10 Y10
G0 F3000 X117.958 Y123.22
G0 X117.528 Y122.59
G0 X116.488 Y121.55
M204 S1800
M205 X8 Y8
;TYPE:SKIN
G1 F1800 X94.788 Y121.55 E63.32377
G1 X94.788 Y88.45 E65.63568
G1 X116.488 Y88.45 E67.15135
G1 X116.488 Y121.55 E69.46326
M204 S3000
M205 X10 Y10
G0 F3000 X95.154 Y121.289
M204 S1800
M205 X8 Y8
G1 F1800 X95.047 Y121.182 E69.47383
M204 S3000
M205 X10 Y10
G0 F3000 X95.047 Y120.39
M204 S1800
M205 X8 Y8
G1 F1800 X95.946 Y121.289 E69.56263
M204 S3000
M205 X10 Y10
G0 F3000 X96.738 Y121.289
M204 S1800
M205 X8 Y8
G1 F1800 X95.047 Y119.598 E69.72966
M204 S3000
M205 X10 Y10
G0 F3000 X95.047 Y118.806
M204 S1800
M205 X8 Y8
G1 F1800 X97.53 Y121.289 E69.97493
M204 S3000
M205 X10 Y10
G0 F3000 X98.322 Y121.289
M204 S1800
M205 X8 Y8
G1 F1800 X95.047 Y118.014 E70.29842
M204 S3000
M205 X10 Y10
G0 F3000 X95.047 Y117.222
M204 S1800
M205 X8 Y8
G1 F1800 X99.114 Y121.289 E70.70015
M204 S3000
M205 X10 Y10
G0 F3000 X99.906 Y121.289
M204 S1800
M205 X8 Y8
G1 F1800 X95.047 Y116.43 E71.18011
M204 S3000
M205 X10 Y10
G0 F3000 X95.047 Y115.638
M204 S1800
M205 X8 Y8
G1 F1800 X100.698 Y121.289 E71.7383
M204 S3000
M205 X10 Y10
G0 F3000 X101.49 Y121.289
M204 S1800
M205 X8 Y8
G1 F1800 X95.047 Y114.846 E72.37473
M204 S3000
M205 X10 Y10
G0 F3000 X95.047 Y114.054
M204 S1800
M205 X8 Y8
G1 F1800 X102.282 Y121.289 E73.08938
M204 S3000
M205 X10 Y10
G0 F3000 X103.074 Y121.289
M204 S1800
M205 X8 Y8
G1 F1800 X95.047 Y113.262 E73.88227
M204 S3000
M205 X10 Y10
G0 F3000 X95.047 Y112.47
M204 S1800
M205 X8 Y8
G1 F1800 X103.866 Y121.289 E74.75339
M204 S3000
M205 X10 Y10
G0 F3000 X104.658 Y121.289
M204 S1800
M205 X8 Y8
G1 F1800 X95.047 Y111.679 E75.70269
M204 S3000
M205 X10 Y10
G0 F3000 X95.047 Y110.887
M204 S1800
M205 X8 Y8
G1 F1800 X105.45 Y121.289 E76.73023
M204 S3000
M205 X10 Y10
G0 F3000 X106.242 Y121.289
M204 S1800
M205 X8 Y8
G1 F1800 X95.047 Y110.095 E77.83599
M204 S3000
M205 X10 Y10
G0 F3000 X95.047 Y109.303
M204 S1800
M205 X8 Y8
G1 F1800 X107.034 Y121.289 E79.01999
M204 S3000
M205 X10 Y10
G0 F3000 X107.826 Y121.289
M204 S1800
M205 X8 Y8
G1 F1800 X95.047 Y108.511 E80.28222
M204 S3000
M205 X10 Y10
G0 F3000 X95.047 Y107.719
M204 S1800
M205 X8 Y8
G1 F1800 X108.617 Y121.289 E81.62263
M204 S3000
M205 X10 Y10
G0 F3000 X109.409 Y121.289
M204 S1800
M205 X8 Y8
G1 F1800 X95.047 Y106.927 E83.04127
M204 S3000
M205 X10 Y10
G0 F3000 X95.047 Y106.135
M204 S1800
M205 X8 Y8
G1 F1800 X110.201 Y121.289 E84.53815
M204 S3000
M205 X10 Y10
G0 F3000 X110.993 Y121.289
M204 S1800
M205 X8 Y8
G1 F1800 X95.047 Y105.343 E86.11325
M204 S3000
M205 X10 Y10
G0 F3000 X95.047 Y104.55
M204 S1800
M205 X8 Y8
G1 F1800 X111.785 Y121.289 E87.76664
M204 S3000
M205 X10 Y10
G0 F3000 X112.577 Y121.289
M204 S1800
M205 X8 Y8
G1 F1800 X95.047 Y103.758 E89.49826
M204 S3000
M205 X10 Y10
G0 F3000 X95.047 Y102.966
M204 S1800
M205 X8 Y8
G1 F1800 X113.369 Y121.289 E91.30811
M204 S3000
M205 X10 Y10
G0 F3000 X114.161 Y121.289
M204 S1800
M205 X8 Y8
G1 F1800 X95.047 Y102.174 E93.1962
M204 S3000
M205 X10 Y10
