;FLAVOR:Marlin
;TIME:2574
;Filament used: 4.20714m
;Layer height: 0.3
;MINX:74.593
;MINY:71
;MINZ:0.3
;MAXX:135.405
;MAXY:138.987
;MAXZ:32.1
;Generated with Cura_SteamEngine 4.11.0
M140 S60
M105
M190 S60
M104 S200
M105
M109 S200
M82 ;absolute extrusion mode
G21 ;metric values
G90 ;absolute positioning
M82 ;set extruder to absolute mode
M107 ;start with the fan off
G28 X0 Y0 ;move X/Y to min endstops
G28 Z0 ;move Z to min endstops
G1 Z15.0 F100 ;move the platform down 15mm
G92 E0 ;zero the extruded length
G1 F200 E3 ;extrude 3mm of feed stock
G92 E0 ;zero the extruded length again
G1 F100
G0 Y20 F100
M117 Printing...
G5
G92 E0
G92 E0
G1 F2400 E-6
;LAYER_COUNT:107
;LAYER:0
M107
M204 S3000
M205 X10 Y10
G1 F600 Z0.375
G0 F3000 X81.4 Y77.727 Z0.375
M204 S1800
M205 X8 Y8
;TYPE:SKIRT
G1 F600 Z0.3
G1 F2400 E0
G1 X81.771 Y77.348 E0.03704
G1 X82.175 Y76.955 E0.07641
G1 X82.284 Y76.852 E0.08688
G1 X82.825 Y76.355 E0.1382
G1 X83.206 Y76.024 E0.17345
G1 X83.897 Y75.453 E0.23606
G1 X84.14 Y75.263 E0.2576
G1 X84.849 Y74.732 E0.31947
G1 X85.165 Y74.507 E0.34657
G1 X85.861 Y74.033 E0.40538
G1 X86.255 Y73.779 E0.43813
G1 X87.001 Y73.322 E0.49923
G1 X87.257 Y73.173 E0.51992
G1 X88.454 Y72.514 E0.61536
G1 X88.681 Y72.395 E0.63326
G1 X89.78 Y71.846 E0.71907
G1 X90.328 Y71.591 E0.76128
G1 X90.994 Y71.33 E0.81124
G1 X91.686 Y71.146 E0.86126
G1 X92.712 Y71.018 E0.93348
G1 X93.471 Y71 E0.9865
G1 X116.281 Y71 E2.5797
G1 X117.086 Y71.012 E2.63593
G1 X117.799 Y71.063 E2.68586
G1 X118.503 Y71.193 E2.73586
G1 X119.187 Y71.401 E2.7858
G1 X119.844 Y71.684 E2.83576
G1 X120.419 Y72.003 E2.88169
G1 X120.671 Y72.156 E2.90228
G1 X121.751 Y72.848 E2.99187
G1 X121.913 Y72.956 E3.00547
G1 X122.527 Y73.377 E3.05747
G1 X122.746 Y73.535 E3.07633
G1 X123.729 Y74.271 E3.1621
G1 X124.188 Y74.633 E3.20293
G1 X124.601 Y74.977 E3.24047
G1 X125.395 Y75.671 E3.31413
G1 X125.566 Y75.826 E3.33025
G1 X126.229 Y76.449 E3.3938
G1 X126.416 Y76.632 E3.41207
G1 X127.072 Y77.301 E3.47751
G1 X127.241 Y77.481 E3.49476
G1 X127.88 Y78.185 E3.56117
G1 X128.042 Y78.37 E3.57834
G1 X128.535 Y78.957 E3.63188
G1 X128.698 Y79.159 E3.65001
G1 X129.307 Y79.947 E3.71957
G1 X129.467 Y80.163 E3.73835
G1 X129.959 Y80.858 E3.79782
G1 X130.095 Y81.059 E3.81477
G1 X130.564 Y81.778 E3.87473
G1 X130.698 Y81.993 E3.89243
G1 X131.201 Y82.835 E3.96093
G1 X131.332 Y83.065 E3.97942
G1 X131.708 Y83.758 E4.03449
G1 X131.817 Y83.967 E4.05095
G1 X132.235 Y84.81 E4.11667
G1 X132.347 Y85.049 E4.13511
G1 X132.743 Y85.938 E4.20308
G1 X132.832 Y86.146 E4.21889
G1 X133.132 Y86.889 E4.27485
G1 X133.211 Y87.097 E4.29039
G1 X133.494 Y87.875 E4.34822
G1 X133.565 Y88.081 E4.36344
G1 X133.875 Y89.033 E4.43337
G1 X133.94 Y89.245 E4.44885
G1 X134.165 Y90.027 E4.50569
G1 X134.224 Y90.243 E4.52133
G1 X134.456 Y91.17 E4.58807
G1 X134.499 Y91.355 E4.60134
G1 X134.691 Y92.232 E4.66405
G1 X134.734 Y92.447 E4.67936
G1 X134.908 Y93.396 E4.74675
G1 X134.942 Y93.598 E4.76106
G1 X135.071 Y94.456 E4.82166
G1 X135.097 Y94.651 E4.8354
G1 X135.199 Y95.507 E4.89561
G1 X135.22 Y95.711 E4.90993
G1 X135.306 Y96.703 E4.97948
G1 X135.32 Y96.9 E4.99328
G1 X135.373 Y97.851 E5.0598
G1 X135.381 Y98.038 E5.07288
G1 X135.403 Y98.873 E5.13122
G1 X135.405 Y99.085 E5.14603
G1 X135.398 Y100.122 E5.21846
G1 X135.393 Y100.335 E5.23334
G1 X135.354 Y101.311 E5.30156
G1 X135.342 Y101.516 E5.31591
G1 X135.269 Y102.527 E5.38671
G1 X135.251 Y102.732 E5.40108
G1 X135.152 Y103.678 E5.46752
G1 X135.127 Y103.887 E5.48222
G1 X134.981 Y104.945 E5.55681
G1 X134.951 Y105.142 E5.57073
G1 X134.779 Y106.154 E5.64243
G1 X134.741 Y106.358 E5.65692
G1 X134.515 Y107.469 E5.73611
G1 X134.471 Y107.669 E5.75042
G1 X134.239 Y108.648 E5.82069
G1 X134.19 Y108.838 E5.83439
G1 X133.888 Y109.958 E5.91542
G1 X133.837 Y110.138 E5.92848
G1 X133.486 Y111.303 E6.01347
G1 X133.425 Y111.494 E6.02747
G1 X133.043 Y112.632 E6.11132
G1 X132.981 Y112.808 E6.12435
G1 X132.559 Y113.953 E6.20958
G1 X132.494 Y114.123 E6.22229
G1 X132.021 Y115.302 E6.31102
G1 X131.949 Y115.473 E6.32398
G1 X131.408 Y116.716 E6.41867
G1 X131.335 Y116.879 E6.43114
G1 X130.769 Y118.086 E6.52426
G1 X130.689 Y118.251 E6.53706
G1 X130.099 Y119.421 E6.62859
G1 X130.019 Y119.574 E6.64065
G1 X129.364 Y120.79 E6.73712
G1 X129.267 Y120.963 E6.75097
G1 X128.544 Y122.211 E6.85171
G1 X128.447 Y122.373 E6.8649
G1 X127.705 Y123.571 E6.96332
G1 X127.597 Y123.74 E6.97733
G1 X126.804 Y124.935 E7.0775
G1 X126.683 Y125.11 E7.09236
G1 X125.8 Y126.349 E7.19863
G1 X125.665 Y126.531 E7.21446
G1 X124.824 Y127.627 E7.31095
G1 X124.674 Y127.816 E7.3278
G1 X123.738 Y128.945 E7.43024
G1 X123.567 Y129.142 E7.44846
G1 X122.437 Y130.397 E7.56641
G1 X122.286 Y130.56 E7.58193
G1 X121.758 Y131.107 E7.63503
G1 X121.158 Y131.695 E7.69371
G1 X120.724 Y132.106 E7.73546
G1 X120.083 Y132.687 E7.79588
G1 X119.931 Y132.821 E7.81004
G1 X119.363 Y133.304 E7.86211
G1 X118.862 Y133.712 E7.90724
G1 X118.706 Y133.834 E7.92107
G1 X118.037 Y134.343 E7.97979
G1 X117.886 Y134.455 E7.99292
G1 X117.327 Y134.855 E8.04093
G1 X116.86 Y135.173 E8.08039
G1 X116.671 Y135.296 E8.09614
G1 X115.778 Y135.854 E8.16969
G1 X115.183 Y136.203 E8.21787
G1 X114.67 Y136.484 E8.25873
G1 X114.481 Y136.582 E8.2736
G1 X113.937 Y136.854 E8.31608
G1 X113.723 Y136.957 E8.33266
G1 X113.153 Y137.216 E8.37639
G1 X112.944 Y137.306 E8.39229
G1 X112.153 Y137.632 E8.45204
G1 X111.503 Y137.87 E8.50039
G1 X110.369 Y138.227 E8.58343
G1 X109.649 Y138.425 E8.63559
G1 X109.091 Y138.554 E8.67559
G1 X108.797 Y138.614 E8.69655
G1 X108.188 Y138.725 E8.73978
G1 X107.907 Y138.77 E8.75966
G1 X107.3 Y138.853 E8.80245
G1 X106.566 Y138.926 E8.85397
G1 X106.192 Y138.95 E8.88015
G1 X105.055 Y138.987 E8.95961
G1 X104.53 Y138.986 E8.99628
G1 X104.257 Y138.977 E9.01535
G1 X103.663 Y138.944 E9.05691
G1 X103.385 Y138.923 E9.07638
G1 X102.801 Y138.865 E9.11737
G1 X102.502 Y138.828 E9.13841
G1 X101.904 Y138.74 E9.18063
G1 X101.177 Y138.606 E9.23226
G1 X100.839 Y138.531 E9.25645
G1 X99.683 Y138.242 E9.33967
G1 X99.062 Y138.058 E9.38491
G1 X98.215 Y137.766 E9.44749
G1 X97.982 Y137.68 E9.46484
G1 X97.213 Y137.381 E9.52247
G1 X96.706 Y137.167 E9.5609
G1 X96.452 Y137.051 E9.58041
G1 X95.943 Y136.805 E9.61989
G1 X95.382 Y136.515 E9.664
G1 X94.385 Y135.962 E9.74363
G1 X93.762 Y135.591 E9.79428
G1 X93.247 Y135.265 E9.83685
G1 X93.061 Y135.141 E9.85246
G1 X92.284 Y134.605 E9.9184
G1 X91.757 Y134.222 E9.9639
G1 X91.598 Y134.102 E9.97781
G1 X90.901 Y133.557 E10.03961
G1 X90.75 Y133.435 E10.05317
G1 X90.167 Y132.95 E10.10614
G1 X89.715 Y132.557 E10.14797
G1 X89.463 Y132.329 E10.17171
G1 X88.73 Y131.649 E10.24155
G1 X88.314 Y131.242 E10.28219
G1 X87.548 Y130.462 E10.35855
G1 X87.415 Y130.322 E10.37204
G1 X87.003 Y129.874 E10.41455
G1 X86.341 Y129.135 E10.48385
G1 X86.035 Y128.775 E10.51685
G1 X84.906 Y127.381 E10.64214
G1 X84.757 Y127.19 E10.65906
G1 X83.945 Y126.106 E10.75366
G1 X83.807 Y125.915 E10.77012
G1 X82.935 Y124.657 E10.87703
G1 X82.816 Y124.478 E10.89205
G1 X82.04 Y123.274 E10.9921
G1 X81.928 Y123.095 E11.00684
G1 X81.216 Y121.906 E11.10364
G1 X81.117 Y121.735 E11.11744
G1 X80.434 Y120.51 E11.21541
G1 X80.338 Y120.33 E11.22965
G1 X79.715 Y119.124 E11.32446
G1 X79.631 Y118.956 E11.33758
G1 X79.049 Y117.743 E11.43155
G1 X78.965 Y117.562 E11.44549
G1 X78.435 Y116.363 E11.53705
G1 X78.362 Y116.191 E11.5501
G1 X77.857 Y114.952 E11.64356
G1 X77.788 Y114.774 E11.65689
G1 X77.346 Y113.59 E11.74516
G1 X77.281 Y113.407 E11.75873
G1 X76.903 Y112.292 E11.84096
G1 X76.848 Y112.121 E11.85351
G1 X76.498 Y110.985 E11.93653
G1 X76.447 Y110.811 E11.9492
G1 X76.131 Y109.671 E12.03182
G1 X76.083 Y109.489 E12.04497
G1 X75.834 Y108.476 E12.11783
G1 X75.797 Y108.315 E12.12937
G1 X75.541 Y107.144 E12.21309
G1 X75.505 Y106.969 E12.22557
G1 X75.315 Y105.967 E12.2968
G1 X75.285 Y105.799 E12.30872
G1 X75.126 Y104.818 E12.37814
G1 X75.101 Y104.65 E12.39
G1 X74.956 Y103.575 E12.46576
G1 X74.828 Y102.421 E12.54686
G1 X74.813 Y102.269 E12.55753
G1 X74.747 Y101.497 E12.61165
G1 X74.735 Y101.319 E12.62411
G1 X74.639 Y99.648 E12.74101
G1 X74.622 Y99.209 E12.7717
G1 X74.595 Y98.155 E12.84534
G1 X74.593 Y97.962 E12.85882
G1 X74.597 Y97.211 E12.91128
G1 X74.619 Y96.032 E12.99364
G1 X74.626 Y95.831 E13.00769
G1 X74.681 Y94.739 E13.08406
G1 X74.71 Y94.266 E13.11716
G1 X74.766 Y93.578 E13.16537
G1 X74.869 Y92.601 E13.23399
G1 X74.89 Y92.426 E13.2463
G1 X75.006 Y91.556 E13.3076
G1 X75.036 Y91.354 E13.32187
G1 X75.164 Y90.583 E13.37645
G1 X75.203 Y90.373 E13.39137
G1 X75.405 Y89.365 E13.46318
G1 X75.456 Y89.134 E13.4797
G1 X75.702 Y88.106 E13.55353
G1 X75.755 Y87.898 E13.56852
G1 X75.901 Y87.367 E13.60699
G1 X75.981 Y87.098 E13.62659
G1 X76.246 Y86.277 E13.68685
G1 X76.335 Y86.021 E13.70578
G1 X76.62 Y85.251 E13.76312
G1 X76.777 Y84.859 E13.79262
G1 X77.105 Y84.097 E13.85056
G1 X77.232 Y83.821 E13.87178
G1 X77.554 Y83.161 E13.92308
G1 X77.802 Y82.686 E13.9605
G1 X78.188 Y81.992 E14.01597
G1 X78.375 Y81.678 E14.04149
G1 X78.661 Y81.218 E14.07933
G1 X78.988 Y80.719 E14.121
G1 X79.091 Y80.567 E14.13382
G1 X79.419 Y80.101 E14.17363
G1 X79.759 Y79.644 E14.21341
G1 X80.101 Y79.209 E14.25206
G1 X80.476 Y78.755 E14.29319
G1 X80.587 Y78.625 E14.30513
G1 X80.949 Y78.213 E14.34343
G1 X81.4 Y77.727 E14.38974
M204 S3000
M205 X10 Y10
G0 F3000 X81.8 Y78.119
M204 S1800
M205 X8 Y8
G1 F2400 X82.293 Y77.618 E14.43884
G1 X82.663 Y77.264 E14.4746
G1 X83.204 Y76.767 E14.52592
G1 X83.563 Y76.455 E14.55914
G1 X84.244 Y75.892 E14.62085
G1 X84.476 Y75.712 E14.64136
G1 X85.185 Y75.181 E14.70323
G1 X85.481 Y74.97 E14.72862
G1 X86.284 Y74.425 E14.79641
G1 X86.547 Y74.256 E14.81824
G1 X87.293 Y73.799 E14.87935
G1 X87.527 Y73.663 E14.89825
G1 X88.724 Y73.004 E14.99369
G1 X88.931 Y72.896 E15.01
G1 X90.03 Y72.347 E15.0958
G1 X90.561 Y72.1 E15.13671
G1 X91.198 Y71.853 E15.18443
G1 X91.86 Y71.682 E15.23218
G1 X92.736 Y71.577 E15.29381
G1 X93.478 Y71.56 E15.34565
G1 X116.281 Y71.56 E16.93835
G1 X117.077 Y71.572 E16.99395
G1 X117.758 Y71.622 E17.04165
G1 X118.429 Y71.752 E17.08939
G1 X119.08 Y71.959 E17.1371
G1 X119.907 Y72.354 E17.20111
G1 X120.369 Y72.628 E17.23863
G1 X121.449 Y73.32 E17.32822
G1 X121.596 Y73.418 E17.34056
G1 X122.203 Y73.834 E17.39196
G1 X122.41 Y73.983 E17.40977
G1 X123.393 Y74.719 E17.49554
G1 X123.832 Y75.065 E17.53458
G1 X124.232 Y75.399 E17.57098
G1 X125.026 Y76.093 E17.64464
G1 X125.182 Y76.234 E17.65933
G1 X125.845 Y76.857 E17.72287
G1 X126.016 Y77.024 E17.73956
G1 X126.672 Y77.693 E17.80501
G1 X126.826 Y77.857 E17.82072
G1 X127.465 Y78.561 E17.88713
G1 X127.613 Y78.73 E17.90282
G1 X128.106 Y79.317 E17.95636
G1 X128.255 Y79.502 E17.97295
G1 X128.864 Y80.29 E18.04251
G1 X129.01 Y80.487 E18.05964
G1 X129.502 Y81.182 E18.11911
G1 X129.626 Y81.365 E18.13455
G1 X130.095 Y82.084 E18.19451
G1 X130.218 Y82.28 E18.21068
G1 X130.721 Y83.122 E18.27918
G1 X130.84 Y83.332 E18.29604
G1 X131.216 Y84.025 E18.35111
G1 X131.315 Y84.216 E18.36613
G1 X131.733 Y85.059 E18.43186
G1 X131.836 Y85.277 E18.4487
G1 X132.232 Y86.166 E18.51667
G1 X132.312 Y86.355 E18.53101
G1 X132.612 Y87.098 E18.58697
G1 X132.685 Y87.289 E18.60125
G1 X132.968 Y88.067 E18.65908
G1 X133.033 Y88.255 E18.67297
G1 X133.343 Y89.207 E18.7429
G1 X133.402 Y89.4 E18.757
G1 X133.627 Y90.182 E18.81383
G1 X133.68 Y90.379 E18.82808
G1 X133.912 Y91.306 E18.89483
G1 X133.952 Y91.475 E18.90696
G1 X134.144 Y92.352 E18.96966
G1 X134.183 Y92.548 E18.98362
G1 X134.357 Y93.497 E19.05101
G1 X134.388 Y93.682 E19.06411
G1 X134.517 Y94.54 E19.12471
G1 X134.541 Y94.717 E19.13719
G1 X134.643 Y95.573 E19.1974
G1 X134.662 Y95.76 E19.21053
G1 X134.748 Y96.752 E19.28008
G1 X134.761 Y96.931 E19.29261
G1 X134.814 Y97.882 E19.35914
G1 X134.821 Y98.053 E19.37109
G1 X134.843 Y98.888 E19.42944
G1 X134.845 Y99.081 E19.44292
G1 X134.838 Y100.118 E19.51535
G1 X134.833 Y100.312 E19.5289
G1 X134.794 Y101.288 E19.59713
G1 X134.784 Y101.476 E19.61028
G1 X134.711 Y102.487 E19.68108
G1 X134.694 Y102.674 E19.69419
G1 X134.595 Y103.62 E19.76063
G1 X134.572 Y103.81 E19.77399
G1 X134.426 Y104.868 E19.84859
G1 X134.398 Y105.049 E19.86138
G1 X134.226 Y106.061 E19.93308
G1 X134.192 Y106.246 E19.94622
G1 X133.966 Y107.357 E20.02541
G1 X133.926 Y107.54 E20.03849
G1 X133.694 Y108.519 E20.10877
G1 X133.65 Y108.692 E20.12123
G1 X133.348 Y109.812 E20.20226
G1 X133.301 Y109.977 E20.21424
G1 X132.95 Y111.142 E20.29922
G1 X132.894 Y111.315 E20.31192
G1 X132.456 Y112.615 E20.40774
G1 X132.034 Y113.76 E20.49297
G1 X131.974 Y113.914 E20.50452
G1 X131.501 Y115.093 E20.59324
G1 X131.436 Y115.25 E20.60511
G1 X130.895 Y116.493 E20.6998
G1 X130.828 Y116.641 E20.71115
G1 X130.262 Y117.848 E20.80426
G1 X130.189 Y117.999 E20.81597
G1 X129.599 Y119.169 E20.9075
G1 X129.526 Y119.308 E20.91846
G1 X128.871 Y120.524 E21.01493
G1 X128.782 Y120.682 E21.0276
G1 X128.059 Y121.93 E21.12834
G1 X127.971 Y122.078 E21.14037
G1 X127.229 Y123.276 E21.23879
G1 X127.13 Y123.43 E21.25158
G1 X126.337 Y124.625 E21.35175
G1 X126.227 Y124.785 E21.36531
G1 X125.344 Y126.024 E21.47158
G1 X125.221 Y126.19 E21.48601
G1 X124.38 Y127.286 E21.5825
G1 X124.243 Y127.458 E21.59786
G1 X123.307 Y128.587 E21.70029
G1 X123.151 Y128.768 E21.71698
G1 X122.021 Y130.023 E21.83494
G1 X121.883 Y130.171 E21.84907
G1 X121.266 Y130.808 E21.91101
G1 X120.769 Y131.293 E21.95951
G1 X120.348 Y131.691 E21.99998
G1 X119.707 Y132.272 E22.06041
G1 X119.568 Y132.394 E22.07332
G1 X119 Y132.877 E22.1254
G1 X118.509 Y133.277 E22.16964
G1 X118.367 Y133.389 E22.18227
G1 X117.698 Y133.898 E22.24098
G1 X117.56 Y133.999 E22.25293
G1 X116.87 Y134.491 E22.31212
G1 X116.375 Y134.821 E22.35367
G1 X115.482 Y135.379 E22.42722
G1 X114.902 Y135.718 E22.47414
G1 X114.403 Y135.992 E22.5139
G1 X114.231 Y136.081 E22.52743
G1 X113.687 Y136.353 E22.56991
G1 X113.491 Y136.447 E22.58509
G1 X112.921 Y136.706 E22.62882
G1 X112.73 Y136.788 E22.64334
G1 X111.939 Y137.114 E22.7031
G1 X111.335 Y137.335 E22.74802
G1 X110.201 Y137.692 E22.83106
G1 X109.522 Y137.879 E22.88025
G1 X108.964 Y138.008 E22.92025
G1 X108.696 Y138.063 E22.93936
G1 X108.087 Y138.174 E22.9826
G1 X107.831 Y138.215 E23.00071
G1 X107.224 Y138.298 E23.0435
G1 X106.515 Y138.369 E23.09327
G1 X106.174 Y138.39 E23.11713
G1 X105.037 Y138.427 E23.19659
G1 X104.537 Y138.427 E23.23151
G1 X104.288 Y138.418 E23.24891
G1 X103.694 Y138.385 E23.29047
G1 X103.441 Y138.365 E23.30819
G1 X102.857 Y138.307 E23.34918
G1 X102.584 Y138.274 E23.36839
G1 X101.986 Y138.186 E23.41061
G1 X101.283 Y138.056 E23.46054
G1 X100.975 Y137.988 E23.48257
G1 X99.819 Y137.699 E23.5658
G1 X99.245 Y137.528 E23.60763
G1 X98.398 Y137.236 E23.67021
G1 X98.185 Y137.158 E23.68605
G1 X97.416 Y136.859 E23.74368
G1 X96.928 Y136.653 E23.78068
G1 X96.696 Y136.547 E23.79849
G1 X96.048 Y136.232 E23.84882
G1 X95.653 Y136.025 E23.87997
G1 X94.656 Y135.472 E23.9596
G1 X94.051 Y135.112 E24.00877
G1 X93.548 Y134.793 E24.05037
G1 X93.379 Y134.68 E24.06457
G1 X92.602 Y134.144 E24.1305
G1 X92.088 Y133.771 E24.17486
G1 X91.943 Y133.661 E24.18757
G1 X91.246 Y133.116 E24.24937
G1 X91.108 Y133.005 E24.26174
G1 X90.525 Y132.52 E24.31471
G1 X90.026 Y132.084 E24.36099
G1 X89.843 Y131.919 E24.3782
G1 X89.198 Y131.321 E24.43964
G1 X88.709 Y130.845 E24.4873
G1 X87.948 Y130.07 E24.56317
G1 X87.827 Y129.942 E24.57547
G1 X87.42 Y129.501 E24.61739
G1 X86.758 Y128.762 E24.68668
G1 X86.47 Y128.423 E24.71775
G1 X85.341 Y127.029 E24.84305
G1 X85.205 Y126.854 E24.85853
G1 X84.393 Y125.77 E24.95313
G1 X84.267 Y125.596 E24.96813
G1 X83.395 Y124.338 E25.07504
G1 X83.286 Y124.175 E25.08874
G1 X82.51 Y122.971 E25.18879
G1 X82.409 Y122.807 E25.20224
G1 X81.697 Y121.618 E25.29904
G1 X81.606 Y121.462 E25.31165
G1 X80.923 Y120.237 E25.40961
G1 X80.835 Y120.073 E25.42261
G1 X80.212 Y118.867 E25.51742
G1 X80.136 Y118.713 E25.52942
G1 X79.554 Y117.5 E25.62339
G1 X79.478 Y117.335 E25.63608
G1 X78.948 Y116.136 E25.72764
G1 X78.881 Y115.979 E25.73956
G1 X78.376 Y114.74 E25.83302
G1 X78.313 Y114.578 E25.84516
G1 X77.871 Y113.394 E25.93343
G1 X77.811 Y113.227 E25.94582
G1 X77.433 Y112.112 E26.02806
G1 X77.383 Y111.957 E26.03943
G1 X77.033 Y110.821 E26.12246
G1 X76.986 Y110.661 E26.1341
G1 X76.67 Y109.521 E26.21673
G1 X76.627 Y109.355 E26.22871
G1 X76.378 Y108.342 E26.30157
