;FLAVOR:Marlin
;TIME:4320
;Filament used: 7.65042m
;Layer height: 0.3
;MINX:40.22
;MINY:82.07
;MINZ:0.3
;MAXX:169.992
;MAXY:127.928
;MAXZ:17.1
;Generated with Cura_SteamEngine 4.11.0
M140 S60
M105
M190 S60
M104 S200
M105
M109 S200
M82 ;absolute extrusion mode
G21 ;metric values
G90 ;absolute positioning
M82 ;set extruder to absolute mode
M107 ;start with the fan off
G28 X0 Y0 ;move X/Y to min endstops
G28 Z0 ;move Z to min endstops
G1 Z15.0 F100 ;move the platform down 15mm
G92 E0 ;zero the extruded length
G1 F200 E3 ;extrude 3mm of feed stock
G92 E0 ;zero the extruded length again
G1 F100
G0 Y20 F100
M117 Printing...
G5
G92 E0
G92 E0
G1 F2400 E-6
;LAYER_COUNT:57
;LAYER:0
M107
M204 S3000
M205 X10 Y10
G1 F600 Z0.375
G0 F3000 X48.089 Y85.644 Z0.375
M204 S1800
M205 X8 Y8
;TYPE:SKIRT
G1 F600 Z0.3
G1 F2400 E0
G1 X48.269 Y85.546 E0.01431
G1 X49.497 Y84.904 E0.1111
G1 X49.67 Y84.817 E0.12463
G1 X50.63 Y84.353 E0.1991
G1 X51.54 Y83.931 E0.26916
G1 X52.076 Y83.697 E0.31001
G1 X53.236 Y83.22 E0.39762
G1 X53.443 Y83.139 E0.41314
G1 X54.802 Y82.636 E0.51436
G1 X55.467 Y82.412 E0.56337
G1 X56.105 Y82.237 E0.60958
G1 X56.81 Y82.122 E0.65947
G1 X57.382 Y82.086 E0.6995
G1 X58.36 Y82.07 E0.76782
G1 X91.568 Y82.07 E3.08727
G1 X93.374 Y82.096 E3.21343
G1 X94.161 Y82.119 E3.26842
G1 X97.49 Y82.11 E3.50094
G1 X99.438 Y82.071 E3.63703
G1 X110.698 Y82.07 E4.4235
G1 X112.649 Y82.098 E4.55978
G1 X113.289 Y82.116 E4.6045
G1 X115.999 Y82.114 E4.79378
G1 X117.329 Y82.085 E4.8867
G1 X117.926 Y82.07 E4.92841
G1 X151.89 Y82.071 E7.30067
G1 X152.563 Y82.081 E7.34768
G1 X153.277 Y82.131 E7.39768
G1 X153.98 Y82.261 E7.44761
G1 X154.546 Y82.427 E7.48881
G1 X155.64 Y82.804 E7.56963
G1 X156.161 Y82.996 E7.60841
G1 X156.85 Y83.26 E7.65995
G1 X157.022 Y83.328 E7.67287
G1 X157.748 Y83.632 E7.72784
G1 X158.494 Y83.959 E7.78473
G1 X159.225 Y84.29 E7.84078
G1 X159.808 Y84.57 E7.88595
G1 X160.715 Y85.024 E7.9568
G1 X161.532 Y85.447 E8.02106
G1 X161.997 Y85.701 E8.05807
G1 X162.688 Y86.092 E8.11352
G1 X164.551 Y87.193 E8.26467
G1 X164.748 Y87.316 E8.28089
G1 X166.047 Y88.151 E8.38875
G1 X166.242 Y88.282 E8.40516
G1 X166.909 Y88.748 E8.46199
G1 X167.295 Y89.029 E8.49534
G1 X167.849 Y89.481 E8.54528
G1 X168.348 Y89.993 E8.59521
G1 X168.966 Y90.828 E8.66777
G1 X169.002 Y90.886 E8.67254
G1 X169.344 Y91.514 E8.72248
G1 X169.615 Y92.176 E8.77245
G1 X169.81 Y92.864 E8.82239
G1 X169.927 Y93.57 E8.87238
G1 X169.962 Y94.103 E8.90969
G1 X169.987 Y95.117 E8.98053
G1 X169.989 Y95.268 E8.99108
G1 X169.992 Y98.931 E9.24693
G1 X169.983 Y99.619 E9.29498
G1 X169.934 Y100.332 E9.3449
G1 X169.806 Y101.036 E9.39488
G1 X169.599 Y101.721 E9.44486
G1 X169.318 Y102.378 E9.49477
G1 X168.965 Y103 E9.54472
G1 X168.544 Y103.579 E9.59473
G1 X167.932 Y104.231 E9.65718
G1 X167.797 Y104.356 E9.67004
G1 X167.246 Y104.812 E9.71999
G1 X166.636 Y105.21 E9.77086
G1 X166.07 Y105.534 E9.81642
G1 X164.792 Y106.241 E9.91843
G1 X162.494 Y107.601 E10.10494
G1 X160.268 Y109.004 E10.28872
G1 X158.064 Y110.482 E10.47407
G1 X155.905 Y112.02 E10.65922
G1 X153.809 Y113.605 E10.84276
G1 X151.716 Y115.281 E11.03005
G1 X149.712 Y116.983 E11.21369
G1 X147.743 Y118.753 E11.39861
G1 X145.829 Y120.573 E11.58309
G1 X143.959 Y122.455 E11.7684
G1 X141.812 Y124.755 E11.98816
G1 X141.37 Y125.245 E12.03425
G1 X140.861 Y125.748 E12.08423
G1 X140.3 Y126.192 E12.1342
G1 X139.938 Y126.429 E12.16442
G1 X139.488 Y126.702 E12.20119
G1 X138.736 Y127.092 E12.26035
G1 X138.51 Y127.191 E12.27759
G1 X137.79 Y127.456 E12.33118
G1 X137.412 Y127.57 E12.35875
G1 X136.902 Y127.702 E12.39555
G1 X136.217 Y127.837 E12.44431
G1 X135.506 Y127.922 E12.49433
G1 X134.637 Y127.918 E12.55502
G1 X133.532 Y127.838 E12.63241
G1 X132.822 Y127.747 E12.6824
G1 X132.251 Y127.613 E12.72337
G1 X131.844 Y127.497 E12.75293
G1 X131.15 Y127.291 E12.80349
G1 X128.582 Y126.583 E12.98955
G1 X125.985 Y125.945 E13.17633
G1 X123.417 Y125.393 E13.3598
G1 X120.802 Y124.907 E13.54557
G1 X118.206 Y124.499 E13.72912
G1 X115.597 Y124.165 E13.91283
G1 X112.925 Y123.9 E14.10038
G1 X110.293 Y123.713 E14.28468
G1 X107.645 Y123.6 E14.4698
G1 X105.007 Y123.562 E14.65407
G1 X102.359 Y123.6 E14.83904
G1 X99.728 Y123.711 E15.02297
G1 X97.079 Y123.898 E15.20846
G1 X94.449 Y124.159 E15.39305
G1 X91.809 Y124.496 E15.57895
G1 X89.176 Y124.909 E15.7651
G1 X86.603 Y125.387 E15.94789
G1 X84.028 Y125.94 E16.13184
G1 X81.448 Y126.572 E16.31737
G1 X79.574 Y127.089 E16.45316
G1 X79.437 Y127.119 E16.46295
G1 X78.241 Y127.456 E16.54974
G1 X77.669 Y127.602 E16.59097
G1 X77.402 Y127.662 E16.61009
G1 X76.729 Y127.799 E16.65806
G1 X76.021 Y127.903 E16.70804
G1 X75.403 Y127.928 E16.75124
G1 X74.889 Y127.919 E16.78715
G1 X74.425 Y127.897 E16.81959
G1 X73.708 Y127.822 E16.86995
G1 X72.847 Y127.657 E16.93118
G1 X72.156 Y127.472 E16.98114
G1 X71.49 Y127.211 E17.0311
G1 X71.124 Y127.029 E17.05965
G1 X70.566 Y126.729 E17.1039
G1 X70.158 Y126.496 E17.13672
G1 X69.561 Y126.102 E17.18668
G1 X69.012 Y125.644 E17.23662
G1 X68.622 Y125.248 E17.27544
G1 X67.899 Y124.444 E17.35096
G1 X67.427 Y123.905 E17.401
G1 X65.637 Y121.973 E17.58496
G1 X63.785 Y120.085 E17.76968
G1 X61.885 Y118.254 E17.95398
G1 X59.912 Y116.458 E18.14034
G1 X57.906 Y114.732 E18.32517
G1 X55.867 Y113.076 E18.50864
G1 X53.755 Y111.459 E18.69443
G1 X51.617 Y109.914 E18.87867
G1 X49.432 Y108.429 E19.06319
G1 X47.18 Y106.988 E19.24993
G1 X44.927 Y105.636 E19.43346
G1 X44.571 Y105.433 E19.46208
G1 X44.032 Y105.114 E19.50583
G1 X43.212 Y104.537 E19.57586
G1 X42.76 Y104.146 E19.6176
G1 X42.647 Y104.043 E19.62828
G1 X42.268 Y103.687 E19.6646
G1 X41.775 Y103.169 E19.71455
G1 X41.343 Y102.599 E19.7645
G1 X40.977 Y101.984 E19.81449
G1 X40.682 Y101.333 E19.86441
G1 X40.461 Y100.652 E19.91442
G1 X40.318 Y99.952 E19.96432
G1 X40.251 Y99.156 E20.02011
G1 X40.23 Y98.089 E20.09465
G1 X40.22 Y95.089 E20.30419
G1 X40.222 Y94.733 E20.32906
G1 X40.235 Y94.01 E20.37957
G1 X40.288 Y93.297 E20.42951
G1 X40.42 Y92.594 E20.47947
G1 X40.63 Y91.91 E20.52944
G1 X40.864 Y91.356 E20.57145
G1 X40.888 Y91.306 E20.57532
G1 X41.233 Y90.679 E20.62531
G1 X41.646 Y90.095 E20.67526
G1 X42.122 Y89.561 E20.72523
G1 X42.933 Y88.871 E20.7996
G1 X43.531 Y88.443 E20.85097
G1 X43.714 Y88.316 E20.86652
G1 X44.763 Y87.619 E20.95449
G1 X44.909 Y87.525 E20.96662
G1 X45.818 Y86.956 E21.04152
G1 X45.969 Y86.865 E21.05384
G1 X47.038 Y86.237 E21.14043
G1 X48.089 Y85.644 E21.22472
M204 S3000
M205 X10 Y10
G0 F3000 X48.364 Y86.132
M204 S1800
M205 X8 Y8
G1 F2400 X48.528 Y86.043 E21.23775
G1 X49.756 Y85.401 E21.33454
G1 X49.914 Y85.321 E21.34691
G1 X50.865 Y84.861 E21.4207
G1 X51.775 Y84.439 E21.49076
G1 X52.298 Y84.211 E21.53061
G1 X53.448 Y83.738 E21.61746
G1 X53.638 Y83.664 E21.6317
G1 X54.997 Y83.161 E21.73292
G1 X55.643 Y82.944 E21.78051
G1 X56.226 Y82.784 E21.82274
G1 X56.901 Y82.675 E21.8705
G1 X57.392 Y82.646 E21.90485
G1 X58.36 Y82.63 E21.97247
G1 X91.568 Y82.63 E24.29193
G1 X93.358 Y82.655 E24.41696
G1 X94.178 Y82.679 E24.47426
G1 X97.503 Y82.67 E24.7065
G1 X99.567 Y82.63 E24.85069
G1 X110.78 Y82.631 E25.63388
G1 X112.634 Y82.657 E25.76339
G1 X113.309 Y82.676 E25.81055
G1 X115.964 Y82.674 E25.99599
G1 X117.35 Y82.644 E26.09282
G1 X117.926 Y82.63 E26.13307
G1 X151.882 Y82.631 E28.50477
G1 X152.555 Y82.641 E28.55178
G1 X153.236 Y82.691 E28.59947
G1 X153.907 Y82.82 E28.6472
G1 X154.364 Y82.956 E28.6805
G1 X155.331 Y83.288 E28.75191
G1 X155.961 Y83.519 E28.79878
G1 X156.65 Y83.783 E28.85032
G1 X156.806 Y83.845 E28.86204
G1 X157.524 Y84.145 E28.91639
G1 X158.263 Y84.469 E28.97275
G1 X158.994 Y84.8 E29.0288
G1 X159.564 Y85.074 E29.07297
G1 X160.457 Y85.521 E29.14272
G1 X161.274 Y85.944 E29.20698
G1 X161.768 Y86.215 E29.24634
G1 X162.403 Y86.574 E29.29729
G1 X164.256 Y87.669 E29.44762
G1 X164.445 Y87.787 E29.46318
G1 X165.744 Y88.622 E29.57104
G1 X165.922 Y88.742 E29.58604
G1 X166.579 Y89.201 E29.64201
G1 X166.965 Y89.482 E29.67536
G1 X167.493 Y89.915 E29.72306
G1 X167.967 Y90.408 E29.77082
G1 X168.49 Y91.123 E29.8327
G1 X168.526 Y91.181 E29.83747
G1 X168.852 Y91.782 E29.88522
G1 X169.105 Y92.416 E29.9329
G1 X169.283 Y93.076 E29.98065
G1 X169.382 Y93.752 E30.02837
G1 X169.402 Y94.117 E30.0539
G1 X169.429 Y95.268 E30.13431
G1 X169.433 Y98.923 E30.3896
G1 X169.424 Y99.611 E30.43766
G1 X169.375 Y100.293 E30.48542
G1 X169.246 Y100.964 E30.53314
G1 X169.041 Y101.616 E30.58088
G1 X168.761 Y102.239 E30.62859
G1 X168.409 Y102.825 E30.67633
G1 X167.992 Y103.366 E30.72404
G1 X167.552 Y103.82 E30.7682
G1 X167.417 Y103.945 E30.78105
G1 X166.889 Y104.379 E30.82879
G1 X166.357 Y104.725 E30.87312
G1 X165.799 Y105.044 E30.91801
G1 X164.514 Y105.756 E31.02062
G1 X162.187 Y107.131 E31.20941
G1 X159.976 Y108.525 E31.39197
G1 X157.746 Y110.021 E31.57953
G1 X155.561 Y111.577 E31.76688
G1 X153.461 Y113.165 E31.95078
G1 X151.382 Y114.831 E32.13686
G1 X149.352 Y116.555 E32.32288
G1 X147.342 Y118.361 E32.51162
G1 X145.442 Y120.168 E32.69476
G1 X143.549 Y122.073 E32.88234
G1 X141.383 Y124.394 E33.10408
G1 X140.954 Y124.869 E33.14878
G1 X140.467 Y125.349 E33.19654
G1 X139.647 Y125.95 E33.26755
G1 X139.197 Y126.223 E33.30431
G1 X138.511 Y126.579 E33.3583
G1 X138.285 Y126.678 E33.37553
G1 X137.628 Y126.92 E33.42443
G1 X136.785 Y127.154 E33.48554
G1 X136.119 Y127.285 E33.53295
G1 X135.44 Y127.365 E33.5807
G1 X134.677 Y127.36 E33.634
G1 X133.572 Y127.28 E33.71138
G1 X132.895 Y127.191 E33.75907
G1 X132.403 Y127.074 E33.79439
G1 X132.004 Y126.961 E33.82336
G1 X131.278 Y126.745 E33.87626
G1 X128.72 Y126.04 E34.06159
G1 X126.125 Y125.403 E34.24822
G1 X123.528 Y124.845 E34.43375
G1 X120.888 Y124.354 E34.62131
G1 X118.295 Y123.947 E34.80464
G1 X115.619 Y123.604 E34.99308
G1 X112.985 Y123.342 E35.17796
G1 X110.355 Y123.156 E35.36211
G1 X107.642 Y123.039 E35.55178
G1 X105.007 Y123.002 E35.73585
G1 X102.364 Y123.04 E35.92047
G1 X99.663 Y123.153 E36.10929
G1 X97.057 Y123.338 E36.29177
G1 X94.357 Y123.606 E36.48128
G1 X91.721 Y123.942 E36.66688
G1 X89.131 Y124.348 E36.84999
G1 X86.486 Y124.84 E37.03791
G1 X83.887 Y125.398 E37.22357
G1 X81.302 Y126.032 E37.40948
G1 X79.425 Y126.549 E37.54546
G1 X79.308 Y126.574 E37.55382
G1 X78.089 Y126.918 E37.64229
G1 X77.534 Y127.058 E37.68226
G1 X77.29 Y127.114 E37.69975
G1 X76.617 Y127.251 E37.74772
G1 X75.941 Y127.348 E37.79542
G1 X75.407 Y127.368 E37.83274
G1 X74.451 Y127.337 E37.89955
G1 X73.797 Y127.269 E37.94548
G1 X72.962 Y127.109 E38.00486
G1 X72.302 Y126.93 E38.05263
G1 X71.39 Y126.536 E38.12202
G1 X70.832 Y126.236 E38.16627
G1 X70.44 Y126.012 E38.1978
G1 X69.871 Y125.634 E38.24551
G1 X69.349 Y125.193 E38.29324
G1 X69.038 Y124.873 E38.32441
G1 X68.32 Y124.075 E38.39939
G1 X67.85 Y123.538 E38.44923
G1 X66.052 Y121.598 E38.63398
G1 X64.16 Y119.669 E38.8227
G1 X62.272 Y117.85 E39.00582
G1 X60.295 Y116.049 E39.19261
G1 X58.265 Y114.304 E39.37959
G1 X56.203 Y112.628 E39.56518
G1 X54.082 Y111.004 E39.75177
G1 X51.941 Y109.458 E39.93622
G1 X49.73 Y107.954 E40.12299
G1 X47.492 Y106.523 E40.30853
G1 X45.209 Y105.152 E40.49453
G1 X44.857 Y104.951 E40.52284
G1 X44.318 Y104.632 E40.56659
G1 X43.569 Y104.106 E40.63052
G1 X43.133 Y103.729 E40.67078
G1 X42.652 Y103.279 E40.71678
G1 X42.182 Y102.783 E40.76451
G1 X41.773 Y102.235 E40.81227
G1 X41.431 Y101.643 E40.86002
G1 X41.161 Y101.016 E40.9077
G1 X40.966 Y100.361 E40.95544
G1 X40.848 Y99.688 E41.00316
G1 X40.811 Y99.144 E41.04125
G1 X40.79 Y98.087 E41.11509
G1 X40.78 Y95.091 E41.32435
G1 X40.782 Y94.743 E41.34866
G1 X40.795 Y94.02 E41.39916
G1 X40.847 Y93.339 E41.44687
G1 X40.979 Y92.668 E41.49463
G1 X41.187 Y92.018 E41.5423
G1 X41.393 Y91.548 E41.57814
G1 X41.724 Y90.95 E41.62588
G1 X42.123 Y90.395 E41.67362
G1 X42.584 Y89.891 E41.72133
G1 X43.259 Y89.326 E41.78281
G1 X43.857 Y88.898 E41.83418
G1 X44.024 Y88.783 E41.84834
G1 X45.073 Y88.086 E41.93631
G1 X45.206 Y88 E41.94737
G1 X46.115 Y87.431 E42.02227
G1 X46.253 Y87.347 E42.03356
G1 X47.313 Y86.725 E42.1194
G1 X48.364 Y86.132 E42.20369
M204 S3000
M205 X10 Y10
G0 F3000 X48.639 Y86.619
M204 S1800
M205 X8 Y8
G1 F2400 X48.788 Y86.539 E42.2155
G1 X50.016 Y85.897 E42.31228
G1 X50.158 Y85.825 E42.32341
G1 X51.101 Y85.369 E42.39657
G1 X52.011 Y84.947 E42.46663
G1 X52.52 Y84.725 E42.50541
G1 X53.661 Y84.256 E42.59158
G1 X53.832 Y84.189 E42.60441
G1 X55.191 Y83.686 E42.70562
G1 X55.819 Y83.476 E42.75187
G1 X56.348 Y83.331 E42.79018
G1 X56.989 Y83.229 E42.83552
G1 X57.402 Y83.206 E42.86441
G1 X58.36 Y83.19 E42.93133
G1 X91.568 Y83.19 E45.25079
G1 X93.342 Y83.215 E45.37471
G1 X94.164 Y83.239 E45.43214
G1 X97.516 Y83.23 E45.66627
G1 X99.567 Y83.19 E45.80955
G1 X110.772 Y83.191 E46.59218
G1 X112.618 Y83.217 E46.72113
G1 X113.294 Y83.236 E46.76836
G1 X115.977 Y83.234 E46.95576
G1 X117.382 Y83.203 E47.05392
G1 X117.926 Y83.19 E47.09193
G1 X151.873 Y83.191 E49.463
G1 X152.546 Y83.201 E49.51001
G1 X153.194 Y83.25 E49.5554
G1 X153.831 Y83.379 E49.60079
G1 X154.183 Y83.486 E49.62649
G1 X155.254 Y83.855 E49.70561
G1 X155.76 Y84.042 E49.74329
G1 X156.591 Y84.362 E49.80549
G1 X157.3 Y84.658 E49.85915
G1 X158.032 Y84.979 E49.91498
G1 X158.763 Y85.31 E49.97103
G1 X159.32 Y85.578 E50.0142
G1 X160.2 Y86.018 E50.08292
G1 X161.017 Y86.441 E50.14718
G1 X161.493 Y86.702 E50.1851
G1 X162.118 Y87.056 E50.23527
G1 X163.866 Y88.088 E50.37705
G1 X164.142 Y88.258 E50.39969
G1 X165.441 Y89.093 E50.50755
G1 X165.602 Y89.201 E50.52109
G1 X166.25 Y89.653 E50.57627
G1 X166.636 Y89.934 E50.60962
G1 X167.136 Y90.348 E50.65496
G1 X167.582 Y90.82 E50.70032
G1 X168.014 Y91.419 E50.7519
G1 X168.05 Y91.477 E50.75667
G1 X168.358 Y92.048 E50.80198
G1 X168.593 Y92.654 E50.84738
G1 X168.753 Y93.284 E50.89278
G1 X168.842 Y94.131 E50.95227
G1 X168.869 Y95.269 E51.03177
G1 X168.873 Y98.916 E51.2865
G1 X168.864 Y99.604 E51.33456
G1 X168.815 Y100.252 E51.37995
G1 X168.687 Y100.889 E51.42533
G1 X168.483 Y101.505 E51.47066
G1 X168.204 Y102.092 E51.51605
G1 X167.855 Y102.64 E51.56143
G1 X167.441 Y103.141 E51.60682
G1 X167.036 Y103.534 E51.64624
G1 X166.533 Y103.945 E51.69161
G1 X166.078 Y104.239 E51.72945
G1 X165.528 Y104.554 E51.77372
G1 X164.235 Y105.27 E51.87695
G1 X161.897 Y106.652 E52.06665
G1 X159.643 Y108.073 E52.25276
G1 X157.428 Y109.559 E52.43906
G1 X155.263 Y111.101 E52.62471
G1 X153.11 Y112.729 E52.81324
G1 X151.028 Y114.397 E52.99957
G1 X148.956 Y116.157 E53.18945
G1 X146.996 Y117.918 E53.37349
G1 X145.037 Y119.782 E53.56236
G1 X143.138 Y121.693 E53.75054
G1 X140.982 Y124.002 E53.97119
G1 X140.538 Y124.494 E54.01748
G1 X140.074 Y124.949 E54.06287
G1 X139.357 Y125.471 E54.12481
G1 X138.907 Y125.744 E54.16157
G1 X138.287 Y126.066 E54.21037
G1 X138.061 Y126.165 E54.2276
G1 X137.467 Y126.384 E54.27182
G1 X136.668 Y126.606 E54.32974
G1 X136.021 Y126.734 E54.37581
G1 X135.376 Y126.808 E54.42116
G1 X134.718 Y126.801 E54.46712
G1 X133.613 Y126.721 E54.5445
G1 X132.969 Y126.635 E54.58988
G1 X132.231 Y126.443 E54.64314
G1 X131.44 Y126.209 E54.70076
G1 X128.858 Y125.498 E54.88781
G1 X126.241 Y124.854 E55.07606
G1 X123.645 Y124.297 E55.2615
G1 X121.008 Y123.806 E55.44885
G1 X118.344 Y123.388 E55.6372
G1 X115.71 Y123.051 E55.82268
G1 X113.042 Y122.785 E56.00995
G1 X110.348 Y122.594 E56.19859
G1 X107.674 Y122.48 E56.38553
G1 X105.007 Y122.442 E56.57182
G1 X102.332 Y122.48 E56.75868
G1 X99.669 Y122.592 E56.94485
G1 X96.964 Y122.784 E57.13426
G1 X94.336 Y123.044 E57.31871
G1 X91.632 Y123.389 E57.5091
G1 X89.017 Y123.799 E57.69398
G1 X86.369 Y124.292 E57.88212
G1 X83.78 Y124.848 E58.06707
G1 X81.155 Y125.491 E58.25584
G1 X79.276 Y126.009 E58.39197
G1 X79.167 Y126.032 E58.39975
G1 X77.937 Y126.379 E58.48902
G1 X77.399 Y126.515 E58.52778
G1 X77.178 Y126.565 E58.5436
G1 X76.505 Y126.702 E58.59158
G1 X75.862 Y126.792 E58.63692
G1 X75.151 Y126.806 E58.68659
G1 X74.478 Y126.778 E58.73364
G1 X73.886 Y126.716 E58.77522
G1 X73.076 Y126.561 E58.83282
G1 X72.45 Y126.389 E58.87816
G1 X71.655 Y126.042 E58.93875
G1 X71.097 Y125.742 E58.983
G1 X70.722 Y125.528 E59.01316
G1 X70.181 Y125.167 E59.05858
G1 X69.689 Y124.743 E59.10395
G1 X69.454 Y124.498 E59.12766
G1 X68.742 Y123.706 E59.20205
G1 X68.287 Y123.187 E59.25025
G1 X66.448 Y121.202 E59.43925
G1 X64.57 Y119.287 E59.6266
G1 X62.642 Y117.429 E59.81361
G1 X60.659 Y115.623 E60.00095
