;FLAVOR:Marlin
;TIME:1114
;Filament used: 0.651841m
;Layer height: 0.2
;MINX:84.684
;MINY:89.523
;MINZ:0.2
;MAXX:135.312
;MAXY:130.484
;MAXZ:6.4
;Generated with Cura_SteamEngine 5.3.1
M140 S60
M105
M190 S60
M104 S200
M105
M109 S200
M82 ;absolute extrusion mode
; Ender 3 S1 Pro Start G-code
G28 ;Home
G92 E0 ;Reset Extruder
G1 Z2.0 F3000 ;Move Z Axis up
G1 X10.1 Y20 Z0.28 F5000.0 ;Move to start position
G1 X10.1 Y200.0 Z0.28 F1500.0 E15 ;Draw the first line
G1 X10.4 Y200.0 Z0.28 F5000.0 ;Move to side a little
G1 X10.4 Y20 Z0.28 F1500.0 E30 ;Draw the second line
G92 E0 ;Reset Extruder
G1 Z2.0 F3000 ;Move Z Axis up

G92 E0
G92 E0
G1 F2400 E-0.8
;LAYER_COUNT:33
;LAYER:0
M107
G0 F6000 X90.28 Y95.185 Z0.2
;TYPE:SKIRT
G1 F2400 E0
G1 F1200 X90.7 Y94.789 E0.0192
G1 X91.17 Y94.372 E0.0401
G1 X91.439 Y94.148 E0.05174
G1 X92.119 Y93.628 E0.08021
G1 X92.535 Y93.337 E0.0971
G1 X93.043 Y93.004 E0.1173
G1 X93.533 Y92.703 E0.13643
G1 X93.941 Y92.465 E0.15214
G1 X94.506 Y92.153 E0.1736
G1 X95.315 Y91.752 E0.20364
G1 X96.157 Y91.424 E0.23369
G1 X97.024 Y91.172 E0.26372
G1 X97.653 Y91.039 E0.2851
G1 X100.231 Y90.581 E0.37219
G1 X101.126 Y90.463 E0.40222
G1 X101.578 Y90.433 E0.41728
G1 X102.97 Y90.373 E0.46362
G1 X103.127 Y90.359 E0.46887
G1 X104.406 Y90.323 E0.51142
G1 X104.99 Y90.323 E0.53085
G1 X106.07 Y90.354 E0.56678
G1 X109.072 Y90.392 E0.66664
G1 X111.158 Y90.39 E0.73602
G1 X114.159 Y90.353 E0.83584
G1 X115.051 Y90.329 E0.86552
G1 X115.711 Y90.332 E0.88747
G1 X118.445 Y90.436 E0.97847
G1 X119.345 Y90.511 E1.00851
G1 X119.852 Y90.588 E1.02556
G1 X122.302 Y91.026 E1.10834
G1 X123.183 Y91.224 E1.13838
G1 X124.043 Y91.5 E1.16842
G1 X124.876 Y91.85 E1.19847
G1 X125.296 Y92.061 E1.2141
G1 X125.862 Y92.362 E1.23542
G1 X126.421 Y92.676 E1.25675
G1 X127.014 Y93.043 E1.27994
G1 X127.547 Y93.398 E1.30124
G1 X128.196 Y93.868 E1.32789
G1 X128.654 Y94.228 E1.34727
G1 X129.477 Y94.949 E1.38366
G1 X129.774 Y95.239 E1.39747
G1 X130.379 Y95.883 E1.42686
G1 X130.651 Y96.199 E1.44072
G1 X131.453 Y97.265 E1.48509
G1 X131.732 Y97.691 E1.50203
G1 X132.087 Y98.275 E1.52476
G1 X132.288 Y98.632 E1.53839
G1 X132.588 Y99.207 E1.55996
G1 X132.735 Y99.512 E1.57122
G1 X133.006 Y100.123 E1.59345
G1 X133.184 Y100.564 E1.60927
G1 X133.471 Y101.374 E1.63785
G1 X133.629 Y101.886 E1.65567
G1 X133.792 Y102.473 E1.67594
G1 X133.921 Y103.001 E1.69401
G1 X134.043 Y103.556 E1.71291
G1 X134.136 Y104.065 E1.73012
G1 X134.225 Y104.629 E1.74911
G1 X134.287 Y105.085 E1.76442
G1 X134.351 Y105.657 E1.78356
G1 X134.397 Y106.2 E1.80169
G1 X134.473 Y107.509 E1.8453
G1 X134.487 Y107.862 E1.85705
G1 X134.512 Y109.043 E1.89634
G1 X134.512 Y110.954 E1.9599
G1 X134.489 Y112.063 E1.99679
G1 X134.411 Y113.527 E2.04555
G1 X134.377 Y113.963 E2.0601
G1 X134.289 Y114.836 E2.08928
G1 X134.192 Y115.546 E2.11312
G1 X134.038 Y116.439 E2.14326
G1 X133.866 Y117.242 E2.17057
G1 X133.789 Y117.542 E2.18087
G1 X133.646 Y118.044 E2.19823
G1 X133.436 Y118.717 E2.22168
G1 X133.085 Y119.671 E2.25549
G1 X132.883 Y120.146 E2.27266
G1 X132.637 Y120.681 E2.29224
G1 X132.478 Y121.002 E2.30416
G1 X132.144 Y121.622 E2.32758
G1 X131.94 Y121.971 E2.34103
G1 X131.513 Y122.646 E2.36759
G1 X130.718 Y123.698 E2.41145
G1 X130.159 Y124.346 E2.43991
G1 X129.54 Y125.003 E2.46994
G1 X128.757 Y125.688 E2.50454
G1 X128.334 Y126.022 E2.52246
G1 X127.683 Y126.496 E2.54925
G1 X127.016 Y126.942 E2.57593
G1 X126.349 Y127.352 E2.60197
G1 X125.656 Y127.736 E2.62833
G1 X125.039 Y128.057 E2.65146
G1 X124.22 Y128.438 E2.6815
G1 X123.37 Y128.745 E2.71156
G1 X122.497 Y128.975 E2.74159
G1 X122.003 Y129.07 E2.75832
G1 X120.408 Y129.335 E2.8121
G1 X119.479 Y129.474 E2.84334
G1 X118.304 Y129.579 E2.88258
G1 X115.641 Y129.662 E2.97119
G1 X115.032 Y129.663 E2.99145
G1 X114.04 Y129.635 E3.02445
G1 X111.031 Y129.598 E3.12454
G1 X109.382 Y129.596 E3.17939
G1 X105.877 Y129.651 E3.29598
G1 X104.9 Y129.684 E3.32849
G1 X104.056 Y129.678 E3.35656
G1 X102.645 Y129.609 E3.40355
G1 X101.238 Y129.518 E3.45044
G1 X100.37 Y129.424 E3.47948
G1 X98.112 Y129.081 E3.55545
G1 X97.226 Y128.906 E3.58548
G1 X96.359 Y128.654 E3.61551
G1 X95.518 Y128.325 E3.64555
G1 X94.979 Y128.068 E3.66541
G1 X94.522 Y127.833 E3.6825
G1 X93.72 Y127.393 E3.71293
G1 X93.194 Y127.08 E3.73329
G1 X92.817 Y126.84 E3.74815
G1 X92.29 Y126.481 E3.76936
G1 X91.83 Y126.146 E3.78828
G1 X90.82 Y125.305 E3.832
G1 X90.325 Y124.836 E3.85468
G1 X89.444 Y123.889 E3.8977
G1 X89.094 Y123.461 E3.91609
G1 X88.391 Y122.49 E3.95596
G1 X88.132 Y122.084 E3.97198
G1 X87.808 Y121.54 E3.99304
G1 X87.633 Y121.224 E4.00505
G1 X87.115 Y120.143 E4.04492
G1 X86.832 Y119.451 E4.06979
G1 X86.531 Y118.612 E4.09943
G1 X86.361 Y118.064 E4.11852
G1 X86.215 Y117.544 E4.13648
G1 X86.045 Y116.845 E4.16041
G1 X85.959 Y116.444 E4.17405
G1 X85.82 Y115.641 E4.20115
G1 X85.658 Y114.363 E4.244
G1 X85.576 Y113.466 E4.27396
G1 X85.523 Y112.561 E4.30411
G1 X85.49 Y111.36 E4.34407
G1 X85.484 Y110.559 E4.37071
G1 X85.492 Y108.608 E4.4356
G1 X85.516 Y107.677 E4.46658
G1 X85.556 Y106.83 E4.49478
G1 X85.594 Y106.321 E4.51176
G1 X85.709 Y105.174 E4.5501
G1 X85.781 Y104.613 E4.56891
G1 X85.87 Y104.045 E4.58803
G1 X85.992 Y103.383 E4.61042
G1 X86.106 Y102.867 E4.628
G1 X86.3 Y102.126 E4.65347
G1 X86.442 Y101.648 E4.67006
G1 X86.609 Y101.137 E4.68794
G1 X86.716 Y100.836 E4.69856
G1 X87.015 Y100.09 E4.7253
G1 X87.339 Y99.365 E4.75171
G1 X87.875 Y98.328 E4.79053
G1 X88.213 Y97.774 E4.81212
G1 X88.424 Y97.448 E4.82503
G1 X88.847 Y96.843 E4.84959
G1 X89.137 Y96.459 E4.86559
G1 X89.713 Y95.763 E4.89564
G1 X90.28 Y95.185 E4.92257
G0 F6000 X90.006 Y94.894
G1 F1200 X90.435 Y94.49 E4.94217
G1 X90.914 Y94.065 E4.96347
G1 X91.196 Y93.83 E4.97568
G1 X91.89 Y93.3 E5.00472
G1 X92.316 Y93.002 E5.02201
G1 X92.834 Y92.663 E5.0426
G1 X93.331 Y92.357 E5.06201
G1 X93.739 Y92.119 E5.07772
G1 X94.328 Y91.795 E5.10008
G1 X95.17 Y91.379 E5.13132
G1 X96.012 Y91.051 E5.16137
G1 X96.912 Y90.788 E5.19256
G1 X97.583 Y90.645 E5.21538
G1 X100.179 Y90.184 E5.30307
G1 X101.074 Y90.066 E5.3331
G1 X101.561 Y90.033 E5.34933
G1 X102.953 Y89.973 E5.39568
G1 X103.116 Y89.959 E5.40112
G1 X104.395 Y89.923 E5.44367
G1 X105.001 Y89.923 E5.46383
G1 X106.081 Y89.954 E5.49976
G1 X109.077 Y89.992 E5.59942
G1 X111.153 Y89.99 E5.66847
G1 X114.148 Y89.953 E5.76809
G1 X115.053 Y89.929 E5.7982
G1 X115.726 Y89.932 E5.82059
G1 X118.478 Y90.037 E5.91218
G1 X119.378 Y90.112 E5.94222
G1 X119.922 Y90.194 E5.96052
G1 X122.39 Y90.636 E6.04391
G1 X123.305 Y90.843 E6.07511
G1 X124.198 Y91.131 E6.10632
G1 X125.031 Y91.481 E6.13637
G1 X125.484 Y91.708 E6.15323
G1 X126.058 Y92.013 E6.17484
G1 X126.632 Y92.336 E6.19675
G1 X127.236 Y92.71 E6.22038
G1 X127.782 Y93.074 E6.24221
G1 X128.431 Y93.544 E6.26886
G1 X128.918 Y93.927 E6.28946
G1 X129.741 Y94.648 E6.32586
G1 X130.066 Y94.965 E6.34096
G1 X130.682 Y95.622 E6.37091
G1 X130.971 Y95.959 E6.38568
G1 X131.788 Y97.046 E6.4309
G1 X132.074 Y97.483 E6.44827
G1 X132.436 Y98.079 E6.47147
G1 X132.643 Y98.447 E6.48551
G1 X132.948 Y99.033 E6.50748
G1 X133.101 Y99.35 E6.51919
G1 X133.377 Y99.973 E6.54185
G1 X133.561 Y100.43 E6.55824
G1 X133.853 Y101.256 E6.58738
G1 X134.014 Y101.779 E6.60558
G1 X134.181 Y102.378 E6.62626
G1 X134.312 Y102.915 E6.64465
G1 X134.434 Y103.47 E6.66355
G1 X134.531 Y104.003 E6.68156
G1 X134.621 Y104.575 E6.70082
G1 X134.685 Y105.041 E6.71647
G1 X134.75 Y105.623 E6.73595
G1 X134.796 Y106.177 E6.75444
G1 X134.873 Y107.493 E6.79828
G1 X134.912 Y109.035 E6.84958
G1 X134.912 Y110.962 E6.91368
G1 X134.888 Y112.084 E6.951
G1 X134.81 Y113.558 E7.0001
G1 X134.775 Y114.003 E7.01494
G1 X134.685 Y114.89 E7.0446
G1 X134.586 Y115.614 E7.0689
G1 X134.429 Y116.523 E7.09958
G1 X134.253 Y117.341 E7.12741
G1 X134.174 Y117.652 E7.13808
G1 X134.028 Y118.163 E7.15576
G1 X133.811 Y118.855 E7.17988
G1 X133.453 Y119.828 E7.21436
G1 X133.246 Y120.313 E7.2319
G1 X132.995 Y120.859 E7.25189
G1 X132.83 Y121.192 E7.26425
G1 X132.489 Y121.824 E7.28814
G1 X132.278 Y122.185 E7.30204
G1 X131.851 Y122.86 E7.32861
G1 X131.021 Y123.959 E7.37441
G1 X130.45 Y124.62 E7.40347
G1 X129.803 Y125.304 E7.43478
G1 X129.005 Y126.002 E7.47004
G1 X128.569 Y126.345 E7.4885
G1 X127.905 Y126.829 E7.51582
G1 X127.225 Y127.283 E7.54302
G1 X126.543 Y127.702 E7.56964
G1 X125.841 Y128.091 E7.59633
G1 X125.208 Y128.42 E7.62006
G1 X124.389 Y128.801 E7.65011
G1 X123.472 Y129.132 E7.68253
G1 X122.573 Y129.368 E7.71345
G1 X122.069 Y129.465 E7.73052
G1 X120.467 Y129.731 E7.78453
G1 X119.538 Y129.87 E7.81577
G1 X118.316 Y129.979 E7.85658
G1 X115.642 Y130.062 E7.94556
G1 X115.021 Y130.063 E7.96621
G1 X114.029 Y130.035 E7.99922
G1 X111.026 Y129.998 E8.09911
G1 X109.388 Y129.996 E8.15359
G1 X105.891 Y130.051 E8.26991
G1 X104.897 Y130.084 E8.30299
G1 X104.036 Y130.078 E8.33163
G1 X102.619 Y130.008 E8.37881
G1 X101.195 Y129.916 E8.42628
G1 X100.327 Y129.822 E8.45531
G1 X98.034 Y129.473 E8.53246
G1 X97.114 Y129.29 E8.56366
G1 X96.213 Y129.027 E8.59488
G1 X95.372 Y128.698 E8.62491
G1 X94.796 Y128.424 E8.64613
G1 X94.33 Y128.184 E8.66356
G1 X93.515 Y127.737 E8.69448
G1 X92.979 Y127.417 E8.71524
G1 X92.592 Y127.171 E8.73049
G1 X92.055 Y126.804 E8.75212
G1 X91.574 Y126.453 E8.77193
G1 X90.545 Y125.595 E8.81649
G1 X90.032 Y125.108 E8.84002
G1 X89.134 Y124.142 E8.88388
G1 X88.77 Y123.696 E8.90303
G1 X88.067 Y122.725 E8.9429
G1 X87.788 Y122.289 E8.96012
G1 X87.458 Y121.734 E8.9816
G1 X87.272 Y121.397 E8.9944
G1 X86.754 Y120.316 E9.03427
G1 X86.455 Y119.586 E9.0605
G1 X86.149 Y118.731 E9.09071
G1 X85.976 Y118.172 E9.11017
G1 X85.826 Y117.639 E9.12859
G1 X85.654 Y116.929 E9.15289
G1 X85.565 Y116.512 E9.16707
G1 X85.423 Y115.691 E9.19478
G1 X85.26 Y114.399 E9.23809
G1 X85.177 Y113.489 E9.26848
G1 X85.123 Y112.572 E9.29904
G1 X85.09 Y111.363 E9.33926
G1 X85.084 Y110.557 E9.36607
G1 X85.092 Y108.598 E9.43123
G1 X85.116 Y107.658 E9.4625
G1 X85.157 Y106.8 E9.49107
G1 X85.196 Y106.281 E9.50838
G1 X85.312 Y105.123 E9.54709
G1 X85.386 Y104.551 E9.56627
G1 X85.477 Y103.973 E9.58574
G1 X85.601 Y103.297 E9.6086
G1 X85.719 Y102.766 E9.62669
G1 X85.917 Y102.012 E9.65262
G1 X86.062 Y101.524 E9.66955
G1 X86.232 Y101.003 E9.68778
G1 X86.345 Y100.687 E9.69894
G1 X86.65 Y99.927 E9.72617
G1 X86.984 Y99.181 E9.75336
G1 X87.52 Y98.144 E9.79219
G1 X87.877 Y97.557 E9.81504
G1 X88.096 Y97.219 E9.82843
G1 X88.528 Y96.602 E9.85348
G1 X88.829 Y96.204 E9.87008
G1 X89.427 Y95.483 E9.90124
G1 X90.006 Y94.894 E9.92871
G0 F6000 X89.732 Y94.603
G1 F1200 X90.17 Y94.191 E9.94871
G1 X90.658 Y93.758 E9.97041
G1 X90.953 Y93.512 E9.98318
G1 X91.661 Y92.972 E10.0128
G1 X92.097 Y92.667 E10.03049
G1 X92.624 Y92.322 E10.05144
G1 X93.129 Y92.011 E10.07117
G1 X93.537 Y91.773 E10.08688
G1 X94.151 Y91.436 E10.11018
G1 X94.993 Y91.02 E10.14141
G1 X95.867 Y90.678 E10.17263
G1 X96.8 Y90.404 E10.20497
G1 X97.513 Y90.251 E10.22922
G1 X100.127 Y89.787 E10.31753
G1 X101.022 Y89.669 E10.34755
G1 X101.544 Y89.633 E10.36495
G1 X102.925 Y89.573 E10.41093
G1 X103.105 Y89.559 E10.41694
G1 X104.384 Y89.523 E10.45949
G1 X105.012 Y89.523 E10.48038
G1 X106.092 Y89.554 E10.51631
G1 X109.082 Y89.592 E10.61577
G1 X111.148 Y89.59 E10.68449
G1 X114.137 Y89.553 E10.78391
G1 X115.055 Y89.529 E10.81445
G1 X115.741 Y89.532 E10.83727
G1 X118.511 Y89.638 E10.92947
G1 X119.438 Y89.716 E10.96041
G1 X119.993 Y89.8 E10.97908
G1 X122.478 Y90.246 E11.06305
G1 X123.428 Y90.462 E11.09545
G1 X124.321 Y90.75 E11.12666
G1 X125.21 Y91.123 E11.15873
G1 X125.672 Y91.355 E11.17592
G1 X126.254 Y91.664 E11.19784
G1 X126.843 Y91.996 E11.22032
G1 X127.458 Y92.377 E11.24439
G1 X128.017 Y92.75 E11.26674
G1 X128.666 Y93.22 E11.29339
G1 X129.182 Y93.626 E11.31523
G1 X130.005 Y94.347 E11.35162
G1 X130.358 Y94.691 E11.36801
G1 X130.986 Y95.362 E11.39858
G1 X131.291 Y95.719 E11.4142
G1 X132.123 Y96.827 E11.46028
G1 X132.416 Y97.275 E11.47809
G1 X132.785 Y97.883 E11.50174
G1 X132.998 Y98.262 E11.5162
G1 X133.308 Y98.859 E11.53858
G1 X133.467 Y99.188 E11.55073
G1 X133.748 Y99.824 E11.57386
G1 X133.938 Y100.297 E11.59081
G1 X134.235 Y101.138 E11.62047
G1 X134.399 Y101.672 E11.63905
G1 X134.57 Y102.283 E11.66016
G1 X134.703 Y102.829 E11.67885
G1 X134.828 Y103.398 E11.69822
G1 X134.926 Y103.941 E11.71658
G1 X135.083 Y104.997 E11.75209
G1 X135.149 Y105.59 E11.77193
G1 X135.195 Y106.154 E11.79075
G1 X135.273 Y107.483 E11.83503
G1 X135.312 Y109.025 E11.88633
G1 X135.312 Y110.971 E11.95106
G1 X135.287 Y112.105 E11.98878
G1 X135.209 Y113.589 E12.03821
G1 X135.173 Y114.043 E12.05336
G1 X135.081 Y114.944 E12.08348
G1 X134.98 Y115.682 E12.10826
G1 X134.82 Y116.607 E12.13948
G1 X134.641 Y117.439 E12.16778
G1 X134.559 Y117.762 E12.17887
G1 X134.41 Y118.283 E12.19689
G1 X134.193 Y118.975 E12.22101
G1 X133.821 Y119.985 E12.25681
G1 X133.609 Y120.48 E12.27472
G1 X133.353 Y121.037 E12.29511
G1 X133.182 Y121.382 E12.30792
G1 X132.834 Y122.026 E12.33226
G1 X132.616 Y122.399 E12.34663
G1 X132.189 Y123.074 E12.3732
G1 X131.324 Y124.22 E12.42095
G1 X130.741 Y124.895 E12.45062
G1 X130.094 Y125.579 E12.48193
G1 X129.252 Y126.316 E12.51915
G1 X128.805 Y126.668 E12.53808
G1 X128.127 Y127.162 E12.56598
G1 X127.434 Y127.624 E12.59368
G1 X126.737 Y128.052 E12.62088
G1 X126.025 Y128.446 E12.64795
G1 X125.377 Y128.783 E12.67224
G1 X124.558 Y129.164 E12.70228
G1 X123.574 Y129.519 E12.73708
G1 X122.649 Y129.761 E12.76888
G1 X122.135 Y129.86 E12.78629
G1 X120.526 Y130.127 E12.84054
G1 X119.597 Y130.266 E12.87178
G1 X118.328 Y130.379 E12.91415
G1 X115.643 Y130.462 E13.0035
G1 X115.01 Y130.463 E13.02455
G1 X114.018 Y130.435 E13.05756
G1 X111.021 Y130.398 E13.15725
G1 X109.394 Y130.396 E13.21136
G1 X105.904 Y130.451 E13.32745
G1 X104.894 Y130.484 E13.36106
G1 X104.016 Y130.478 E13.39027
G1 X102.593 Y130.407 E13.43766
G1 X101.152 Y130.314 E13.48568
G1 X100.284 Y130.22 E13.51472
G1 X97.956 Y129.865 E13.59305
G1 X97.002 Y129.674 E13.62541
G1 X96.067 Y129.4 E13.65781
G1 X95.226 Y129.071 E13.68785
G1 X94.613 Y128.78 E13.71042
G1 X94.138 Y128.535 E13.72819
G1 X93.31 Y128.08 E13.75962
G1 X92.764 Y127.755 E13.78075
G1 X92.366 Y127.501 E13.79645
G1 X91.819 Y127.127 E13.81849
G1 X91.338 Y126.776 E13.8383
G1 X90.27 Y125.885 E13.88456
G1 X89.739 Y125.38 E13.90893
G1 X88.824 Y124.395 E13.95365
G1 X88.446 Y123.931 E13.97355
G1 X87.73 Y122.941 E14.01419
G1 X87.444 Y122.493 E14.03187
G1 X87.108 Y121.927 E14.05376
G1 X86.911 Y121.57 E14.06732
G1 X86.384 Y120.468 E14.10795
G1 X86.078 Y119.721 E14.1348
G1 X85.772 Y118.866 E14.165
G1 X85.591 Y118.28 E14.1854
G1 X85.437 Y117.733 E14.2043
G1 X85.263 Y117.012 E14.22897
G1 X85.171 Y116.58 E14.24366
G1 X85.026 Y115.741 E14.27198
G1 X84.862 Y114.435 E14.31576
G1 X84.778 Y113.513 E14.34655
G1 X84.723 Y112.583 E14.37754
G1 X84.69 Y111.366 E14.41803
G1 X84.684 Y110.555 E14.44501
G1 X84.692 Y108.588 E14.51043
G1 X84.716 Y107.639 E14.542
G1 X84.758 Y106.77 E14.57094
G1 X84.798 Y106.241 E14.58858
G1 X84.915 Y105.072 E14.62766
G1 X84.991 Y104.489 E14.64721
G1 X85.084 Y103.901 E14.66701
G1 X85.211 Y103.21 E14.69038
G1 X85.332 Y102.664 E14.70898
G1 X85.534 Y101.898 E14.73533
G1 X85.682 Y101.4 E14.75261
G1 X85.855 Y100.868 E14.77122
G1 X85.974 Y100.538 E14.78288
G1 X86.285 Y99.764 E14.81063
G1 X86.629 Y98.997 E14.83859
G1 X87.178 Y97.936 E14.87832
G1 X87.541 Y97.339 E14.90156
G1 X87.768 Y96.99 E14.91541
G1 X88.209 Y96.361 E14.94096
G1 X88.521 Y95.949 E14.95815
G1 X89.119 Y95.228 E14.9893
G1 X89.732 Y94.603 E15.01842
G1 F2400 E14.21842
G0 F6000 X97.427 Y102.725
G1 F2400 E15.01842
G1 F1200 X97.817 Y102.359 E15.03621
G1 X98.098 Y102.123 E15.04841
G1 X98.377 Y101.928 E15.05973
G1 X98.721 Y101.71 E15.07328
G1 X99.394 Y101.325 E15.09907
G1 X99.443 Y101.361 E15.10109
G1 X99.537 Y101.367 E15.10422
G1 X100.002 Y101.29 E15.1199
G1 X100.023 Y101.286 E15.12061
G1 X100.623 Y101.117 E15.14134
G1 X101.027 Y101.015 E15.1552
G1 X101.89 Y100.841 E15.18448
G1 X101.9 Y100.857 E15.18511
G1 X102.023 Y100.9 E15.18944
G1 X102.61 Y100.902 E15.20897
G1 X102.633 Y100.901 E15.20973
G1 X103.713 Y100.78 E15.24588
G1 X104.562 Y100.72 E15.27419
G1 X104.566 Y100.728 E15.27448
G1 X104.692 Y100.792 E15.27919
G1 X105.062 Y100.832 E15.29156
G1 X105.078 Y100.833 E15.2921
G1 X105.608 Y100.847 E15.30973
G1 X105.621 Y100.847 E15.31016
