;FLAVOR:Marlin
;TIME:7638
;Filament used: 2.06232m
;Layer height: 0.2
;MINX:70.49
;MINY:96.015
;MINZ:0.2
;MAXX:114.65
;MAXY:123.972
;MAXZ:150
;Generated with Cura_SteamEngine 5.3.1
M140 S60
M105
M190 S60
M104 S200
M105
M109 S200
M82 ;absolute extrusion mode
; Ender 3 S1 Pro Start G-code
G28 ;Home
G92 E0 ;Reset Extruder
G1 Z2.0 F3000 ;Move Z Axis up
G1 X10.1 Y20 Z0.28 F5000.0 ;Move to start position
G1 X10.1 Y200.0 Z0.28 F1500.0 E15 ;Draw the first line
G1 X10.4 Y200.0 Z0.28 F5000.0 ;Move to side a little
G1 X10.4 Y20 Z0.28 F1500.0 E30 ;Draw the second line
G92 E0 ;Reset Extruder
G1 Z2.0 F3000 ;Move Z Axis up

G92 E0
G92 E0
G1 F2400 E-0.8
;LAYER_COUNT:750
;LAYER:0
M107
G0 F6000 X76.488 Y99.523 Z0.2
;TYPE:SKIRT
G1 F2400 E0
G1 F1200 X77.216 Y98.99 E0.03001
G1 X78.297 Y98.361 E0.07161
G1 X78.928 Y98.053 E0.09496
G1 X79.322 Y97.874 E0.10935
G1 X80.16 Y97.538 E0.13938
G1 X81.419 Y97.184 E0.18288
G1 X81.767 Y97.11 E0.19472
G1 X82.564 Y96.965 E0.22166
G1 X83.46 Y96.851 E0.2517
G1 X84.781 Y96.827 E0.29564
G1 X85.379 Y96.857 E0.31556
G1 X87.845 Y97.016 E0.39775
G1 X90.346 Y97.106 E0.48099
G1 X92.915 Y97.126 E0.56643
G1 X95.427 Y97.074 E0.65
G1 X98.493 Y96.917 E0.75211
G1 X99.618 Y96.841 E0.78961
G1 X100.162 Y96.819 E0.80772
G1 X100.856 Y96.815 E0.8308
G1 X101.266 Y96.823 E0.84444
G1 X102.167 Y96.881 E0.87447
G1 X103.452 Y97.104 E0.91785
G1 X104.096 Y97.264 E0.93992
G1 X104.491 Y97.373 E0.95355
G1 X105.35 Y97.652 E0.98359
G1 X106.44 Y98.134 E1.02323
G1 X107.078 Y98.472 E1.04724
G1 X107.487 Y98.705 E1.0629
G1 X108.251 Y99.187 E1.09294
G1 X109.275 Y99.999 E1.13641
G1 X109.744 Y100.43 E1.1576
G1 X110.073 Y100.748 E1.17282
G1 X110.694 Y101.404 E1.20286
G1 X111.5 Y102.467 E1.24723
G1 X111.87 Y103.04 E1.26992
G1 X112.091 Y103.402 E1.28402
G1 X112.527 Y104.193 E1.31406
G1 X113.026 Y105.386 E1.35707
G1 X113.231 Y105.995 E1.37845
G1 X113.357 Y106.401 E1.39258
G1 X113.586 Y107.274 E1.4226
G1 X113.78 Y108.574 E1.46632
G1 X113.83 Y109.274 E1.48966
G1 X113.85 Y109.728 E1.50478
G1 X113.85 Y110.631 E1.53481
G1 X113.715 Y111.892 E1.57699
G1 X113.6 Y112.53 E1.59855
G1 X113.511 Y112.963 E1.61326
G1 X113.29 Y113.838 E1.64327
G1 X112.844 Y115.044 E1.68604
G1 X112.598 Y115.586 E1.70584
G1 X112.38 Y116.036 E1.72247
G1 X111.95 Y116.831 E1.75253
G1 X111.183 Y117.939 E1.79735
G1 X110.751 Y118.472 E1.82017
G1 X110.49 Y118.778 E1.83355
G1 X109.874 Y119.439 E1.8636
G1 X108.872 Y120.302 E1.90758
G1 X108.587 Y120.517 E1.91945
G1 X107.988 Y120.945 E1.94394
G1 X107.228 Y121.432 E1.97396
G1 X106.025 Y122.027 E2.0186
G1 X105.466 Y122.255 E2.03868
G1 X105.048 Y122.414 E2.05355
G1 X104.191 Y122.697 E2.08357
G1 X102.893 Y122.973 E2.12771
G1 X102.227 Y123.064 E2.15007
G1 X101.778 Y123.113 E2.16509
G1 X100.876 Y123.171 E2.19515
G1 X100.064 Y123.155 E2.22216
G1 X99.173 Y123.101 E2.25185
G1 X97.926 Y123.01 E2.29344
G1 X95.385 Y122.896 E2.37804
G1 X92.811 Y122.852 E2.46366
G1 X90.318 Y122.881 E2.54659
G1 X87.761 Y122.983 E2.6317
G1 X85.384 Y123.141 E2.71093
G1 X84.766 Y123.172 E2.73151
G1 X83.862 Y123.174 E2.76158
G1 X82.575 Y123.039 E2.80462
G1 X81.96 Y122.929 E2.8254
G1 X81.527 Y122.841 E2.8401
G1 X80.65 Y122.622 E2.87016
G1 X79.412 Y122.165 E2.91405
G1 X79.131 Y122.04 E2.92428
G1 X78.39 Y121.684 E2.95163
G1 X77.597 Y121.252 E2.98166
G1 X76.543 Y120.521 E3.02432
G1 X76.024 Y120.102 E3.04651
G1 X75.667 Y119.797 E3.06213
G1 X75.007 Y119.181 E3.09215
G1 X74.405 Y118.508 E3.12219
G1 X74.117 Y118.14 E3.13773
G1 X73.718 Y117.598 E3.16011
G1 X73.5 Y117.287 E3.17274
G1 X73.014 Y116.525 E3.2028
G1 X72.429 Y115.337 E3.24685
G1 X72.194 Y114.758 E3.26763
G1 X72.043 Y114.36 E3.28179
G1 X71.761 Y113.502 E3.31183
G1 X71.484 Y112.194 E3.3563
G1 X71.397 Y111.55 E3.37791
G1 X71.348 Y111.101 E3.39294
G1 X71.29 Y110.199 E3.423
G1 X71.338 Y108.987 E3.46334
G1 X71.415 Y108.298 E3.4864
G1 X71.483 Y107.819 E3.50249
G1 X71.65 Y106.932 E3.53251
G1 X72.033 Y105.668 E3.57644
G1 X72.271 Y105.051 E3.59843
G1 X72.444 Y104.635 E3.61342
G1 X72.827 Y103.818 E3.64343
G1 X73.504 Y102.705 E3.68676
G1 X73.862 Y102.202 E3.70729
G1 X74.117 Y101.86 E3.72148
G1 X74.688 Y101.161 E3.7515
G1 X75.644 Y100.223 E3.79605
G1 X76.174 Y99.775 E3.81913
G1 X76.488 Y99.523 E3.83252
G0 F6000 X76.252 Y99.2
G1 F1200 X75.924 Y99.463 E3.8465
G1 X75.364 Y99.937 E3.87091
G1 X74.408 Y100.875 E3.91545
G1 X73.807 Y101.607 E3.94695
G1 X73.541 Y101.963 E3.96173
G1 X73.162 Y102.497 E3.98351
G1 X72.485 Y103.61 E4.02684
G1 X72.082 Y104.465 E4.05828
G1 X71.902 Y104.897 E4.07385
G1 X71.65 Y105.552 E4.09719
G1 X71.267 Y106.816 E4.14112
G1 X71.09 Y107.745 E4.17257
G1 X71.019 Y108.242 E4.18927
G1 X70.94 Y108.943 E4.21273
G1 X70.89 Y110.183 E4.25401
G1 X70.949 Y111.127 E4.28547
G1 X70.999 Y111.593 E4.30106
G1 X71.088 Y112.248 E4.32304
G1 X71.381 Y113.627 E4.36993
G1 X71.663 Y114.485 E4.39997
G1 X71.82 Y114.9 E4.41473
G1 X72.07 Y115.514 E4.43678
G1 X72.655 Y116.702 E4.48082
G1 X73.172 Y117.517 E4.51292
G1 X73.39 Y117.828 E4.52555
G1 X73.795 Y118.377 E4.54825
G1 X74.09 Y118.755 E4.56419
G1 X74.709 Y119.448 E4.5951
G1 X75.394 Y120.089 E4.6263
G1 X75.764 Y120.406 E4.64251
G1 X76.315 Y120.85 E4.66604
G1 X77.369 Y121.581 E4.7087
G1 X78.217 Y122.045 E4.74086
G1 X78.958 Y122.401 E4.7682
G1 X79.273 Y122.54 E4.77965
G1 X80.511 Y122.997 E4.82354
G1 X81.43 Y123.229 E4.85507
G1 X81.88 Y123.321 E4.87034
G1 X82.533 Y123.437 E4.8924
G1 X83.82 Y123.572 E4.93544
G1 X84.767 Y123.572 E4.96694
G1 X85.411 Y123.54 E4.98839
G1 X87.777 Y123.383 E5.06725
G1 X90.334 Y123.281 E5.15237
G1 X92.809 Y123.252 E5.23469
G1 X95.367 Y123.296 E5.31978
G1 X97.908 Y123.41 E5.40438
G1 X99.144 Y123.5 E5.4456
G1 X100.04 Y123.554 E5.47546
G1 X100.868 Y123.571 E5.503
G1 X101.804 Y123.512 E5.53419
G1 X102.27 Y123.462 E5.54978
G1 X102.976 Y123.364 E5.57349
G1 X104.316 Y123.077 E5.61907
G1 X105.173 Y122.794 E5.64909
G1 X105.608 Y122.629 E5.66456
G1 X106.202 Y122.386 E5.68591
G1 X107.405 Y121.791 E5.73054
G1 X108.204 Y121.282 E5.76205
G1 X108.82 Y120.842 E5.78723
G1 X109.113 Y120.621 E5.79944
G1 X110.167 Y119.712 E5.84573
G1 X110.783 Y119.051 E5.87578
G1 X111.055 Y118.732 E5.88973
G1 X111.494 Y118.191 E5.9129
G1 X112.279 Y117.059 E5.95872
G1 X112.732 Y116.226 E5.99025
G1 X112.958 Y115.76 E6.00748
G1 X113.219 Y115.183 E6.02854
G1 X113.678 Y113.936 E6.07274
G1 X113.899 Y113.061 E6.10275
G1 X113.992 Y112.611 E6.11804
G1 X114.109 Y111.963 E6.13994
G1 X114.248 Y110.674 E6.18306
G1 X114.25 Y109.71 E6.21512
G1 X114.23 Y109.256 E6.23024
G1 X114.176 Y108.515 E6.25495
G1 X113.982 Y107.215 E6.29867
G1 X113.744 Y106.3 E6.33011
G1 X113.613 Y105.876 E6.34487
G1 X113.405 Y105.258 E6.36656
G1 X112.896 Y104.039 E6.4105
G1 X112.441 Y103.209 E6.44198
G1 X112.211 Y102.832 E6.45667
G1 X111.819 Y102.225 E6.4807
G1 X111.013 Y101.162 E6.52507
G1 X110.363 Y100.473 E6.55657
G1 X110.022 Y100.142 E6.57238
G1 X109.546 Y99.704 E6.59389
G1 X108.5 Y98.874 E6.63831
G1 X107.685 Y98.357 E6.67041
G1 X107.276 Y98.124 E6.68606
G1 X106.602 Y97.768 E6.71141
G1 X105.512 Y97.286 E6.75105
G1 X104.615 Y96.993 E6.78244
G1 X104.202 Y96.878 E6.7967
G1 X103.52 Y96.71 E6.82006
G1 X102.235 Y96.487 E6.86344
G1 X101.292 Y96.424 E6.89487
G1 X100.864 Y96.415 E6.90911
G1 X100.16 Y96.419 E6.93253
G1 X99.602 Y96.441 E6.9511
G1 X98.466 Y96.518 E6.98897
G1 X95.419 Y96.674 E7.09045
G1 X92.91 Y96.726 E7.17391
G1 X90.36 Y96.706 E7.25873
G1 X87.859 Y96.616 E7.34197
G1 X85.405 Y96.458 E7.42376
G1 X84.774 Y96.427 E7.44477
G1 X83.41 Y96.454 E7.49015
G1 X82.514 Y96.568 E7.52019
G1 X81.695 Y96.716 E7.54787
G1 X81.336 Y96.793 E7.56008
G1 X80.052 Y97.153 E7.60443
G1 X79.173 Y97.503 E7.6359
G1 X78.763 Y97.689 E7.65088
G1 X78.096 Y98.015 E7.67557
G1 X77.015 Y98.644 E7.71717
G1 X76.252 Y99.2 E7.74857
G0 F6000 X76.016 Y98.877
G1 F1200 X76.814 Y98.298 E7.78136
G1 X77.895 Y97.669 E7.82296
G1 X78.598 Y97.325 E7.84899
G1 X79.025 Y97.131 E7.86459
G1 X79.904 Y96.781 E7.89605
G1 X81.252 Y96.402 E7.94263
G1 X81.624 Y96.322 E7.95528
G1 X82.464 Y96.171 E7.98367
G1 X83.402 Y96.054 E8.01511
G1 X84.794 Y96.027 E8.06142
G1 X85.431 Y96.059 E8.08263
G1 X87.873 Y96.216 E8.16402
G1 X90.374 Y96.306 E8.24726
G1 X92.905 Y96.326 E8.33144
G1 X95.411 Y96.274 E8.41481
G1 X98.439 Y96.119 E8.51565
G1 X99.586 Y96.041 E8.55389
G1 X100.158 Y96.019 E8.57293
G1 X100.872 Y96.015 E8.59668
G1 X101.319 Y96.025 E8.61155
G1 X102.303 Y96.093 E8.64435
G1 X103.588 Y96.316 E8.68773
G1 X104.309 Y96.493 E8.71242
G1 X104.739 Y96.613 E8.72727
G1 X105.674 Y96.92 E8.76
G1 X106.789 Y97.414 E8.80057
G1 X107.474 Y97.776 E8.82633
G1 X107.899 Y98.019 E8.84262
G1 X108.714 Y98.536 E8.87472
G1 X109.795 Y99.391 E8.92056
G1 X110.301 Y99.855 E8.94339
G1 X110.654 Y100.199 E8.95979
G1 X111.332 Y100.92 E8.9927
G1 X112.138 Y101.983 E9.03707
G1 X112.552 Y102.624 E9.06245
G1 X112.792 Y103.017 E9.07777
G1 X113.247 Y103.847 E9.10925
G1 X113.784 Y105.13 E9.15551
G1 X113.995 Y105.758 E9.17755
G1 X114.131 Y106.199 E9.1929
G1 X114.378 Y107.156 E9.22577
G1 X114.572 Y108.456 E9.26949
G1 X114.63 Y109.238 E9.29557
G1 X114.65 Y109.711 E9.31131
G1 X114.646 Y110.717 E9.34477
G1 X114.503 Y112.034 E9.38883
G1 X114.384 Y112.692 E9.41107
G1 X114.287 Y113.159 E9.42694
G1 X114.066 Y114.034 E9.45695
G1 X113.583 Y115.348 E9.50352
G1 X113.318 Y115.935 E9.52494
G1 X113.092 Y116.401 E9.54216
G1 X112.608 Y117.287 E9.57574
G1 X111.805 Y118.443 E9.62256
G1 X111.359 Y118.992 E9.64608
G1 X111.076 Y119.324 E9.66059
G1 X110.46 Y119.985 E9.69065
G1 X109.354 Y120.94 E9.73925
G1 X109.052 Y121.167 E9.75181
G1 X108.419 Y121.619 E9.77768
G1 X107.582 Y122.15 E9.81065
G1 X106.379 Y122.745 E9.85529
G1 X105.75 Y123.003 E9.8779
G1 X105.298 Y123.174 E9.89397
G1 X104.441 Y123.457 E9.92399
G1 X103.06 Y123.755 E9.97098
G1 X102.313 Y123.86 E9.99607
G1 X101.829 Y123.911 E10.01226
G1 X100.86 Y123.971 E10.04455
G1 X100.016 Y123.953 E10.07263
G1 X99.115 Y123.899 E10.10265
G1 X97.89 Y123.81 E10.1435
G1 X95.349 Y123.696 E10.2281
G1 X92.807 Y123.652 E10.31266
G1 X90.35 Y123.681 E10.39438
G1 X87.793 Y123.783 E10.4795
G1 X85.437 Y123.939 E10.55803
G1 X84.787 Y123.972 E10.57968
G1 X83.778 Y123.97 E10.61324
G1 X82.491 Y123.835 E10.65628
G1 X81.8 Y123.713 E10.67962
G1 X81.332 Y123.617 E10.69551
G1 X80.413 Y123.385 E10.72703
G1 X79.112 Y122.906 E10.77314
G1 X78.785 Y122.762 E10.78503
G1 X78.025 Y122.396 E10.81308
G1 X77.141 Y121.91 E10.84663
G1 X76.087 Y121.179 E10.8893
G1 X75.504 Y120.71 E10.91418
G1 X75.121 Y120.381 E10.93098
G1 X74.436 Y119.74 E10.96218
G1 X73.775 Y119.001 E10.99516
G1 X73.473 Y118.614 E11.01148
G1 X73.062 Y118.058 E11.03448
G1 X72.834 Y117.731 E11.04774
G1 X72.296 Y116.879 E11.08125
G1 X71.711 Y115.691 E11.1253
G1 X71.446 Y115.042 E11.14861
G1 X71.283 Y114.61 E11.16397
G1 X71.001 Y113.752 E11.19401
G1 X70.692 Y112.302 E11.24332
G1 X70.601 Y111.636 E11.26568
G1 X70.55 Y111.152 E11.28186
G1 X70.49 Y110.167 E11.31468
G1 X70.54 Y108.927 E11.35596
G1 X70.623 Y108.185 E11.38079
G1 X70.697 Y107.67 E11.3981
G1 X70.884 Y106.7 E11.43096
G1 X71.267 Y105.436 E11.47488
G1 X71.533 Y104.743 E11.49957
G1 X71.72 Y104.294 E11.51575
G1 X72.143 Y103.402 E11.54858
G1 X72.82 Y102.289 E11.59191
G1 X73.221 Y101.724 E11.61496
G1 X73.498 Y101.353 E11.63036
G1 X74.128 Y100.589 E11.66329
G1 X75.084 Y99.651 E11.70784
G1 X75.674 Y99.151 E11.73356
G1 X76.016 Y98.877 E11.74814
G1 F2400 E10.94814
;MESH:kkkkk.stl
G0 F6000 X82.406 Y106.99
G0 X84.927 Y112.351
;TYPE:WALL-INNER
G1 F2400 E11.74814
G1 F1200 X85.5 Y112.165 E11.76817
G1 X86.001 Y111.848 E11.78789
G1 X86.411 Y111.41 E11.80785
G1 X86.701 Y110.884 E11.82782
G1 X86.852 Y110.302 E11.84782
G1 X86.852 Y109.701 E11.86781
G1 X86.702 Y109.121 E11.88774
G1 X86.413 Y108.592 E11.90779
G1 X86.007 Y108.159 E11.92753
G1 X85.499 Y107.834 E11.94759
G1 X84.932 Y107.649 E11.96742
G1 X84.33 Y107.61 E11.98749
G1 X83.734 Y107.723 E12.00766
G1 X83.195 Y107.977 E12.02748
G1 X82.733 Y108.359 E12.04742
G1 X82.377 Y108.85 E12.06759
G1 X82.159 Y109.4 E12.08727
G1 X82.083 Y109.996 E12.10725
G1 X82.158 Y110.598 E12.12743
G1 X82.375 Y111.146 E12.14703
G1 X82.735 Y111.643 E12.16745
G1 X83.194 Y112.023 E12.18727
G1 X83.735 Y112.277 E12.20714
G1 X84.324 Y112.39 E12.22709
G1 X84.927 Y112.351 E12.24719
G0 F6000 X85.003 Y112.747
;TYPE:WALL-OUTER
G1 F1200 X85.672 Y112.53 E12.27058
G1 X86.258 Y112.158 E12.29367
G1 X86.737 Y111.647 E12.31696
G1 X87.076 Y111.032 E12.34032
G1 X87.252 Y110.353 E12.36365
G1 X87.252 Y109.651 E12.387
G1 X87.077 Y108.971 E12.41035
G1 X86.739 Y108.355 E12.43372
G1 X86.265 Y107.849 E12.45678
G1 X85.671 Y107.47 E12.48022
G1 X85.008 Y107.253 E12.50342
G1 X84.305 Y107.208 E12.52685
G1 X83.61 Y107.339 E12.55037
G1 X82.979 Y107.637 E12.57358
G1 X82.439 Y108.083 E12.59688
G1 X82.023 Y108.656 E12.62043
G1 X81.769 Y109.3 E12.64345
G1 X81.68 Y109.996 E12.66679
G1 X81.768 Y110.698 E12.69032
G1 X82.021 Y111.34 E12.71327
G1 X82.441 Y111.919 E12.73706
G1 X82.978 Y112.363 E12.76024
G1 X83.61 Y112.661 E12.78348
G1 X84.299 Y112.792 E12.80681
G1 X85.003 Y112.747 E12.83027
G0 F6000 X84.862 Y111.993
;TYPE:SKIN
G1 F1200 X84.343 Y112.026 E12.84757
G1 X83.845 Y111.931 E12.86443
G1 X83.388 Y111.716 E12.88123
G1 X83.004 Y111.398 E12.89781
G1 X82.692 Y110.969 E12.91545
G1 X82.512 Y110.51 E12.93185
G1 X82.448 Y109.999 E12.94898
G1 X82.512 Y109.488 E12.96611
G1 X82.693 Y109.029 E12.98252
G1 X83.002 Y108.603 E13.00002
G1 X83.389 Y108.283 E13.01672
G1 X83.845 Y108.068 E13.03349
G1 X84.35 Y107.974 E13.05058
G1 X84.862 Y108.007 E13.06764
G1 X85.345 Y108.165 E13.08454
G1 X85.777 Y108.441 E13.10159
G1 X86.117 Y108.803 E13.11811
G1 X86.362 Y109.254 E13.13518
G1 X86.492 Y109.752 E13.1523
G1 X86.492 Y110.251 E13.1689
G1 X86.361 Y110.753 E13.18615
G1 X86.116 Y111.198 E13.20305
G1 X85.767 Y111.569 E13.21999
G1 X85.349 Y111.835 E13.23647
G1 X84.862 Y111.993 E13.2535
G0 F6000 X84.94 Y112.242
G0 X84.334 Y112.227
G0 X83.785 Y112.123
G0 X83.281 Y111.885
G0 X82.853 Y111.532
G0 X82.664 Y111.27
G0 X82.244 Y110.475
G0 X82.701 Y110.42
G1 F1200 X84.046 Y111.764 E13.31674
G0 F6000 X84.651 Y111.804
G1 F1200 X82.671 Y109.824 E13.40987
G0 F6000 X82.775 Y109.362
G1 F1200 X85.113 Y111.7 E13.51985
G0 F6000 X85.487 Y111.508
G1 F1200 X82.967 Y108.989 E13.63835
G0 F6000 X83.223 Y108.679
G1 F1200 X85.793 Y111.249 E13.75924
G0 F6000 X86.037 Y110.927
G1 F1200 X83.541 Y108.431 E13.87664
G0 F6000 X83.93 Y108.255
G1 F1200 X86.211 Y110.536 E13.98394
G0 F6000 X86.292 Y110.051
G1 F1200 X84.42 Y108.178 E14.07201
G0 F6000 X85.102 Y108.295
G1 F1200 X86.187 Y109.38 E14.12305
G1 F2400 E13.32305
;MESH:kalenbow.stl
G0 F6000 X86.634 Y109.264
G0 X87.034 Y109.675
G0 X88.118 Y109.676
G0 X97.162 Y110.984
G0 X100.672 Y112.377
;TYPE:WALL-INNER
G1 F2400 E14.12305
G1 F1200 X101.275 Y112.302 E14.14326
G1 X101.823 Y112.086 E14.16285
G1 X102.321 Y111.726 E14.18329
G1 X102.7 Y111.268 E14.20306
G1 X102.954 Y110.726 E14.22297
G1 X103.067 Y110.138 E14.24288
G1 X103.028 Y109.534 E14.26301
G1 X102.843 Y108.963 E14.28298
G1 X102.523 Y108.458 E14.30286
G1 X102.087 Y108.05 E14.32272
G1 X101.559 Y107.761 E14.34274
G1 X100.979 Y107.609 E14.36268
G1 X100.378 Y107.609 E14.38267
G1 X99.796 Y107.76 E14.40267
G1 X99.269 Y108.048 E14.42265
G1 X98.836 Y108.454 E14.44239
G1 X98.511 Y108.962 E14.46245
G1 X98.326 Y109.529 E14.48228
G1 X98.287 Y110.133 E14.50241
G1 X98.4 Y110.727 E14.52253
G1 X98.654 Y111.268 E14.5424
G1 X99.033 Y111.726 E14.56218
G1 X99.529 Y112.085 E14.58254
G1 X100.077 Y112.302 E14.60214
G1 X100.672 Y112.377 E14.62209
G0 F6000 X100.672 Y112.781
;TYPE:WALL-OUTER
G1 F1200 X101.375 Y112.693 E14.64566
G1 X102.017 Y112.44 E14.66861
G1 X102.597 Y112.02 E14.69242
G1 X103.04 Y111.484 E14.71555
G1 X103.338 Y110.851 E14.73882
G1 X103.469 Y110.163 E14.76212
G1 X103.424 Y109.458 E14.78561
G1 X103.208 Y108.791 E14.80893
G1 X102.833 Y108.201 E14.83218
G1 X102.324 Y107.724 E14.85538
G1 X101.709 Y107.385 E14.87874
G1 X101.03 Y107.209 E14.90207
G1 X100.328 Y107.209 E14.92542
G1 X99.648 Y107.384 E14.94877
G1 X99.032 Y107.722 E14.97214
G1 X98.526 Y108.196 E14.9952
G1 X98.147 Y108.79 E15.01864
G1 X97.93 Y109.453 E15.04184
G1 X97.885 Y110.157 E15.0653
G1 X98.016 Y110.851 E15.08879
G1 X98.314 Y111.484 E15.11206
G1 X98.757 Y112.02 E15.13519
G1 X99.335 Y112.439 E15.15894
G1 X99.977 Y112.692 E15.18189
G1 X100.672 Y112.781 E15.20519
