;FLAVOR:Marlin
;TIME:12211
;Filament used: 9.89803m
;Layer height: 0.2
;MINX:49.014
;MINY:49.024
;MINZ:0.2
;MAXX:170.986
;MAXY:170.975
;MAXZ:50
;Generated with Cura_SteamEngine 5.3.1
M140 S60
M105
M190 S60
M104 S200
M105
M109 S200
M82 ;absolute extrusion mode
; Ender 3 S1 Pro Start G-code
G28 ;Home
G92 E0 ;Reset Extruder
G1 Z2.0 F3000 ;Move Z Axis up
G1 X10.1 Y20 Z0.28 F5000.0 ;Move to start position
G1 X10.1 Y200.0 Z0.28 F1500.0 E15 ;Draw the first line
G1 X10.4 Y200.0 Z0.28 F5000.0 ;Move to side a little
G1 X10.4 Y20 Z0.28 F1500.0 E30 ;Draw the second line
G92 E0 ;Reset Extruder
G1 Z2.0 F3000 ;Move Z Axis up

G92 E0
G92 E0
G1 F2400 E-0.8
;LAYER_COUNT:250
;LAYER:0
M107
G0 F6000 X67.448 Y67.44 Z0.2
;TYPE:SKIRT
G1 F2400 E0
G1 F1200 X68.118 Y66.775 E0.0314
G1 X68.816 Y66.117 E0.0633
G1 X70.222 Y64.835 E0.12659
G1 X70.849 Y64.287 E0.15428
G1 X71.714 Y63.569 E0.19167
G1 X72.92 Y62.598 E0.24317
G1 X73.733 Y61.968 E0.27738
G1 X74.684 Y61.272 E0.31658
G1 X75.91 Y60.404 E0.36654
G1 X76.76 Y59.826 E0.40073
G1 X77.589 Y59.293 E0.43351
G1 X79.141 Y58.331 E0.49424
G1 X79.672 Y58.013 E0.51482
G1 X80.75 Y57.406 E0.55597
G1 X82.343 Y56.55 E0.61612
G1 X83.199 Y56.11 E0.64813
G1 X84.081 Y55.687 E0.68067
G1 X85.742 Y54.922 E0.74149
G1 X86.569 Y54.562 E0.77149
G1 X87.584 Y54.151 E0.80791
G1 X89.189 Y53.528 E0.86517
G1 X90.014 Y53.228 E0.89437
G1 X90.901 Y52.929 E0.9255
G1 X92.698 Y52.357 E0.98823
G1 X93.539 Y52.108 E1.0174
G1 X94.652 Y51.81 E1.05572
G1 X96.305 Y51.395 E1.11241
G1 X96.816 Y51.274 E1.12987
G1 X98.249 Y50.979 E1.17853
G1 X99.752 Y50.697 E1.2294
G1 X100.773 Y50.525 E1.26383
G1 X101.929 Y50.363 E1.30266
G1 X103.446 Y50.175 E1.3535
G1 X104.433 Y50.071 E1.38651
G1 X105.637 Y49.978 E1.42667
G1 X107.226 Y49.881 E1.47962
G1 X108.195 Y49.84 E1.51188
G1 X109.107 Y49.825 E1.54222
G1 X110.833 Y49.824 E1.59962
G1 X111.864 Y49.842 E1.63392
G1 X113.02 Y49.895 E1.67241
G1 X114.657 Y49.997 E1.72696
G1 X115.57 Y50.071 E1.75743
G1 X116.527 Y50.173 E1.78944
G1 X118.367 Y50.401 E1.85111
G1 X119.26 Y50.53 E1.88111
G1 X120.354 Y50.717 E1.91803
G1 X121.829 Y50.993 E1.96794
G1 X122.918 Y51.216 E2.00491
G1 X123.831 Y51.43 E2.0361
G1 X125.618 Y51.878 E2.09738
G1 X126.217 Y52.038 E2.118
G1 X127.525 Y52.428 E2.16339
G1 X129.212 Y52.964 E2.22227
G1 X130.005 Y53.234 E2.25013
G1 X131.082 Y53.633 E2.28833
G1 X132.557 Y54.205 E2.34095
G1 X133.461 Y54.574 E2.37342
G1 X134.507 Y55.035 E2.41144
G1 X135.888 Y55.671 E2.46201
G1 X136.855 Y56.137 E2.49772
G1 X137.833 Y56.642 E2.53432
G1 X139.331 Y57.448 E2.5909
G1 X140.114 Y57.888 E2.62077
G1 X140.911 Y58.363 E2.65163
G1 X142.548 Y59.377 E2.71568
G1 X143.261 Y59.838 E2.74392
G1 X144.024 Y60.359 E2.77465
G1 X145.567 Y61.451 E2.83752
G1 X146.284 Y61.98 E2.86716
G1 X147.164 Y62.666 E2.90427
G1 X148.361 Y63.629 E2.95537
G1 X148.963 Y64.127 E2.98135
G1 X149.862 Y64.913 E3.02107
G1 X151.275 Y66.2 E3.08464
G1 X151.883 Y66.776 E3.11249
G1 X152.749 Y67.642 E3.15323
G1 X153.862 Y68.793 E3.20648
G1 X154.503 Y69.48 E3.23773
G1 X155.237 Y70.311 E3.27461
G1 X156.306 Y71.56 E3.32929
G1 X156.915 Y72.298 E3.36111
G1 X157.589 Y73.163 E3.39759
G1 X158.534 Y74.413 E3.44971
G1 X158.946 Y74.973 E3.47283
G1 X159.679 Y76.033 E3.51569
G1 X160.679 Y77.542 E3.5759
G1 X161.183 Y78.334 E3.60713
G1 X161.765 Y79.307 E3.64484
G1 X162.629 Y80.805 E3.70235
G1 X163.027 Y81.527 E3.72977
G1 X163.551 Y82.54 E3.76771
G1 X164.226 Y83.897 E3.81812
G1 X164.694 Y84.882 E3.85439
G1 X165.137 Y85.884 E3.89083
G1 X165.776 Y87.397 E3.94545
G1 X166.125 Y88.267 E3.97663
G1 X166.529 Y89.359 E4.01536
G1 X167.077 Y90.912 E4.07013
G1 X167.366 Y91.79 E4.10087
G1 X167.684 Y92.847 E4.13759
G1 X168.111 Y94.346 E4.18943
G1 X168.37 Y95.321 E4.22298
G1 X168.594 Y96.266 E4.25528
G1 X169.081 Y98.522 E4.33205
G1 X169.161 Y98.936 E4.34607
G1 X169.363 Y100.116 E4.38589
G1 X169.591 Y101.588 E4.43543
G1 X169.735 Y102.636 E4.47061
G1 X169.836 Y103.562 E4.5016
G1 X170.01 Y105.436 E4.56419
G1 X170.075 Y106.326 E4.59387
G1 X170.125 Y107.428 E4.63056
G1 X170.176 Y109.085 E4.6857
G1 X170.186 Y110.02 E4.7168
G1 X170.168 Y111.184 E4.75552
G1 X170.117 Y112.801 E4.80933
G1 X170.071 Y113.742 E4.84067
G1 X169.987 Y114.826 E4.87683
G1 X169.84 Y116.414 E4.92987
G1 X169.729 Y117.413 E4.9633
G1 X169.574 Y118.523 E5.00058
G1 X169.338 Y120.042 E5.05171
G1 X169.16 Y121.068 E5.08634
G1 X168.934 Y122.185 E5.12425
G1 X168.564 Y123.875 E5.18179
G1 X168.361 Y124.718 E5.21063
G1 X168.13 Y125.582 E5.24037
G1 X167.616 Y127.388 E5.30283
G1 X167.342 Y128.286 E5.33405
G1 X167 Y129.309 E5.36993
G1 X166.437 Y130.901 E5.42609
G1 X166.114 Y131.766 E5.4568
G1 X165.693 Y132.804 E5.49406
G1 X165.098 Y134.211 E5.54487
G1 X164.664 Y135.185 E5.58033
G1 X164.181 Y136.193 E5.61751
G1 X163.493 Y137.575 E5.66886
G1 X163.024 Y138.477 E5.70267
G1 X162.47 Y139.473 E5.74058
G1 X161.615 Y140.952 E5.7974
G1 X161.163 Y141.7 E5.82647
G1 X160.649 Y142.504 E5.8582
G1 X159.636 Y144.033 E5.91921
G1 X159.107 Y144.8 E5.9502
G1 X158.555 Y145.557 E5.98136
G1 X157.505 Y146.948 E6.03932
G1 X156.885 Y147.739 E6.07275
G1 X156.15 Y148.624 E6.11101
G1 X155.156 Y149.785 E6.16185
G1 X154.458 Y150.571 E6.19681
G1 X153.83 Y151.24 E6.22733
G1 X152.552 Y152.56 E6.28844
G1 X151.882 Y153.225 E6.31984
G1 X151.057 Y154.001 E6.35751
G1 X149.894 Y155.061 E6.40984
G1 X149.157 Y155.708 E6.44246
G1 X148.285 Y156.433 E6.48018
G1 X147.08 Y157.403 E6.53163
G1 X146.268 Y158.032 E6.56579
G1 X145.312 Y158.731 E6.60518
G1 X143.957 Y159.688 E6.66036
G1 X143.244 Y160.171 E6.689
G1 X142.414 Y160.705 E6.72183
G1 X140.866 Y161.664 E6.78239
G1 X140.061 Y162.142 E6.81353
G1 X139.1 Y162.677 E6.85011
G1 X137.772 Y163.39 E6.90025
G1 X136.801 Y163.89 E6.93657
G1 X135.773 Y164.382 E6.97448
G1 X134.4 Y165.014 E7.02475
G1 X133.437 Y165.436 E7.05972
G1 X132.559 Y165.793 E7.09124
G1 X130.811 Y166.472 E7.15362
G1 X129.986 Y166.772 E7.18281
G1 X128.928 Y167.127 E7.21993
G1 X127.306 Y167.641 E7.27652
G1 X126.461 Y167.892 E7.30584
G1 X125.347 Y168.19 E7.34419
G1 X123.832 Y168.571 E7.39615
G1 X122.874 Y168.794 E7.42887
G1 X121.746 Y169.023 E7.46715
G1 X120.245 Y169.304 E7.51794
G1 X119.228 Y169.475 E7.55224
G1 X118.071 Y169.637 E7.5911
G1 X116.415 Y169.841 E7.64659
G1 X115.567 Y169.929 E7.67495
G1 X114.363 Y170.022 E7.71511
G1 X112.774 Y170.119 E7.76806
G1 X111.805 Y170.16 E7.80032
G1 X110.893 Y170.175 E7.83066
G1 X109.025 Y170.175 E7.89279
G1 X108.136 Y170.158 E7.92236
G1 X106.98 Y170.105 E7.96085
G1 X105.343 Y170.003 E8.0154
G1 X104.43 Y169.929 E8.04587
G1 X103.473 Y169.827 E8.07788
G1 X101.633 Y169.599 E8.13955
G1 X100.74 Y169.47 E8.16956
G1 X99.646 Y169.283 E8.20647
G1 X98.171 Y169.007 E8.25638
G1 X97.082 Y168.784 E8.29335
G1 X96.169 Y168.57 E8.32454
G1 X94.382 Y168.122 E8.38582
G1 X93.783 Y167.962 E8.40644
G1 X92.475 Y167.572 E8.45184
G1 X90.788 Y167.036 E8.51071
G1 X89.995 Y166.766 E8.53857
G1 X88.918 Y166.367 E8.57677
G1 X87.443 Y165.795 E8.62939
G1 X86.539 Y165.426 E8.66187
G1 X85.493 Y164.965 E8.69989
G1 X84.11 Y164.328 E8.75053
G1 X83.145 Y163.863 E8.78616
G1 X82.167 Y163.358 E8.82277
G1 X80.669 Y162.552 E8.87934
G1 X79.886 Y162.112 E8.90922
G1 X79.089 Y161.637 E8.94008
G1 X77.452 Y160.623 E9.00412
G1 X76.739 Y160.162 E9.03236
G1 X75.976 Y159.641 E9.06309
G1 X74.435 Y158.551 E9.12587
G1 X73.716 Y158.02 E9.1556
G1 X72.835 Y157.334 E9.19274
G1 X71.637 Y156.37 E9.24388
G1 X70.809 Y155.678 E9.27977
G1 X69.985 Y154.95 E9.31634
G1 X68.425 Y153.519 E9.38675
G1 X68.122 Y153.229 E9.4007
G1 X67.251 Y152.359 E9.44165
G1 X66.137 Y151.207 E9.49495
G1 X65.496 Y150.52 E9.5262
G1 X64.761 Y149.688 E9.56312
G1 X63.688 Y148.434 E9.61801
G1 X63.085 Y147.702 E9.64956
G1 X62.411 Y146.837 E9.68603
G1 X61.466 Y145.587 E9.73815
G1 X61.054 Y145.027 E9.76127
G1 X60.321 Y143.967 E9.80414
G1 X59.321 Y142.458 E9.86435
G1 X58.817 Y141.666 E9.89557
G1 X58.236 Y140.696 E9.93318
G1 X57.366 Y139.188 E9.99108
G1 X56.971 Y138.469 E10.01837
G1 X56.526 Y137.61 E10.05054
G1 X55.712 Y135.975 E10.11129
G1 X55.306 Y135.118 E10.14283
G1 X54.865 Y134.122 E10.17906
G1 X54.223 Y132.603 E10.23391
G1 X53.872 Y131.728 E10.26527
G1 X53.468 Y130.636 E10.30399
G1 X52.974 Y129.235 E10.3534
G1 X52.637 Y128.219 E10.38901
G1 X52.314 Y127.148 E10.42621
G1 X51.888 Y125.65 E10.47801
G1 X51.622 Y124.645 E10.51259
G1 X51.405 Y123.726 E10.54399
G1 X51.007 Y121.911 E10.6058
G1 X50.839 Y121.064 E10.63452
G1 X50.637 Y119.884 E10.67433
G1 X50.409 Y118.412 E10.72388
G1 X50.265 Y117.364 E10.75906
G1 X50.164 Y116.438 E10.79004
G1 X49.99 Y114.564 E10.85264
G1 X49.925 Y113.674 E10.88232
G1 X49.875 Y112.571 E10.91904
G1 X49.824 Y110.914 E10.97418
G1 X49.814 Y109.979 E11.00528
G1 X49.832 Y108.817 E11.04394
G1 X49.883 Y107.199 E11.09778
G1 X49.93 Y106.257 E11.12915
G1 X50.013 Y105.175 E11.16524
G1 X50.16 Y103.586 E11.21832
G1 X50.271 Y102.586 E11.25178
G1 X50.426 Y101.479 E11.28896
G1 X50.662 Y99.959 E11.34012
G1 X50.84 Y98.93 E11.37485
G1 X51.033 Y97.973 E11.40732
G1 X51.435 Y96.134 E11.46993
G1 X51.637 Y95.292 E11.49873
G1 X51.867 Y94.428 E11.52847
G1 X52.384 Y92.611 E11.5913
G1 X52.66 Y91.706 E11.62277
G1 X53 Y90.694 E11.65828
G1 X53.563 Y89.099 E11.71454
G1 X53.886 Y88.234 E11.74525
G1 X54.306 Y87.199 E11.7824
G1 X54.9 Y85.793 E11.83316
G1 X55.209 Y85.091 E11.85868
G1 X55.749 Y83.952 E11.9006
G1 X56.57 Y82.301 E11.96193
G1 X56.974 Y81.526 E11.991
G1 X57.53 Y80.526 E12.02905
G1 X58.385 Y79.048 E12.08584
G1 X58.84 Y78.295 E12.1151
G1 X59.354 Y77.492 E12.14682
G1 X60.364 Y75.967 E12.20765
G1 X60.892 Y75.202 E12.23857
G1 X61.55 Y74.302 E12.27565
G1 X62.576 Y72.947 E12.33218
G1 X63.114 Y72.262 E12.36115
G1 X63.849 Y71.377 E12.39941
G1 X64.844 Y70.215 E12.45029
G1 X65.546 Y69.425 E12.48544
G1 X66.166 Y68.764 E12.51559
G1 X67.448 Y67.44 E12.57688
G0 F6000 X67.166 Y67.156
G1 F1200 X67.844 Y66.484 E12.60863
G1 X68.546 Y65.821 E12.64075
G1 X69.952 Y64.539 E12.70403
G1 X70.594 Y63.979 E12.73237
G1 X71.463 Y63.257 E12.76995
G1 X72.675 Y62.282 E12.82168
G1 X73.497 Y61.645 E12.85627
G1 X74.453 Y60.946 E12.89566
G1 X75.685 Y60.073 E12.94588
G1 X76.544 Y59.49 E12.98041
G1 X77.378 Y58.953 E13.0134
G1 X78.935 Y57.988 E13.07433
G1 X79.476 Y57.664 E13.0953
G1 X80.561 Y57.054 E13.1367
G1 X82.16 Y56.194 E13.19709
G1 X83.026 Y55.749 E13.22947
G1 X83.914 Y55.324 E13.26222
G1 X85.582 Y54.555 E13.32331
G1 X86.419 Y54.191 E13.35366
G1 X87.439 Y53.778 E13.39026
G1 X89.052 Y53.152 E13.44781
G1 X89.886 Y52.849 E13.47732
G1 X90.78 Y52.548 E13.5087
G1 X92.584 Y51.973 E13.57167
G1 X93.425 Y51.724 E13.60085
G1 X94.555 Y51.422 E13.63975
G1 X96.213 Y51.006 E13.6966
G1 X96.735 Y50.882 E13.71445
G1 X98.175 Y50.586 E13.76334
G1 X99.686 Y50.303 E13.81447
G1 X100.717 Y50.129 E13.84925
G1 X101.88 Y49.966 E13.88831
G1 X103.404 Y49.777 E13.93939
G1 X104.402 Y49.672 E13.97276
G1 X105.613 Y49.579 E14.01316
G1 X107.209 Y49.481 E14.06634
G1 X108.188 Y49.44 E14.09893
G1 X109.107 Y49.425 E14.1295
G1 X110.84 Y49.424 E14.18714
G1 X111.882 Y49.442 E14.22181
G1 X113.045 Y49.496 E14.26053
G1 X114.689 Y49.598 E14.31531
G1 X115.612 Y49.673 E14.34611
G1 X116.576 Y49.776 E14.37836
G1 X118.424 Y50.005 E14.44029
G1 X119.327 Y50.136 E14.47064
G1 X120.428 Y50.324 E14.50779
G1 X121.909 Y50.601 E14.5579
G1 X123.009 Y50.827 E14.59526
G1 X123.928 Y51.042 E14.62665
G1 X125.721 Y51.492 E14.68813
G1 X126.331 Y51.655 E14.70913
G1 X127.646 Y52.047 E14.75477
G1 X129.341 Y52.585 E14.81392
G1 X130.144 Y52.859 E14.84214
G1 X131.227 Y53.26 E14.88055
G1 X132.708 Y53.835 E14.93339
G1 X133.622 Y54.208 E14.96622
G1 X134.674 Y54.672 E15.00447
G1 X136.062 Y55.311 E15.05529
G1 X137.039 Y55.782 E15.09136
G1 X138.023 Y56.29 E15.12819
G1 X139.527 Y57.099 E15.18499
G1 X140.319 Y57.544 E15.21521
G1 X141.122 Y58.023 E15.24631
G1 X142.765 Y59.041 E15.31059
G1 X143.487 Y59.508 E15.33919
G1 X144.255 Y60.032 E15.37012
G1 X145.804 Y61.129 E15.43325
G1 X146.53 Y61.665 E15.46326
G1 X147.415 Y62.354 E15.50057
G1 X148.616 Y63.321 E15.55185
G1 X149.226 Y63.826 E15.57819
G1 X150.131 Y64.617 E15.61817
G1 X151.55 Y65.91 E15.68202
G1 X152.166 Y66.493 E15.71023
G1 X153.037 Y67.364 E15.7512
G1 X154.154 Y68.52 E15.80466
G1 X154.803 Y69.215 E15.83629
G1 X155.541 Y70.051 E15.87338
G1 X156.615 Y71.305 E15.92829
G1 X157.231 Y72.052 E15.9605
G1 X157.908 Y72.922 E15.99716
G1 X158.856 Y74.176 E16.04945
G1 X159.275 Y74.745 E16.07295
G1 X160.012 Y75.812 E16.11608
G1 X161.016 Y77.327 E16.17653
G1 X161.526 Y78.129 E16.20814
G1 X162.111 Y79.107 E16.24605
G1 X162.979 Y80.612 E16.30383
G1 X163.382 Y81.343 E16.33159
G1 X163.909 Y82.362 E16.36975
G1 X164.587 Y83.725 E16.42038
G1 X165.06 Y84.72 E16.45703
G1 X165.505 Y85.728 E16.49367
G1 X166.147 Y87.248 E16.54855
G1 X166.5 Y88.128 E16.58009
G1 X166.906 Y89.226 E16.61903
G1 X167.457 Y90.787 E16.67408
G1 X167.749 Y91.675 E16.70518
G1 X168.069 Y92.737 E16.74207
G1 X168.498 Y94.243 E16.79415
G1 X168.759 Y95.229 E16.82807
G1 X168.985 Y96.182 E16.86065
G1 X169.474 Y98.446 E16.93769
G1 X169.555 Y98.869 E16.95201
G1 X169.758 Y100.055 E16.99203
G1 X169.987 Y101.534 E17.04181
G1 X170.133 Y102.593 E17.07736
G1 X170.234 Y103.525 E17.10854
G1 X170.409 Y105.407 E17.17141
G1 X170.475 Y106.308 E17.20146
G1 X170.525 Y107.416 E17.23835
G1 X170.576 Y109.081 E17.29375
G1 X170.586 Y110.026 E17.32518
G1 X170.568 Y111.197 E17.36414
G1 X170.517 Y112.821 E17.41818
G1 X170.47 Y113.773 E17.44988
G1 X170.385 Y114.863 E17.48624
G1 X170.238 Y116.458 E17.53952
G1 X170.125 Y117.468 E17.57332
G1 X169.969 Y118.584 E17.6108
G1 X169.732 Y120.11 E17.66216
G1 X169.552 Y121.147 E17.69717
G1 X169.325 Y122.271 E17.73531
G1 X168.953 Y123.969 E17.79312
G1 X168.747 Y124.821 E17.82228
G1 X168.515 Y125.691 E17.85223
G1 X167.999 Y127.505 E17.91495
G1 X167.721 Y128.413 E17.94654
G1 X167.377 Y129.442 E17.98262
G1 X166.812 Y131.041 E18.03903
G1 X166.485 Y131.916 E18.0701
G1 X166.061 Y132.96 E18.10757
G1 X165.463 Y134.374 E18.15864
G1 X165.025 Y135.358 E18.19446
G1 X164.539 Y136.371 E18.23183
G1 X163.848 Y137.76 E18.28343
G1 X163.374 Y138.671 E18.31759
G1 X162.816 Y139.673 E18.35573
G1 X161.957 Y141.159 E18.41282
G1 X161.5 Y141.915 E18.4422
G1 X160.982 Y142.725 E18.47418
G1 X159.965 Y144.26 E18.53542
G1 X159.43 Y145.036 E18.56677
G1 X158.874 Y145.798 E18.59815
G1 X157.82 Y147.195 E18.65635
G1 X157.193 Y147.995 E18.69016
G1 X156.454 Y148.884 E18.72861
G1 X155.455 Y150.051 E18.7797
G1 X154.75 Y150.845 E18.81502
G1 X154.117 Y151.518 E18.84575
G1 X152.834 Y152.844 E18.90712
G1 X152.156 Y153.516 E18.93887
G1 X151.326 Y154.297 E18.97677
G1 X150.158 Y155.362 E19.02935
G1 X149.413 Y156.016 E19.06232
G1 X148.536 Y156.745 E19.10025
G1 X147.325 Y157.719 E19.15194
G1 X146.504 Y158.355 E19.18648
G1 X145.543 Y159.058 E19.22608
G1 X144.181 Y160.019 E19.28152
G1 X143.46 Y160.507 E19.31048
G1 X142.625 Y161.045 E19.34352
G1 X141.07 Y162.008 E19.40435
G1 X140.256 Y162.491 E19.43583
G1 X139.289 Y163.029 E19.47264
G1 X137.955 Y163.746 E19.52301
G1 X136.974 Y164.251 E19.55971
G1 X135.94 Y164.745 E19.59782
G1 X134.561 Y165.38 E19.64832
G1 X133.588 Y165.807 E19.68366
G1 X132.704 Y166.166 E19.71539
G1 X130.948 Y166.848 E19.77805
G1 X130.113 Y167.151 E19.80759
G1 X129.049 Y167.508 E19.84492
G1 X127.42 Y168.024 E19.90175
G1 X126.564 Y168.278 E19.93145
G1 X125.445 Y168.578 E19.96998
G1 X123.923 Y168.961 E20.02218
G1 X122.954 Y169.186 E20.05527
G1 X121.82 Y169.416 E20.09375
G1 X120.311 Y169.698 E20.14481
G1 X119.283 Y169.871 E20.17948
G1 X118.12 Y170.034 E20.21854
G1 X116.456 Y170.239 E20.27431
G1 X115.598 Y170.328 E20.303
G1 X114.387 Y170.421 E20.34339
G1 X112.791 Y170.519 E20.39658
G1 X111.812 Y170.56 E20.42917
G1 X110.9 Y170.575 E20.45951
G1 X109.017 Y170.575 E20.52213
G1 X108.118 Y170.558 E20.55204
G1 X106.955 Y170.504 E20.59076
G1 X105.311 Y170.402 E20.64555
G1 X104.388 Y170.327 E20.67635
G1 X103.424 Y170.224 E20.70859
G1 X101.576 Y169.995 E20.77053
G1 X100.673 Y169.864 E20.80088
G1 X99.572 Y169.676 E20.83803
G1 X98.091 Y169.399 E20.88814
G1 X96.991 Y169.173 E20.92549
G1 X96.072 Y168.958 E20.95688
G1 X94.279 Y168.508 E21.01837
G1 X93.669 Y168.345 E21.03937
G1 X92.354 Y167.953 E21.08501
G1 X90.659 Y167.415 E21.14415
G1 X89.856 Y167.141 E21.17237
G1 X88.773 Y166.74 E21.21078
G1 X87.292 Y166.165 E21.26362
G1 X86.378 Y165.792 E21.29646
G1 X85.326 Y165.328 E21.3347
