;FLAVOR:Marlin
;TIME:4439
;Filament used: 2.53658m
;Layer height: 0.2
;MINX:64.59
;MINY:89.485
;MINZ:0.2
;MAXX:143.766
;MAXY:143.446
;MAXZ:32.4
;Generated with Cura_SteamEngine 5.3.1
M140 S60
M105
M190 S60
M104 S200
M105
M109 S200
M82 ;absolute extrusion mode
; Ender 3 S1 Pro Start G-code
G28 ;Home
G92 E0 ;Reset Extruder
G1 Z2.0 F3000 ;Move Z Axis up
G1 X10.1 Y20 Z0.28 F5000.0 ;Move to start position
G1 X10.1 Y200.0 Z0.28 F1500.0 E15 ;Draw the first line
G1 X10.4 Y200.0 Z0.28 F5000.0 ;Move to side a little
G1 X10.4 Y20 Z0.28 F1500.0 E30 ;Draw the second line
G92 E0 ;Reset Extruder
G1 Z2.0 F3000 ;Move Z Axis up

G92 E0
G92 E0
G1 F2400 E-0.8
;LAYER_COUNT:162
;LAYER:0
M107
G0 F6000 X70.249 Y98.569 Z0.2
;TYPE:SKIRT
G1 F2400 E0
G1 F1200 X71.008 Y98.08 E0.03003
G1 X72.193 Y97.489 E0.07407
G1 X73.975 Y96.74 E0.13837
G1 X75.865 Y95.888 E0.20732
G1 X76.304 Y95.702 E0.22318
G1 X76.855 Y95.484 E0.24289
G1 X77.709 Y95.19 E0.27293
G1 X78.585 Y94.972 E0.30295
G1 X79.754 Y94.805 E0.34223
G1 X80.606 Y94.736 E0.37066
G1 X83.488 Y94.557 E0.4667
G1 X85.999 Y94.327 E0.55056
G1 X88.565 Y94.019 E0.63652
G1 X90.404 Y93.756 E0.69831
G1 X90.763 Y93.711 E0.71034
G1 X91.811 Y93.604 E0.74538
G1 X93.404 Y93.493 E0.79849
G1 X95.955 Y93.272 E0.88366
G1 X98.445 Y92.986 E0.96702
G1 X100.988 Y92.621 E1.05247
G1 X103.502 Y92.186 E1.13732
G1 X105.951 Y91.692 E1.22042
G1 X108.969 Y90.985 E1.32352
G1 X110.302 Y90.649 E1.36924
G1 X111.628 Y90.408 E1.41406
G1 X112.142 Y90.349 E1.43127
G1 X113.043 Y90.285 E1.46131
G1 X114.337 Y90.334 E1.50438
G1 X114.809 Y90.382 E1.52016
G1 X115.703 Y90.513 E1.55022
G1 X116.243 Y90.633 E1.56861
G1 X117.107 Y90.852 E1.59826
G1 X117.571 Y90.982 E1.61429
G1 X118.145 Y91.161 E1.63428
G1 X118.519 Y91.29 E1.64744
G1 X119.682 Y91.724 E1.68873
G1 X120.849 Y92.248 E1.73128
G1 X122.979 Y93.371 E1.81137
G1 X125.226 Y94.479 E1.89469
G1 X128.101 Y95.794 E1.99984
G1 X128.904 Y96.206 E2.02986
G1 X129.402 Y96.508 E2.04923
G1 X129.839 Y96.791 E2.06655
G1 X130.575 Y97.315 E2.0966
G1 X131.261 Y97.902 E2.12663
G1 X131.893 Y98.548 E2.15669
G1 X132.465 Y99.247 E2.18673
G1 X132.908 Y99.889 E2.21267
G1 X134.39 Y102.225 E2.30468
G1 X135.023 Y103.381 E2.34852
G1 X135.765 Y104.975 E2.407
G1 X136.14 Y105.802 E2.4372
G1 X136.567 Y106.811 E2.47364
G1 X137.596 Y109.167 E2.55915
G1 X138.665 Y111.44 E2.64269
G1 X139.831 Y113.747 E2.72867
G1 X141.184 Y116.236 E2.82289
G1 X141.5 Y116.798 E2.84434
G1 X141.974 Y117.755 E2.87986
G1 X142.097 Y118.04 E2.89018
G1 X142.418 Y118.884 E2.92022
G1 X142.663 Y119.754 E2.95028
G1 X142.83 Y120.641 E2.9803
G1 X142.892 Y121.18 E2.99834
G1 X142.926 Y121.563 E3.01113
G1 X142.966 Y122.465 E3.04116
G1 X142.926 Y123.368 E3.07123
G1 X142.797 Y124.314 E3.10298
G1 X142.731 Y124.672 E3.11509
G1 X142.528 Y125.552 E3.14513
G1 X142.248 Y126.411 E3.17518
G1 X141.893 Y127.241 E3.2052
G1 X141.371 Y128.194 E3.24134
G1 X141.192 Y128.483 E3.25265
G1 X140.683 Y129.229 E3.28269
G1 X139.96 Y130.1 E3.32033
G1 X139.227 Y130.831 E3.35477
G1 X138.301 Y131.582 E3.39442
G1 X137.433 Y132.205 E3.42996
G1 X134.892 Y133.958 E3.53263
G1 X132.865 Y135.437 E3.61609
G1 X131.518 Y136.489 E3.67293
G1 X130.128 Y137.556 E3.73122
G1 X128.996 Y138.38 E3.77779
G1 X128.461 Y138.758 E3.79957
G1 X127.7 Y139.245 E3.82962
G1 X126.9 Y139.662 E3.85963
G1 X125.743 Y140.118 E3.90099
G1 X124.381 Y140.555 E3.94857
G1 X123.758 Y140.733 E3.97012
G1 X123.055 Y140.918 E3.99429
G1 X122.172 Y141.107 E4.02433
G1 X121.639 Y141.182 E4.04223
G1 X120.864 Y141.27 E4.06817
G1 X118.246 Y141.607 E4.15597
G1 X115.75 Y142.001 E4.24001
G1 X113.771 Y142.358 E4.3069
G1 X112.946 Y142.488 E4.33467
G1 X112.307 Y142.573 E4.35611
G1 X111.407 Y142.648 E4.38615
G1 X110.199 Y142.622 E4.42634
G1 X109.815 Y142.591 E4.43915
G1 X108.919 Y142.478 E4.46919
G1 X108.037 Y142.287 E4.49921
G1 X107.378 Y142.09 E4.52208
G1 X105.039 Y141.301 E4.60419
G1 X102.604 Y140.555 E4.68889
G1 X100.163 Y139.881 E4.77312
G1 X97.703 Y139.276 E4.85737
G1 X95.211 Y138.739 E4.94216
G1 X92.706 Y138.271 E5.02692
G1 X90.192 Y137.876 E5.11156
G1 X88.573 Y137.659 E5.16589
G1 X87.349 Y137.506 E5.20692
G1 X86.928 Y137.444 E5.22107
G1 X86.157 Y137.315 E5.24707
G1 X85.274 Y137.127 E5.2771
G1 X84.41 Y136.861 E5.30717
G1 X83.202 Y136.339 E5.35093
G1 X82.589 Y136.026 E5.37383
G1 X81.803 Y135.58 E5.40388
G1 X80.863 Y134.913 E5.44222
G1 X80.476 Y134.604 E5.45869
G1 X80.083 Y134.274 E5.47576
G1 X79.435 Y133.701 E5.50453
G1 X78.31 Y132.663 E5.55544
G1 X75.165 Y129.955 E5.69348
G1 X74.371 Y129.229 E5.72926
G1 X73.651 Y128.492 E5.76353
G1 X73.042 Y127.802 E5.79414
G1 X72.547 Y127.202 E5.82001
G1 X72.029 Y126.492 E5.84924
G1 X71.447 Y125.618 E5.88417
G1 X71.16 Y125.161 E5.90212
G1 X69.835 Y122.923 E5.98862
G1 X68.482 Y120.775 E6.07305
G1 X68.129 Y120.244 E6.09426
G1 X67.66 Y119.517 E6.12304
G1 X67.204 Y118.738 E6.15306
G1 X66.79 Y117.85 E6.18565
G1 X66.565 Y117.3 E6.20541
G1 X66.243 Y116.39 E6.23752
G1 X66.116 Y115.97 E6.25211
G1 X65.893 Y115.095 E6.28214
G1 X65.727 Y114.01 E6.31865
G1 X65.624 Y112.89 E6.35606
G1 X65.478 Y110.583 E6.43294
G1 X65.413 Y109.199 E6.47903
G1 X65.39 Y108.394 E6.50581
G1 X65.404 Y107.491 E6.53585
G1 X65.493 Y106.627 E6.56474
G1 X65.53 Y106.374 E6.57324
G1 X65.7 Y105.487 E6.60328
G1 X65.948 Y104.619 E6.63331
G1 X66.272 Y103.776 E6.66334
G1 X66.569 Y103.153 E6.6863
G1 X66.922 Y102.485 E6.71143
G1 X67.251 Y101.899 E6.73378
G1 X67.727 Y101.131 E6.76383
G1 X68.27 Y100.409 E6.79388
G1 X68.874 Y99.738 E6.82391
G1 X69.536 Y99.123 E6.85396
G1 X70.249 Y98.569 E6.88399
G0 F6000 X70.032 Y98.233
G1 F1200 X70.829 Y97.722 E6.91548
G1 X72.038 Y97.12 E6.9604
G1 X73.82 Y96.371 E7.02469
G1 X75.709 Y95.52 E7.0936
G1 X76.157 Y95.33 E7.10979
G1 X76.725 Y95.106 E7.1301
G1 X77.612 Y94.802 E7.16128
G1 X78.528 Y94.576 E7.19266
G1 X79.722 Y94.406 E7.23278
G1 X80.581 Y94.337 E7.26144
G1 X83.463 Y94.158 E7.35748
G1 X85.951 Y93.93 E7.44058
G1 X88.508 Y93.623 E7.52623
G1 X90.354 Y93.359 E7.58826
G1 X90.722 Y93.313 E7.60059
G1 X91.783 Y93.205 E7.63606
G1 X93.369 Y93.094 E7.68894
G1 X95.92 Y92.874 E7.7741
G1 X98.388 Y92.59 E7.85673
G1 X100.931 Y92.225 E7.94218
G1 X103.426 Y91.793 E8.0264
G1 X105.872 Y91.3 E8.10939
G1 X108.871 Y90.597 E8.21184
G1 X110.23 Y90.255 E8.25845
G1 X111.556 Y90.014 E8.30328
G1 X112.114 Y89.95 E8.32196
G1 X113.058 Y89.885 E8.35343
G1 X114.352 Y89.934 E8.3965
G1 X114.867 Y89.986 E8.41371
G1 X115.761 Y90.117 E8.44377
G1 X116.341 Y90.245 E8.46352
G1 X117.215 Y90.467 E8.49351
G1 X117.69 Y90.6 E8.50992
G1 X118.275 Y90.783 E8.53031
G1 X118.659 Y90.915 E8.54381
G1 X119.846 Y91.359 E8.58596
G1 X121.036 Y91.894 E8.62936
G1 X123.162 Y93.015 E8.7093
G1 X125.404 Y94.12 E8.79243
G1 X128.284 Y95.438 E8.89778
G1 X129.087 Y95.85 E8.92779
G1 X129.619 Y96.172 E8.94848
G1 X130.071 Y96.465 E8.96639
G1 X130.835 Y97.011 E8.99763
G1 X131.547 Y97.622 E9.02883
G1 X132.203 Y98.295 E9.06009
G1 X132.775 Y98.994 E9.09013
G1 X133.246 Y99.675 E9.11767
G1 X134.741 Y102.033 E9.21053
G1 X135.386 Y103.212 E9.25523
G1 X136.129 Y104.81 E9.31384
G1 X136.508 Y105.646 E9.34437
G1 X136.934 Y106.651 E9.38068
G1 X137.963 Y109.007 E9.46619
G1 X139.022 Y111.26 E9.54899
G1 X140.182 Y113.556 E9.63455
G1 X141.533 Y116.04 E9.72859
G1 X141.858 Y116.62 E9.75071
G1 X142.341 Y117.596 E9.78693
G1 X142.471 Y117.898 E9.79786
G1 X142.792 Y118.742 E9.82789
G1 X143.056 Y119.68 E9.8603
G1 X143.223 Y120.567 E9.89032
G1 X143.29 Y121.145 E9.90968
G1 X143.326 Y121.545 E9.92304
G1 X143.366 Y122.483 E9.95426
G1 X143.326 Y123.386 E9.98433
G1 X143.19 Y124.387 E10.01792
G1 X143.121 Y124.762 E10.03061
G1 X142.918 Y125.642 E10.06064
G1 X142.616 Y126.568 E10.09304
G1 X142.244 Y127.433 E10.12436
G1 X141.711 Y128.405 E10.16123
G1 X141.532 Y128.694 E10.17253
G1 X140.991 Y129.484 E10.20438
G1 X140.268 Y130.355 E10.24203
G1 X139.479 Y131.142 E10.2791
G1 X138.553 Y131.893 E10.31875
G1 X137.66 Y132.534 E10.35531
G1 X135.128 Y134.281 E10.45763
G1 X133.101 Y135.76 E10.54108
G1 X131.762 Y136.806 E10.5976
G1 X130.363 Y137.879 E10.65624
G1 X129.227 Y138.707 E10.70299
G1 X128.677 Y139.095 E10.72538
G1 X127.885 Y139.6 E10.75662
G1 X127.085 Y140.017 E10.78663
G1 X125.865 Y140.499 E10.83026
G1 X124.491 Y140.94 E10.87825
G1 X123.86 Y141.12 E10.90008
G1 X123.139 Y141.309 E10.92487
G1 X122.228 Y141.503 E10.95585
G1 X121.684 Y141.579 E10.97411
G1 X120.915 Y141.667 E10.99986
G1 X118.297 Y142.004 E11.08765
G1 X115.821 Y142.395 E11.17102
G1 X113.833 Y142.753 E11.23821
G1 X112.999 Y142.885 E11.26629
G1 X112.36 Y142.97 E11.28773
G1 X111.44 Y143.047 E11.31844
G1 X110.167 Y143.021 E11.36079
G1 X109.765 Y142.988 E11.3742
G1 X108.834 Y142.869 E11.40542
G1 X107.952 Y142.678 E11.43544
G1 X107.25 Y142.469 E11.4598
G1 X104.911 Y141.68 E11.5419
G1 X102.498 Y140.941 E11.62584
G1 X100.057 Y140.267 E11.71006
G1 X97.619 Y139.667 E11.79357
G1 X95.127 Y139.13 E11.87836
G1 X92.644 Y138.666 E11.96237
G1 X90.13 Y138.271 E12.04701
G1 X88.523 Y138.056 E12.10094
G1 X87.291 Y137.902 E12.14223
G1 X86.862 Y137.839 E12.15666
G1 X86.091 Y137.71 E12.18266
G1 X85.156 Y137.509 E12.21447
G1 X84.251 Y137.228 E12.24598
G1 X83.02 Y136.695 E12.2906
G1 X82.392 Y136.374 E12.31406
G1 X81.606 Y135.928 E12.34412
G1 X80.613 Y135.226 E12.38456
G1 X80.226 Y134.917 E12.40103
G1 X79.818 Y134.574 E12.41876
G1 X79.164 Y133.995 E12.44781
G1 X78.039 Y132.957 E12.49873
G1 X74.895 Y130.25 E12.63672
G1 X74.085 Y129.509 E12.67323
G1 X73.351 Y128.757 E12.70818
G1 X72.733 Y128.057 E12.73924
G1 X72.238 Y127.457 E12.76511
G1 X71.696 Y126.714 E12.7957
G1 X71.108 Y125.831 E12.83098
G1 X70.816 Y125.365 E12.84927
G1 X69.491 Y123.127 E12.93577
G1 X68.144 Y120.988 E13.01985
G1 X67.793 Y120.461 E13.04091
G1 X67.315 Y119.719 E13.07027
G1 X66.841 Y118.907 E13.10154
G1 X66.427 Y118.019 E13.13413
G1 X66.188 Y117.433 E13.15517
G1 X65.86 Y116.506 E13.18788
G1 X65.728 Y116.069 E13.20306
G1 X65.505 Y115.194 E13.2331
G1 X65.329 Y114.047 E13.27169
G1 X65.225 Y112.915 E13.3095
G1 X65.078 Y110.602 E13.38659
G1 X65.013 Y109.21 E13.43294
G1 X64.99 Y108.388 E13.46029
G1 X65.006 Y107.45 E13.49149
G1 X65.097 Y106.569 E13.52095
G1 X65.137 Y106.299 E13.53002
G1 X65.315 Y105.377 E13.56126
G1 X65.563 Y104.509 E13.59128
G1 X65.911 Y103.604 E13.62353
G1 X66.215 Y102.966 E13.64704
G1 X66.573 Y102.289 E13.67251
G1 X66.911 Y101.688 E13.69544
G1 X67.387 Y100.92 E13.72549
G1 X67.973 Y100.141 E13.75792
G1 X68.577 Y99.47 E13.78794
G1 X69.291 Y98.807 E13.82035
G1 X70.032 Y98.233 E13.85153
G0 F6000 X69.816 Y97.896
G1 F1200 X70.613 Y97.385 E13.88301
G1 X71.883 Y96.751 E13.93023
G1 X73.665 Y96.002 E13.99452
G1 X75.553 Y95.152 E14.06338
G1 X76.01 Y94.958 E14.0799
G1 X76.595 Y94.728 E14.1008
G1 X77.516 Y94.414 E14.13317
G1 X78.472 Y94.18 E14.1659
G1 X79.69 Y94.007 E14.20682
G1 X80.556 Y93.938 E14.23571
G1 X83.435 Y93.759 E14.33166
G1 X85.903 Y93.533 E14.41409
G1 X88.451 Y93.227 E14.49944
G1 X90.304 Y92.962 E14.5617
G1 X90.681 Y92.915 E14.57434
G1 X91.755 Y92.806 E14.61024
G1 X93.335 Y92.695 E14.66292
G1 X95.886 Y92.476 E14.74808
G1 X98.331 Y92.194 E14.82994
G1 X100.874 Y91.829 E14.91539
G1 X103.35 Y91.4 E14.99897
G1 X105.793 Y90.908 E15.08185
G1 X108.773 Y90.209 E15.18366
G1 X110.158 Y89.861 E15.23115
G1 X111.484 Y89.62 E15.27598
G1 X112.087 Y89.551 E15.29617
G1 X113.073 Y89.485 E15.32903
G1 X114.367 Y89.534 E15.3721
G1 X114.925 Y89.59 E15.39076
G1 X115.847 Y89.726 E15.42175
G1 X116.439 Y89.857 E15.44192
G1 X117.323 Y90.082 E15.47226
G1 X117.809 Y90.218 E15.48904
G1 X118.405 Y90.405 E15.50982
G1 X118.799 Y90.54 E15.52367
G1 X120.01 Y90.994 E15.56669
G1 X121.223 Y91.54 E15.61093
G1 X123.347 Y92.66 E15.6908
G1 X125.577 Y93.759 E15.77348
G1 X128.467 Y95.082 E15.8792
G1 X129.27 Y95.494 E15.90922
G1 X129.837 Y95.836 E15.93124
G1 X130.289 Y96.129 E15.94916
G1 X131.095 Y96.707 E15.98215
G1 X131.807 Y97.318 E16.01335
G1 X132.513 Y98.042 E16.04698
G1 X133.104 Y98.766 E16.07807
G1 X133.584 Y99.461 E16.10616
G1 X135.092 Y101.841 E16.19987
G1 X135.749 Y103.043 E16.24543
G1 X136.493 Y104.645 E16.30418
G1 X136.876 Y105.49 E16.33504
G1 X137.301 Y106.491 E16.37121
G1 X138.33 Y108.847 E16.45672
G1 X139.379 Y111.08 E16.53878
G1 X140.533 Y113.365 E16.62392
G1 X141.882 Y115.844 E16.71779
G1 X142.217 Y116.443 E16.74061
G1 X142.7 Y117.419 E16.77683
G1 X142.845 Y117.756 E16.78904
G1 X143.166 Y118.6 E16.81907
G1 X143.449 Y119.606 E16.85383
G1 X143.616 Y120.493 E16.88385
G1 X143.688 Y121.109 E16.90447
G1 X143.726 Y121.528 E16.91847
G1 X143.766 Y122.501 E16.95086
G1 X143.726 Y123.404 E16.98092
G1 X143.583 Y124.459 E17.01633
G1 X143.511 Y124.852 E17.02962
G1 X143.308 Y125.732 E17.05966
G1 X142.996 Y126.692 E17.09323
G1 X142.595 Y127.625 E17.12701
G1 X142.051 Y128.616 E17.16461
G1 X141.862 Y128.92 E17.17651
G1 X141.299 Y129.739 E17.20957
G1 X140.576 Y130.61 E17.24722
G1 X139.731 Y131.453 E17.28692
G1 X138.805 Y132.204 E17.32657
G1 X137.887 Y132.863 E17.36416
G1 X135.364 Y134.604 E17.46611
G1 X133.337 Y136.083 E17.54957
G1 X132.005 Y137.123 E17.60578
G1 X130.599 Y138.202 E17.66472
G1 X129.458 Y139.034 E17.71169
G1 X128.908 Y139.422 E17.73408
G1 X128.07 Y139.955 E17.76711
G1 X127.27 Y140.372 E17.79712
G1 X125.987 Y140.88 E17.84301
G1 X124.601 Y141.325 E17.89143
G1 X123.961 Y141.507 E17.91356
G1 X123.222 Y141.7 E17.93896
G1 X122.283 Y141.899 E17.97089
G1 X121.729 Y141.976 E17.98949
G1 X120.966 Y142.064 E18.01504
G1 X118.348 Y142.401 E18.10283
G1 X115.892 Y142.789 E18.18553
G1 X113.896 Y143.148 E18.25298
G1 X113.052 Y143.282 E18.28141
G1 X112.413 Y143.367 E18.30285
G1 X111.473 Y143.446 E18.33422
G1 X110.134 Y143.42 E18.37877
G1 X109.714 Y143.385 E18.39278
G1 X108.783 Y143.266 E18.424
G1 X107.867 Y143.069 E18.45516
G1 X107.122 Y142.848 E18.48101
G1 X104.783 Y142.059 E18.56311
G1 X102.392 Y141.327 E18.64628
G1 X99.951 Y140.653 E18.73051
G1 X97.535 Y140.058 E18.81326
G1 X95.043 Y139.521 E18.89805
G1 X92.582 Y139.061 E18.98132
G1 X90.068 Y138.666 E19.06596
G1 X88.473 Y138.453 E19.11948
G1 X87.233 Y138.298 E19.16105
G1 X86.796 Y138.234 E19.17574
G1 X86.007 Y138.101 E19.20235
G1 X85.037 Y137.891 E19.23536
G1 X84.132 Y137.61 E19.26688
G1 X82.838 Y137.051 E19.31376
G1 X82.195 Y136.722 E19.33778
G1 X81.375 Y136.255 E19.36917
G1 X80.363 Y135.539 E19.4104
G1 X79.976 Y135.23 E19.42687
G1 X79.553 Y134.873 E19.44528
G1 X78.893 Y134.289 E19.47459
G1 X77.768 Y133.251 E19.52551
G1 X74.625 Y130.545 E19.66345
G1 X73.799 Y129.788 E19.70071
G1 X73.051 Y129.022 E19.73632
G1 X72.424 Y128.312 E19.76783
G1 X71.929 Y127.712 E19.7937
G1 X71.363 Y126.936 E19.82564
G1 X70.769 Y126.043 E19.86132
G1 X70.472 Y125.569 E19.87992
G1 X69.147 Y123.331 E19.96642
G1 X67.811 Y121.21 E20.0498
G1 X67.457 Y120.678 E20.07105
G1 X66.97 Y119.921 E20.10099
G1 X66.478 Y119.076 E20.13351
G1 X66.064 Y118.188 E20.1661
G1 X65.811 Y117.566 E20.18843
G1 X65.477 Y116.622 E20.22174
G1 X65.34 Y116.168 E20.23751
G1 X65.117 Y115.293 E20.26754
G1 X64.931 Y114.084 E20.30823
G1 X64.826 Y112.94 E20.34644
G1 X64.678 Y110.621 E20.42372
G1 X64.613 Y109.221 E20.47034
G1 X64.59 Y108.381 E20.49829
G1 X64.608 Y107.409 E20.53062
G1 X64.701 Y106.51 E20.56068
G1 X64.744 Y106.223 E20.57033
G1 X64.93 Y105.267 E20.60273
G1 X65.178 Y104.399 E20.63275
G1 X65.55 Y103.432 E20.66721
G1 X65.861 Y102.779 E20.69127
G1 X66.224 Y102.093 E20.71708
G1 X66.571 Y101.477 E20.7406
G1 X67.047 Y100.709 E20.77065
G1 X67.676 Y99.873 E20.80545
G1 X68.28 Y99.202 E20.83547
G1 X69.046 Y98.491 E20.87023
G1 X69.816 Y97.896 E20.9026
G1 F2400 E20.1026
G0 F6000 X76.323 Y107.024
G1 F2400 E20.9026
G1 F1200 X76.445 Y106.978 E20.90694
G1 X77.294 Y106.926 E20.93523
G1 X77.307 Y106.924 E20.93567
G1 X77.716 Y106.872 E20.94938
G1 X77.736 Y106.869 E20.95005
G1 X78.094 Y106.787 E20.96227
G1 X78.118 Y106.78 E20.9631
G1 X78.499 Y106.639 E20.97661
G1 X78.514 Y106.632 E20.97716
G1 X78.911 Y106.447 E20.99173
G1 X78.929 Y106.438 E20.9924
G1 X79.275 Y106.232 E21.00579
G1 X79.315 Y106.201 E21.00747
G1 X79.734 Y105.78 E21.02723
G1 X79.75 Y105.762 E21.02803
G1 X79.853 Y105.63 E21.0336
G1 X80.107 Y105.411 E21.04475
G1 X80.345 Y105.269 E21.05397
G1 X80.576 Y105.183 E21.06217
G1 X80.802 Y105.133 E21.06987
G1 X81.186 Y105.109 E21.08267
G1 X82.187 Y105.277 E21.11642
G1 X82.548 Y105.392 E21.12903
G1 X82.815 Y105.541 E21.1392
G1 X83.39 Y105.935 E21.16238
