;FLAVOR:Marlin
;TIME:2539
;Filament used: 1.55678m
;Layer height: 0.2
;MINX:67.134
;MINY:52.968
;MINZ:0.2
;MAXX:136.321
;MAXY:134.333
;MAXZ:11.2
;Generated with Cura_SteamEngine 5.3.1
M140 S60
M105
M190 S60
M104 S200
M105
M109 S200
M82 ;absolute extrusion mode
; Ender 3 S1 Pro Start G-code
G28 ;Home
G92 E0 ;Reset Extruder
G1 Z2.0 F3000 ;Move Z Axis up
G1 X10.1 Y20 Z0.28 F5000.0 ;Move to start position
G1 X10.1 Y200.0 Z0.28 F1500.0 E15 ;Draw the first line
G1 X10.4 Y200.0 Z0.28 F5000.0 ;Move to side a little
G1 X10.4 Y20 Z0.28 F1500.0 E30 ;Draw the second line
G92 E0 ;Reset Extruder
G1 Z2.0 F3000 ;Move Z Axis up

G92 E0
G92 E0
G1 F2400 E-0.8
;LAYER_COUNT:56
;LAYER:0
M107
G0 F6000 X71.524 Y60.115 Z0.2
;TYPE:SKIRT
G1 F2400 E0
G1 F1200 X72.351 Y59.119 E0.04306
G1 X72.805 Y58.638 E0.06506
G1 X73.691 Y57.805 E0.1055
G1 X74.076 Y57.484 E0.12218
G1 X74.765 Y56.958 E0.15101
G1 X75.427 Y56.514 E0.17752
G1 X75.949 Y56.191 E0.19794
G1 X76.574 Y55.834 E0.22188
G1 X77.145 Y55.54 E0.24324
G1 X77.902 Y55.174 E0.2712
G1 X78.419 Y54.938 E0.29011
G1 X79.257 Y54.6 E0.32016
G1 X80.121 Y54.337 E0.3502
G1 X81.005 Y54.151 E0.38024
G1 X82.127 Y54.031 E0.41777
G1 X83.079 Y53.983 E0.44948
G1 X85.06 Y53.919 E0.5154
G1 X87.908 Y53.789 E0.61022
G1 X88.519 Y53.77 E0.63056
G1 X89.08 Y53.768 E0.64922
G1 X90.125 Y53.793 E0.68398
G1 X90.909 Y53.823 E0.71008
G1 X93.394 Y53.849 E0.79273
G1 X96.87 Y53.774 E0.90837
G1 X97.344 Y53.775 E0.92414
G1 X98.349 Y53.8 E0.95757
G1 X99.258 Y53.849 E0.98785
G1 X100.774 Y53.915 E1.03832
G1 X102.722 Y54.015 E1.1032
G1 X104.188 Y54.081 E1.15201
G1 X105.087 Y54.162 E1.18203
G1 X105.976 Y54.322 E1.21207
G1 X106.847 Y54.559 E1.24209
G1 X107.694 Y54.873 E1.27214
G1 X108.502 Y55.257 E1.30189
G1 X109.434 Y55.756 E1.33706
G1 X109.861 Y56 E1.35341
G1 X110.567 Y56.427 E1.38086
G1 X111.356 Y56.962 E1.41256
G1 X111.878 Y57.353 E1.43425
G1 X112.663 Y58.005 E1.4682
G1 X112.994 Y58.309 E1.48314
G1 X113.834 Y59.178 E1.52334
G1 X114.397 Y59.834 E1.55209
G1 X114.954 Y60.545 E1.58213
G1 X115.442 Y61.293 E1.61184
G1 X115.822 Y61.937 E1.63671
G1 X116.315 Y62.882 E1.67216
G1 X116.633 Y63.578 E1.69761
G1 X117.108 Y64.83 E1.74215
G1 X117.526 Y66.215 E1.79027
G1 X117.819 Y67.304 E1.82778
G1 X117.979 Y67.931 E1.8493
G1 X118.671 Y70.357 E1.93321
G1 X119.449 Y72.808 E2.01873
G1 X120.263 Y75.153 E2.10129
G1 X121.175 Y77.556 E2.18678
G1 X122.139 Y79.891 E2.2708
G1 X123.187 Y82.239 E2.35632
G1 X124.289 Y84.532 E2.44094
G1 X125.445 Y86.774 E2.52484
G1 X126.67 Y88.993 E2.60914
G1 X127.966 Y91.19 E2.69398
G1 X129.315 Y93.337 E2.77831
G1 X130.427 Y95.016 E2.8453
G1 X130.796 Y95.596 E2.86816
G1 X131.247 Y96.379 E2.89821
G1 X131.524 Y96.959 E2.91959
G1 X132.458 Y99.078 E2.99661
G1 X133.13 Y100.49 E3.04862
G1 X133.92 Y102.228 E3.11212
G1 X134.128 Y102.712 E3.12964
G1 X134.305 Y103.168 E3.14591
G1 X134.494 Y103.688 E3.16431
G1 X134.701 Y104.304 E3.18593
G1 X134.835 Y104.755 E3.20158
G1 X134.97 Y105.249 E3.21861
G1 X135.132 Y105.92 E3.24157
G1 X135.24 Y106.476 E3.26041
G1 X135.348 Y107.165 E3.2836
G1 X135.427 Y107.773 E3.30399
G1 X135.508 Y108.814 E3.33872
G1 X135.521 Y109.3 E3.35489
G1 X135.513 Y110.117 E3.38207
G1 X135.464 Y110.845 E3.40634
G1 X135.424 Y111.231 E3.41924
G1 X135.305 Y112.075 E3.44759
G1 X135.138 Y112.912 E3.47598
G1 X135.064 Y113.215 E3.48635
G1 X134.906 Y113.789 E3.50615
G1 X134.832 Y114.03 E3.51454
G1 X134.618 Y114.652 E3.53642
G1 X134.425 Y115.161 E3.55452
G1 X134.042 Y116.044 E3.58654
G1 X133.84 Y116.455 E3.60177
G1 X133.354 Y117.332 E3.63512
G1 X132.944 Y117.993 E3.66099
G1 X132.358 Y118.885 E3.69648
G1 X131.827 Y119.615 E3.72651
G1 X131.232 Y120.295 E3.75656
G1 X130.58 Y120.92 E3.7866
G1 X129.643 Y121.649 E3.82609
G1 X127.84 Y122.89 E3.89889
G1 X126.694 Y123.66 E3.94481
G1 X125.777 Y124.209 E3.98036
G1 X124.65 Y124.806 E4.02277
G1 X122.83 Y125.808 E4.09187
G1 X122.641 Y125.902 E4.0989
G1 X120.779 Y126.933 E4.16969
G1 X118.163 Y128.334 E4.26839
G1 X113.927 Y130.553 E4.42744
G1 X112.71 Y131.208 E4.4734
G1 X111.668 Y131.732 E4.5122
G1 X110.545 Y132.273 E4.55366
G1 X109.715 Y132.628 E4.58368
G1 X108.856 Y132.908 E4.61373
G1 X107.761 Y133.148 E4.65102
G1 X106.24 Y133.395 E4.70227
G1 X105.343 Y133.5 E4.73231
G1 X104.695 Y133.527 E4.75388
G1 X104.017 Y133.533 E4.77643
G1 X103.503 Y133.524 E4.79353
G1 X103.118 Y133.508 E4.80634
G1 X102.538 Y133.468 E4.82568
G1 X102.093 Y133.424 E4.84055
G1 X100.971 Y133.249 E4.87832
G1 X100.483 Y133.145 E4.89492
G1 X99.621 Y132.921 E4.92454
G1 X99.262 Y132.811 E4.93703
G1 X98.365 Y132.49 E4.96871
G1 X97.78 Y132.249 E4.98976
G1 X96.567 Y131.652 E5.03472
G1 X96.113 Y131.39 E5.05216
G1 X95.619 Y131.086 E5.07145
G1 X95.378 Y130.928 E5.08104
G1 X94.71 Y130.451 E5.10834
G1 X94.288 Y130.123 E5.12611
G1 X93.706 Y129.635 E5.15137
G1 X93.392 Y129.351 E5.16546
G1 X92.785 Y128.753 E5.1938
G1 X92.149 Y128.073 E5.22476
G1 X91.619 Y127.46 E5.25172
G1 X91.082 Y126.769 E5.28082
G1 X90.566 Y126.041 E5.3105
G1 X90.17 Y125.441 E5.33441
G1 X89.905 Y125.016 E5.35107
G1 X88.107 Y121.978 E5.46849
G1 X86.906 Y120.068 E5.54353
G1 X86.46 Y119.283 E5.57356
G1 X86.03 Y118.325 E5.60848
G1 X85.711 Y117.476 E5.63865
G1 X85.243 Y116.092 E5.68724
G1 X85.115 Y115.686 E5.7014
G1 X84.393 Y113.215 E5.78702
G1 X83.623 Y110.811 E5.87098
G1 X82.783 Y108.429 E5.95499
G1 X81.869 Y106.047 E6.03985
G1 X80.894 Y103.71 E6.12407
G1 X79.85 Y101.393 E6.20859
G1 X78.749 Y99.123 E6.29251
G1 X77.558 Y96.836 E6.37827
G1 X76.325 Y94.623 E6.46253
G1 X75.042 Y92.467 E6.54597
G1 X73.672 Y90.304 E6.63113
G1 X71.903 Y87.698 E6.73589
G1 X71.272 Y86.801 E6.77237
G1 X70.874 Y86.196 E6.79645
G1 X70.606 Y85.748 E6.81382
G1 X70.381 Y85.35 E6.82902
G1 X69.974 Y84.551 E6.85885
G1 X69.794 Y84.155 E6.87331
G1 X69.52 Y83.489 E6.89727
G1 X69.298 Y82.892 E6.91845
G1 X68.989 Y81.916 E6.9525
G1 X68.845 Y81.365 E6.97144
G1 X68.715 Y80.8 E6.99073
G1 X68.558 Y79.98 E7.01849
G1 X68.462 Y79.378 E7.03877
G1 X68.389 Y78.822 E7.05742
G1 X68.335 Y78.3 E7.07488
G1 X68.3 Y77.869 E7.08926
G1 X68.226 Y76.629 E7.13057
G1 X68.124 Y74.21 E7.2111
G1 X67.956 Y71.747 E7.29321
G1 X67.934 Y70.844 E7.32325
G1 X67.993 Y69.943 E7.35329
G1 X68.116 Y68.873 E7.38911
G1 X68.24 Y68.041 E7.41709
G1 X68.356 Y67.38 E7.43941
G1 X68.459 Y66.858 E7.4571
G1 X68.66 Y66.028 E7.48551
G1 X68.802 Y65.525 E7.50289
G1 X69.064 Y64.713 E7.53127
G1 X69.197 Y64.342 E7.54438
G1 X69.524 Y63.54 E7.57319
G1 X69.864 Y62.797 E7.60036
G1 X70.497 Y61.623 E7.64472
G1 X70.749 Y61.221 E7.6605
G1 X71.146 Y60.634 E7.68407
G1 X71.524 Y60.115 E7.70543
G0 F6000 X71.216 Y59.859
G1 F1200 X72.06 Y58.844 E7.74933
G1 X72.514 Y58.363 E7.77133
G1 X73.435 Y57.498 E7.81336
G1 X73.833 Y57.166 E7.8306
G1 X74.542 Y56.626 E7.86024
G1 X75.217 Y56.174 E7.88726
G1 X75.751 Y55.844 E7.90814
G1 X76.391 Y55.478 E7.93266
G1 X76.971 Y55.18 E7.95435
G1 X77.736 Y54.81 E7.98261
G1 X78.269 Y54.567 E8.00209
G1 X79.141 Y54.217 E8.03335
G1 X80.005 Y53.954 E8.06338
G1 X80.962 Y53.753 E8.09591
G1 X82.084 Y53.633 E8.13344
G1 X83.066 Y53.583 E8.16614
G1 X85.042 Y53.519 E8.2319
G1 X87.896 Y53.389 E8.32692
G1 X88.518 Y53.37 E8.34762
G1 X89.09 Y53.368 E8.36664
G1 X90.14 Y53.393 E8.40158
G1 X90.924 Y53.423 E8.42767
G1 X93.389 Y53.449 E8.50966
G1 X96.871 Y53.374 E8.6255
G1 X97.354 Y53.375 E8.64157
G1 X98.371 Y53.401 E8.6754
G1 X104.206 Y53.681 E8.8697
G1 X105.158 Y53.768 E8.9015
G1 X106.047 Y53.928 E8.93154
G1 X106.986 Y54.184 E8.96391
G1 X107.866 Y54.512 E8.99515
G1 X108.691 Y54.904 E9.02553
G1 X109.623 Y55.403 E9.06069
G1 X110.068 Y55.658 E9.07775
G1 X110.791 Y56.096 E9.10586
G1 X111.596 Y56.642 E9.13821
G1 X112.134 Y57.045 E9.16057
G1 X112.934 Y57.71 E9.19517
G1 X113.282 Y58.031 E9.21092
G1 X114.138 Y58.917 E9.25189
G1 X114.712 Y59.587 E9.28124
G1 X115.269 Y60.298 E9.31128
G1 X115.777 Y61.074 E9.34213
G1 X116.177 Y61.752 E9.36831
G1 X116.679 Y62.716 E9.40446
G1 X117.007 Y63.436 E9.43077
G1 X117.491 Y64.714 E9.47623
G1 X117.912 Y66.111 E9.52475
G1 X118.207 Y67.205 E9.56244
G1 X118.364 Y67.821 E9.58358
G1 X119.056 Y70.247 E9.66749
G1 X119.827 Y72.677 E9.75228
G1 X120.637 Y75.011 E9.83446
G1 X121.545 Y77.403 E9.91955
G1 X122.509 Y79.738 E10.00357
G1 X123.548 Y82.066 E10.08836
G1 X124.645 Y84.349 E10.17261
G1 X125.801 Y86.591 E10.25651
G1 X127.015 Y88.79 E10.34005
G1 X128.305 Y90.977 E10.4245
G1 X129.654 Y93.124 E10.50884
G1 X130.764 Y94.801 E10.57573
G1 X131.143 Y95.396 E10.59919
G1 X131.594 Y96.179 E10.62924
G1 X131.89 Y96.798 E10.65206
G1 X132.819 Y98.906 E10.72868
G1 X133.494 Y100.324 E10.78092
G1 X134.288 Y102.07 E10.84471
G1 X134.501 Y102.567 E10.8627
G1 X134.681 Y103.031 E10.87925
G1 X134.873 Y103.561 E10.898
G1 X135.084 Y104.19 E10.92006
G1 X135.221 Y104.65 E10.93603
G1 X135.359 Y105.155 E10.95344
G1 X135.525 Y105.844 E10.97701
G1 X135.635 Y106.414 E10.99632
G1 X135.745 Y107.113 E11.01986
G1 X135.826 Y107.742 E11.04095
G1 X135.908 Y108.803 E11.07634
G1 X135.921 Y109.304 E11.09301
G1 X135.912 Y110.144 E11.12095
G1 X135.862 Y110.886 E11.14569
G1 X135.82 Y111.287 E11.1591
G1 X135.697 Y112.153 E11.18819
G1 X135.527 Y113.007 E11.21715
G1 X135.45 Y113.321 E11.2279
G1 X135.288 Y113.906 E11.24809
G1 X135.21 Y114.16 E11.25693
G1 X134.992 Y114.794 E11.27923
G1 X134.792 Y115.32 E11.29795
G1 X134.401 Y116.22 E11.33058
G1 X134.19 Y116.649 E11.34649
G1 X133.694 Y117.543 E11.38049
G1 X133.278 Y118.213 E11.40672
G1 X132.681 Y119.12 E11.44284
G1 X132.128 Y119.878 E11.47404
G1 X131.509 Y120.584 E11.50527
G1 X130.826 Y121.236 E11.53668
G1 X129.889 Y121.965 E11.57616
G1 X128.063 Y123.222 E11.6499
G1 X126.899 Y124.003 E11.69652
G1 X125.964 Y124.562 E11.73275
G1 X124.843 Y125.156 E11.77494
G1 X123.008 Y126.166 E11.84461
G1 X122.835 Y126.252 E11.85104
G1 X120.968 Y127.286 E11.92202
G1 X118.349 Y128.688 E12.02083
G1 X114.113 Y130.907 E12.17988
G1 X112.89 Y131.565 E12.22607
G1 X111.842 Y132.092 E12.26508
G1 X110.702 Y132.641 E12.30717
G1 X109.872 Y132.996 E12.33719
G1 X108.942 Y133.299 E12.36972
G1 X107.825 Y133.543 E12.40775
G1 X106.287 Y133.792 E12.45957
G1 X105.36 Y133.9 E12.49061
G1 X104.712 Y133.927 E12.51218
G1 X104.01 Y133.933 E12.53553
G1 X103.486 Y133.924 E12.55296
G1 X103.09 Y133.907 E12.56615
G1 X102.499 Y133.866 E12.58585
G1 X102.031 Y133.819 E12.6015
G1 X100.888 Y133.64 E12.63997
G1 X100.382 Y133.532 E12.65718
G1 X99.504 Y133.303 E12.68736
G1 X99.127 Y133.188 E12.70047
G1 X98.213 Y132.86 E12.73277
G1 X97.603 Y132.608 E12.75472
G1 X96.39 Y132.011 E12.79969
G1 X95.903 Y131.731 E12.81837
G1 X95.4 Y131.421 E12.83802
G1 X95.146 Y131.254 E12.84813
G1 X94.465 Y130.767 E12.87598
G1 X94.031 Y130.43 E12.89426
G1 X93.438 Y129.932 E12.92001
G1 X93.111 Y129.636 E12.93468
G1 X92.493 Y129.026 E12.96356
G1 X91.846 Y128.335 E12.99505
G1 X91.316 Y127.722 E13.022
G1 X90.756 Y127 E13.05239
G1 X90.232 Y126.261 E13.08252
G1 X89.831 Y125.653 E13.10675
G1 X89.561 Y125.22 E13.12372
G1 X87.768 Y122.191 E13.24079
G1 X86.558 Y120.266 E13.31641
G1 X86.112 Y119.481 E13.34644
G1 X85.665 Y118.489 E13.38263
G1 X85.332 Y117.604 E13.41408
G1 X84.862 Y116.212 E13.46295
G1 X84.731 Y115.798 E13.47739
G1 X84.009 Y113.327 E13.56301
G1 X83.242 Y110.933 E13.64662
G1 X82.406 Y108.562 E13.73024
G1 X81.5 Y106.201 E13.81435
G1 X80.529 Y103.874 E13.89822
G1 X79.485 Y101.557 E13.98274
G1 X78.389 Y99.298 E14.06625
G1 X77.203 Y97.021 E14.15164
G1 X75.981 Y94.828 E14.23514
G1 X74.698 Y92.672 E14.31859
G1 X73.334 Y90.518 E14.40339
G1 X71.572 Y87.923 E14.50771
G1 X70.938 Y87.021 E14.54438
G1 X70.531 Y86.401 E14.56905
G1 X70.258 Y85.945 E14.58673
G1 X70.025 Y85.532 E14.6025
G1 X69.61 Y84.717 E14.63292
G1 X69.424 Y84.307 E14.64789
G1 X69.145 Y83.628 E14.67231
G1 X68.917 Y83.013 E14.69412
G1 X68.602 Y82.017 E14.72887
G1 X68.455 Y81.455 E14.74819
G1 X68.322 Y80.875 E14.76798
G1 X68.163 Y80.043 E14.79615
G1 X68.065 Y79.43 E14.8168
G1 X67.991 Y78.863 E14.83582
G1 X67.936 Y78.332 E14.85358
G1 X67.901 Y77.893 E14.86822
G1 X67.826 Y76.646 E14.90977
G1 X67.724 Y74.227 E14.9903
G1 X67.556 Y71.757 E15.07264
G1 X67.534 Y70.854 E15.10269
G1 X67.596 Y69.897 E15.13458
G1 X67.72 Y68.814 E15.17084
G1 X67.846 Y67.972 E15.19916
G1 X67.964 Y67.303 E15.22175
G1 X68.07 Y66.764 E15.24002
G1 X68.275 Y65.919 E15.26894
G1 X68.421 Y65.402 E15.28681
G1 X68.687 Y64.578 E15.31561
G1 X68.82 Y64.207 E15.32872
G1 X69.16 Y63.374 E15.35864
G1 X69.512 Y62.607 E15.38671
G1 X70.158 Y61.411 E15.43192
G1 X70.418 Y60.997 E15.44818
G1 X70.823 Y60.399 E15.4722
G1 X71.216 Y59.859 E15.49442
G0 F6000 X70.908 Y59.603
G1 F1200 X71.769 Y58.569 E15.53917
G1 X72.24 Y58.071 E15.56197
G1 X73.161 Y57.206 E15.60399
G1 X73.591 Y56.848 E15.6226
G1 X74.319 Y56.294 E15.65303
G1 X75.007 Y55.834 E15.68055
G1 X75.552 Y55.497 E15.70187
G1 X76.208 Y55.122 E15.727
G1 X76.797 Y54.82 E15.74901
G1 X77.57 Y54.446 E15.77758
G1 X78.12 Y54.196 E15.79767
G1 X79.025 Y53.834 E15.83009
G1 X79.889 Y53.571 E15.86013
G1 X80.919 Y53.355 E15.89513
G1 X82.041 Y53.235 E15.93266
G1 X83.053 Y53.183 E15.96637
G1 X85.024 Y53.119 E16.03196
G1 X87.884 Y52.989 E16.12718
G1 X88.517 Y52.97 E16.14824
G1 X89.1 Y52.968 E16.16763
G1 X90.155 Y52.993 E16.20273
G1 X90.939 Y53.023 E16.22883
G1 X93.384 Y53.049 E16.31015
G1 X96.872 Y52.974 E16.42619
G1 X97.364 Y52.975 E16.44255
G1 X98.392 Y53.002 E16.47676
G1 X104.225 Y53.281 E16.67099
G1 X105.229 Y53.374 E16.70452
G1 X106.118 Y53.534 E16.73456
G1 X107.126 Y53.809 E16.76932
G1 X108.006 Y54.137 E16.80055
G1 X108.88 Y54.551 E16.83272
G1 X109.822 Y55.056 E16.86827
G1 X110.275 Y55.316 E16.88564
G1 X111.016 Y55.765 E16.91446
G1 X111.836 Y56.322 E16.94743
G1 X112.39 Y56.737 E16.97045
G1 X113.19 Y57.402 E17.00505
G1 X113.57 Y57.753 E17.02226
G1 X114.442 Y58.657 E17.06403
G1 X115.027 Y59.34 E17.09394
G1 X115.584 Y60.051 E17.12398
G1 X116.122 Y60.871 E17.1566
G1 X116.532 Y61.567 E17.18347
G1 X117.043 Y62.55 E17.22032
G1 X117.381 Y63.294 E17.2475
G1 X117.865 Y64.572 E17.29295
G1 X118.298 Y66.007 E17.3428
G1 X118.595 Y67.106 E17.38067
G1 X118.749 Y67.711 E17.40143
G1 X119.441 Y70.137 E17.48534
G1 X120.205 Y72.546 E17.56939
G1 X121.011 Y74.869 E17.65118
G1 X121.915 Y77.25 E17.73588
G1 X122.879 Y79.585 E17.81991
G1 X123.909 Y81.893 E17.90397
G1 X125.001 Y84.166 E17.98784
G1 X126.153 Y86.401 E18.07147
G1 X127.36 Y88.587 E18.15452
G1 X128.644 Y90.764 E18.23859
G1 X129.988 Y92.903 E18.32261
G1 X131.101 Y94.586 E18.38972
G1 X131.49 Y95.196 E18.41378
G1 X131.941 Y95.979 E18.44383
G1 X132.256 Y96.637 E18.4681
G1 X133.18 Y98.734 E18.54432
G1 X133.858 Y100.158 E18.59677
G1 X134.656 Y101.912 E18.66086
G1 X134.874 Y102.422 E18.67931
G1 X135.057 Y102.895 E18.69618
G1 X135.252 Y103.434 E18.71524
G1 X135.467 Y104.076 E18.73776
G1 X135.607 Y104.545 E18.75404
G1 X135.748 Y105.061 E18.77183
G1 X135.918 Y105.768 E18.79602
G1 X136.03 Y106.352 E18.8158
G1 X136.142 Y107.062 E18.8397
G1 X136.225 Y107.711 E18.86147
G1 X136.308 Y108.793 E18.89756
G1 X136.321 Y109.308 E18.91469
G1 X136.311 Y110.171 E18.9434
G1 X136.26 Y110.928 E18.96863
G1 X136.216 Y111.343 E18.98251
G1 X136.089 Y112.231 E19.01235
G1 X135.915 Y113.102 E19.04189
G1 X135.835 Y113.428 E19.05306
G1 X135.67 Y114.023 E19.07359
G1 X135.588 Y114.29 E19.08288
G1 X135.366 Y114.936 E19.1056
G1 X135.159 Y115.479 E19.12493
G1 X134.76 Y116.397 E19.15822
G1 X134.54 Y116.843 E19.17476
G1 X134.034 Y117.754 E19.20942
G1 X133.612 Y118.433 E19.23601
G1 X133.004 Y119.356 E19.27277
G1 X132.429 Y120.142 E19.30516
G1 X131.81 Y120.848 E19.33639
G1 X131.072 Y121.552 E19.37032
G1 X130.135 Y122.281 E19.4098
G1 X128.286 Y123.554 E19.48447
G1 X127.104 Y124.346 E19.53179
G1 X126.151 Y124.915 E19.56871
G1 X125.036 Y125.506 E19.61068
G1 X123.186 Y126.524 E19.68091
G1 X123.029 Y126.602 E19.68674
G1 X121.157 Y127.639 E19.75792
G1 X118.535 Y129.042 E19.85683
G1 X114.299 Y131.261 E20.01588
G1 X113.07 Y131.922 E20.06229
G1 X112.016 Y132.452 E20.10153
G1 X110.859 Y133.009 E20.14424
G1 X110.029 Y133.364 E20.17426
G1 X109.027 Y133.69 E20.20931
G1 X107.889 Y133.938 E20.24805
G1 X106.333 Y134.189 E20.30047
G1 X105.377 Y134.3 E20.33248
G1 X104.729 Y134.327 E20.35405
G1 X104.003 Y134.333 E20.3782
G1 X103.469 Y134.324 E20.39596
G1 X103.062 Y134.306 E20.40951
G1 X102.459 Y134.264 E20.42962
G1 X101.969 Y134.214 E20.446
G1 X100.805 Y134.031 E20.48519
G1 X100.281 Y133.919 E20.50301
