;FLAVOR:Marlin
;TIME:2794
;Filament used: 2.0427m
;Layer height: 0.2
;MINX:84.181
;MINY:81.44
;MINZ:0.2
;MAXX:135.849
;MAXY:138.512
;MAXZ:14
;Generated with Cura_SteamEngine 5.3.1
M140 S60
M105
M190 S60
M104 S200
M105
M109 S200
M82 ;absolute extrusion mode
; Ender 3 S1 Pro Start G-code
G28 ;Home
G92 E0 ;Reset Extruder
G1 Z2.0 F3000 ;Move Z Axis up
G1 X10.1 Y20 Z0.28 F5000.0 ;Move to start position
G1 X10.1 Y200.0 Z0.28 F1500.0 E15 ;Draw the first line
G1 X10.4 Y200.0 Z0.28 F5000.0 ;Move to side a little
G1 X10.4 Y20 Z0.28 F1500.0 E30 ;Draw the second line
G92 E0 ;Reset Extruder
G1 Z2.0 F3000 ;Move Z Axis up

G92 E0
G92 E0
G1 F2400 E-0.8
;LAYER_COUNT:70
;LAYER:0
M107
G0 F6000 X89.704 Y87.344 Z0.2
;TYPE:SKIRT
G1 F2400 E0
G1 F1200 X90.348 Y86.712 E0.03001
G1 X90.732 Y86.384 E0.04681
G1 X91.205 Y86 E0.06707
G1 X91.87 Y85.504 E0.09466
G1 X92.162 Y85.304 E0.10644
G1 X92.642 Y84.994 E0.12544
G1 X92.926 Y84.822 E0.13648
G1 X93.425 Y84.539 E0.15556
G1 X93.809 Y84.335 E0.17003
G1 X94.436 Y84.029 E0.19323
G1 X95.09 Y83.737 E0.21705
G1 X95.706 Y83.48 E0.23925
G1 X96.556 Y83.176 E0.26928
G1 X97.43 Y82.949 E0.29931
G1 X98.081 Y82.832 E0.32131
G1 X99.038 Y82.692 E0.35348
G1 X99.967 Y82.569 E0.38465
G1 X100.795 Y82.494 E0.4123
G1 X105.412 Y82.265 E0.56605
G1 X106.052 Y82.248 E0.58734
G1 X107.809 Y82.24 E0.64578
G1 X110.877 Y82.288 E0.74784
G1 X113.207 Y82.252 E0.82534
G1 X113.667 Y82.256 E0.84064
G1 X115.242 Y82.304 E0.89305
G1 X115.596 Y82.321 E0.90484
G1 X115.775 Y82.319 E0.91079
G1 X118.694 Y82.442 E1.00797
G1 X119.089 Y82.466 E1.02113
G1 X120.483 Y82.579 E1.06765
G1 X121.379 Y82.692 E1.09768
G1 X122.262 Y82.884 E1.12774
G1 X123.333 Y83.231 E1.16518
G1 X124.407 Y83.65 E1.20353
G1 X125.11 Y83.946 E1.2289
G1 X126.278 Y84.529 E1.27231
G1 X126.782 Y84.822 E1.2917
G1 X127.271 Y85.125 E1.31084
G1 X127.878 Y85.534 E1.33518
G1 X128.147 Y85.727 E1.34619
G1 X128.783 Y86.223 E1.37302
G1 X129.137 Y86.522 E1.38843
G1 X129.862 Y87.198 E1.4214
G1 X130.235 Y87.581 E1.43918
G1 X131.029 Y88.499 E1.47955
G1 X131.283 Y88.831 E1.49345
G1 X131.729 Y89.462 E1.51916
G1 X131.942 Y89.789 E1.53213
G1 X132.229 Y90.257 E1.55039
G1 X132.386 Y90.529 E1.56084
G1 X132.799 Y91.322 E1.59058
G1 X133.097 Y91.962 E1.61406
G1 X133.535 Y93.066 E1.65356
G1 X133.735 Y93.671 E1.67476
G1 X133.922 Y94.298 E1.69652
G1 X134.08 Y94.926 E1.71806
G1 X134.291 Y95.896 E1.75107
G1 X134.419 Y96.604 E1.775
G1 X134.516 Y97.328 E1.7993
G1 X134.58 Y97.936 E1.81963
G1 X134.621 Y98.457 E1.83701
G1 X134.715 Y100.285 E1.89789
G1 X134.729 Y100.918 E1.91895
G1 X134.73 Y103.421 E2.0022
G1 X134.701 Y104.781 E2.04745
G1 X134.678 Y107.478 E2.13715
G1 X134.728 Y110.019 E2.22168
G1 X134.849 Y112.54 E2.30563
G1 X134.926 Y113.639 E2.34227
G1 X135.021 Y115.435 E2.40209
G1 X135.048 Y116.448 E2.43579
G1 X135.049 Y118.945 E2.51884
G1 X135.033 Y119.748 E2.54556
G1 X134.961 Y121.185 E2.59341
G1 X134.929 Y121.622 E2.60799
G1 X134.807 Y122.883 E2.65012
G1 X134.699 Y123.672 E2.67661
G1 X134.573 Y124.355 E2.69971
G1 X134.42 Y125.039 E2.72302
G1 X134.263 Y125.658 E2.74426
G1 X133.992 Y126.552 E2.77533
G1 X133.784 Y127.14 E2.79608
G1 X133.56 Y127.722 E2.81682
G1 X133.273 Y128.371 E2.84042
G1 X132.995 Y128.945 E2.86163
G1 X132.386 Y130.029 E2.90299
G1 X132.095 Y130.48 E2.92084
G1 X131.723 Y131.018 E2.94259
G1 X131.481 Y131.345 E2.95613
G1 X130.839 Y132.127 E2.98978
G1 X130.529 Y132.469 E3.00513
G1 X129.77 Y133.223 E3.04071
G1 X129.307 Y133.626 E3.06113
G1 X128.972 Y133.902 E3.07557
G1 X128.366 Y134.365 E3.10093
G1 X128.057 Y134.583 E3.11351
G1 X127.474 Y134.964 E3.13667
G1 X127.01 Y135.246 E3.15473
G1 X126.576 Y135.496 E3.17139
G1 X125.915 Y135.847 E3.19628
G1 X125.302 Y136.151 E3.21904
G1 X124.476 Y136.516 E3.24908
G1 X123.621 Y136.807 E3.27912
G1 X122.555 Y137.056 E3.31553
G1 X121.863 Y137.179 E3.3389
G1 X120.537 Y137.391 E3.38357
G1 X119.573 Y137.498 E3.41583
G1 X119.015 Y137.533 E3.43442
G1 X117.385 Y137.612 E3.4887
G1 X116.028 Y137.695 E3.53392
G1 X115.181 Y137.712 E3.56209
G1 X114.279 Y137.691 E3.5921
G1 X113.087 Y137.646 E3.63178
G1 X110.816 Y137.63 E3.70731
G1 X110.636 Y137.621 E3.71331
G1 X109.808 Y137.619 E3.74085
G1 X107.111 Y137.646 E3.83055
G1 X105.364 Y137.703 E3.88869
G1 X104.502 Y137.694 E3.91736
G1 X102.819 Y137.607 E3.97341
G1 X100.938 Y137.526 E4.03603
G1 X99.932 Y137.432 E4.06964
G1 X99.101 Y137.31 E4.09757
G1 X97.921 Y137.111 E4.13738
G1 X97.038 Y136.922 E4.16741
G1 X96.175 Y136.655 E4.19746
G1 X95.189 Y136.242 E4.23301
G1 X94.297 Y135.805 E4.26605
G1 X93.766 Y135.521 E4.28608
G1 X93.415 Y135.323 E4.29948
G1 X92.997 Y135.074 E4.31566
G1 X92.601 Y134.825 E4.33122
G1 X92.023 Y134.439 E4.35434
G1 X91.338 Y133.927 E4.38278
G1 X90.817 Y133.489 E4.40542
G1 X90.498 Y133.205 E4.41963
G1 X89.569 Y132.264 E4.46361
G1 X89.356 Y132.018 E4.47443
G1 X88.945 Y131.511 E4.49614
G1 X88.512 Y130.941 E4.51994
G1 X87.998 Y130.198 E4.54999
G1 X87.675 Y129.647 E4.57124
G1 X87.38 Y129.105 E4.59176
G1 X87.052 Y128.447 E4.61621
G1 X86.839 Y127.978 E4.63335
G1 X86.533 Y127.226 E4.66035
G1 X86.348 Y126.714 E4.67846
G1 X86.169 Y126.17 E4.6975
G1 X85.98 Y125.538 E4.71944
G1 X85.759 Y124.663 E4.74946
G1 X85.672 Y124.174 E4.76598
G1 X85.523 Y123.21 E4.79842
G1 X85.46 Y122.73 E4.81453
G1 X85.389 Y122.062 E4.83687
G1 X85.346 Y121.525 E4.85479
G1 X85.264 Y119.98 E4.90625
G1 X85.251 Y119.57 E4.91989
G1 X85.235 Y118.243 E4.96403
G1 X85.242 Y116.385 E5.02583
G1 X85.31 Y112.924 E5.14096
G1 X85.286 Y110.35 E5.22658
G1 X85.192 Y107.809 E5.31115
G1 X85.157 Y107.256 E5.32958
G1 X84.999 Y104.219 E5.43073
G1 X84.982 Y103.385 E5.45847
G1 X84.981 Y101.116 E5.53394
G1 X85 Y100.202 E5.56435
G1 X85.086 Y98.533 E5.61993
G1 X85.148 Y97.765 E5.64556
G1 X85.2 Y97.294 E5.66132
G1 X85.278 Y96.714 E5.68078
G1 X85.361 Y96.18 E5.69876
G1 X85.533 Y95.316 E5.72806
G1 X85.633 Y94.887 E5.74271
G1 X85.788 Y94.281 E5.76351
G1 X85.991 Y93.592 E5.7874
G1 X86.107 Y93.243 E5.79964
G1 X86.409 Y92.447 E5.82795
G1 X86.712 Y91.739 E5.85357
G1 X87.103 Y90.927 E5.88354
G1 X87.27 Y90.616 E5.89528
G1 X87.783 Y89.763 E5.92839
G1 X88.106 Y89.281 E5.94769
G1 X88.601 Y88.594 E5.97585
G1 X89.271 Y87.808 E6.0102
G1 X89.704 Y87.344 E6.03131
G0 F6000 X89.424 Y87.059
G1 F1200 X90.088 Y86.408 E6.06224
G1 X90.48 Y86.073 E6.07939
G1 X90.966 Y85.679 E6.1002
G1 X91.644 Y85.174 E6.12832
G1 X91.945 Y84.968 E6.14045
G1 X92.435 Y84.652 E6.15984
G1 X92.729 Y84.474 E6.17127
G1 X93.237 Y84.186 E6.19069
G1 X93.634 Y83.976 E6.20563
G1 X94.273 Y83.664 E6.22928
G1 X94.936 Y83.368 E6.25343
G1 X95.571 Y83.103 E6.27632
G1 X96.421 Y82.799 E6.30634
G1 X97.359 Y82.555 E6.33858
G1 X98.023 Y82.436 E6.36101
G1 X98.985 Y82.295 E6.39335
G1 X99.914 Y82.172 E6.42452
G1 X100.775 Y82.094 E6.45328
G1 X105.401 Y81.865 E6.60733
G1 X106.05 Y81.848 E6.62892
G1 X107.815 Y81.84 E6.68762
G1 X110.877 Y81.888 E6.78948
G1 X113.21 Y81.852 E6.86708
G1 X113.679 Y81.856 E6.88268
G1 X115.261 Y81.904 E6.93532
G1 X115.611 Y81.921 E6.94698
G1 X115.792 Y81.919 E6.953
G1 X118.718 Y82.043 E7.05041
G1 X119.121 Y82.067 E7.06383
G1 X120.533 Y82.182 E7.11095
G1 X121.464 Y82.301 E7.14217
G1 X122.385 Y82.503 E7.17353
G1 X123.478 Y82.858 E7.21175
G1 X124.562 Y83.281 E7.25046
G1 X125.289 Y83.588 E7.2767
G1 X126.479 Y84.183 E7.32095
G1 X126.993 Y84.482 E7.34073
G1 X127.495 Y84.793 E7.36037
G1 X128.111 Y85.209 E7.3851
G1 X128.393 Y85.412 E7.39665
G1 X129.041 Y85.917 E7.42398
G1 X129.41 Y86.229 E7.44005
G1 X130.149 Y86.919 E7.47368
G1 X130.538 Y87.319 E7.49223
G1 X131.332 Y88.237 E7.5326
G1 X131.61 Y88.6 E7.54781
G1 X132.064 Y89.244 E7.57402
G1 X132.283 Y89.58 E7.58736
G1 X132.575 Y90.057 E7.60596
G1 X132.741 Y90.344 E7.61699
G1 X133.162 Y91.153 E7.64732
G1 X133.469 Y91.814 E7.67156
G1 X133.915 Y92.94 E7.71184
G1 X134.118 Y93.557 E7.73345
G1 X134.31 Y94.2 E7.75576
G1 X134.471 Y94.841 E7.77775
G1 X134.685 Y95.825 E7.81124
G1 X134.813 Y96.533 E7.83517
G1 X134.914 Y97.286 E7.86044
G1 X134.979 Y97.905 E7.88114
G1 X135.02 Y98.436 E7.89885
G1 X135.115 Y100.276 E7.96013
G1 X135.129 Y100.918 E7.98149
G1 X135.13 Y103.43 E8.06504
G1 X135.101 Y104.79 E8.11029
G1 X135.078 Y107.481 E8.19979
G1 X135.128 Y110 E8.28359
G1 X135.249 Y112.521 E8.36754
G1 X135.325 Y113.618 E8.40411
G1 X135.421 Y115.424 E8.46426
G1 X135.448 Y116.448 E8.49833
G1 X135.449 Y118.953 E8.58165
G1 X135.432 Y119.768 E8.60876
G1 X135.36 Y121.214 E8.65692
G1 X135.327 Y121.661 E8.67182
G1 X135.203 Y122.937 E8.71446
G1 X135.092 Y123.745 E8.74159
G1 X134.963 Y124.442 E8.76517
G1 X134.808 Y125.137 E8.78885
G1 X134.646 Y125.774 E8.81071
G1 X134.369 Y126.685 E8.84238
G1 X134.157 Y127.284 E8.86351
G1 X133.926 Y127.884 E8.8849
G1 X133.633 Y128.545 E8.90895
G1 X133.344 Y129.141 E8.93098
G1 X132.735 Y130.225 E8.97233
G1 X132.424 Y130.707 E8.99141
G1 X132.045 Y131.256 E9.0136
G1 X131.79 Y131.599 E9.02781
G1 X131.135 Y132.396 E9.06213
G1 X130.811 Y132.753 E9.07816
G1 X130.033 Y133.525 E9.11461
G1 X129.561 Y133.935 E9.13541
G1 X129.215 Y134.22 E9.15032
G1 X128.597 Y134.692 E9.17618
G1 X128.276 Y134.918 E9.18924
G1 X127.682 Y135.306 E9.21284
G1 X127.21 Y135.593 E9.23121
G1 X126.764 Y135.849 E9.24831
G1 X126.093 Y136.205 E9.27358
G1 X125.464 Y136.517 E9.29693
G1 X124.605 Y136.895 E9.32815
G1 X123.712 Y137.197 E9.3595
G1 X122.625 Y137.45 E9.39662
G1 X121.926 Y137.574 E9.42023
G1 X120.581 Y137.789 E9.46553
G1 X119.617 Y137.896 E9.49779
G1 X119.034 Y137.933 E9.51722
G1 X117.404 Y138.011 E9.5715
G1 X116.036 Y138.095 E9.61709
G1 X115.172 Y138.112 E9.64583
G1 X114.264 Y138.091 E9.67604
G1 X113.072 Y138.046 E9.71571
G1 X110.796 Y138.03 E9.79141
G1 X110.616 Y138.021 E9.79741
G1 X109.811 Y138.019 E9.82418
G1 X107.124 Y138.046 E9.91356
G1 X105.36 Y138.103 E9.97226
G1 X104.481 Y138.093 E10.00149
G1 X102.802 Y138.007 E10.05741
G1 X100.921 Y137.926 E10.12003
G1 X99.874 Y137.828 E10.15501
G1 X99.034 Y137.704 E10.18325
G1 X97.837 Y137.502 E10.22362
G1 X96.954 Y137.313 E10.25366
G1 X96.02 Y137.024 E10.28618
G1 X95.034 Y136.611 E10.32173
G1 X94.108 Y136.158 E10.35602
G1 X93.569 Y135.869 E10.37636
G1 X93.21 Y135.667 E10.39006
G1 X92.784 Y135.413 E10.40656
G1 X92.379 Y135.158 E10.42247
G1 X91.801 Y134.772 E10.44559
G1 X91.081 Y134.233 E10.47551
G1 X90.551 Y133.788 E10.49852
G1 X90.213 Y133.486 E10.5136
G1 X89.284 Y132.545 E10.55758
G1 X89.045 Y132.27 E10.5697
G1 X88.626 Y131.753 E10.59183
G1 X88.183 Y131.169 E10.61621
G1 X87.669 Y130.426 E10.64626
G1 X87.324 Y129.838 E10.66893
G1 X87.022 Y129.283 E10.68995
G1 X86.688 Y128.612 E10.71488
G1 X86.468 Y128.129 E10.73253
G1 X86.162 Y127.377 E10.75954
G1 X85.968 Y126.839 E10.77856
G1 X85.786 Y126.285 E10.79795
G1 X85.592 Y125.636 E10.82048
G1 X85.371 Y124.761 E10.8505
G1 X85.277 Y124.235 E10.86827
G1 X85.126 Y123.262 E10.90102
G1 X85.062 Y122.772 E10.91746
G1 X84.99 Y122.094 E10.94013
G1 X84.947 Y121.546 E10.95842
G1 X84.864 Y119.993 E11.01014
G1 X84.851 Y119.575 E11.02405
G1 X84.835 Y118.241 E11.06842
G1 X84.842 Y116.377 E11.13042
G1 X84.91 Y112.916 E11.24556
G1 X84.886 Y110.354 E11.33077
G1 X84.792 Y107.824 E11.41498
G1 X84.599 Y104.227 E11.53479
G1 X84.582 Y103.385 E11.5628
G1 X84.581 Y101.108 E11.63853
G1 X84.601 Y100.181 E11.66937
G1 X84.687 Y98.501 E11.72532
G1 X84.75 Y97.721 E11.75135
G1 X84.804 Y97.241 E11.76741
G1 X84.883 Y96.653 E11.78715
G1 X84.969 Y96.102 E11.8057
G1 X85.143 Y95.225 E11.83543
G1 X85.245 Y94.788 E11.85036
G1 X85.404 Y94.168 E11.87165
G1 X85.611 Y93.466 E11.89599
G1 X85.733 Y93.101 E11.90879
G1 X86.041 Y92.29 E11.93764
G1 X86.352 Y91.565 E11.96388
G1 X86.751 Y90.738 E11.99442
G1 X86.927 Y90.41 E12.0068
G1 X87.451 Y89.54 E12.04058
G1 X87.781 Y89.047 E12.06031
G1 X88.276 Y88.36 E12.08848
G1 X88.979 Y87.535 E12.12453
G1 X89.424 Y87.059 E12.1462
G0 F6000 X89.144 Y86.773
G1 F1200 X89.808 Y86.122 E12.17713
G1 X90.228 Y85.762 E12.19553
G1 X90.727 Y85.358 E12.21688
G1 X91.418 Y84.844 E12.24553
G1 X91.728 Y84.632 E12.25802
G1 X92.228 Y84.31 E12.2778
G1 X92.532 Y84.126 E12.28962
G1 X93.05 Y83.832 E12.30943
G1 X93.458 Y83.617 E12.32477
G1 X94.11 Y83.299 E12.34889
G1 X94.782 Y82.999 E12.37337
G1 X95.436 Y82.726 E12.39694
G1 X96.286 Y82.422 E12.42697
G1 X97.288 Y82.161 E12.4614
G1 X97.965 Y82.04 E12.48428
G1 X98.932 Y81.898 E12.51679
G1 X99.861 Y81.775 E12.54795
G1 X100.755 Y81.694 E12.57781
G1 X105.391 Y81.465 E12.73219
G1 X106.048 Y81.448 E12.75405
G1 X107.821 Y81.44 E12.81302
G1 X110.877 Y81.488 E12.91468
G1 X113.213 Y81.452 E12.99238
G1 X113.691 Y81.456 E13.00828
G1 X115.28 Y81.504 E13.06116
G1 X115.626 Y81.521 E13.07268
G1 X115.809 Y81.519 E13.07876
G1 X118.742 Y81.644 E13.17641
G1 X119.153 Y81.668 E13.1901
G1 X120.584 Y81.785 E13.23785
G1 X121.55 Y81.91 E13.27025
G1 X122.471 Y82.112 E13.30161
G1 X123.623 Y82.485 E13.34188
G1 X124.718 Y82.913 E13.38099
G1 X125.468 Y83.23 E13.40807
G1 X126.68 Y83.837 E13.45315
G1 X127.204 Y84.142 E13.47332
G1 X127.719 Y84.462 E13.49349
G1 X128.345 Y84.884 E13.5186
G1 X128.639 Y85.096 E13.53065
G1 X129.287 Y85.601 E13.55798
G1 X129.683 Y85.937 E13.57525
G1 X130.436 Y86.64 E13.60951
G1 X130.841 Y87.057 E13.62885
G1 X131.635 Y87.975 E13.66922
G1 X131.937 Y88.37 E13.68575
G1 X132.399 Y89.026 E13.71244
G1 X132.624 Y89.371 E13.72614
G1 X132.921 Y89.857 E13.74508
G1 X133.096 Y90.159 E13.75669
G1 X133.525 Y90.985 E13.78765
G1 X133.841 Y91.667 E13.81265
G1 X134.295 Y92.815 E13.85371
G1 X134.501 Y93.443 E13.87569
G1 X134.698 Y94.103 E13.8986
G1 X134.862 Y94.756 E13.92099
G1 X135.079 Y95.754 E13.95496
G1 X135.207 Y96.462 E13.97889
G1 X135.312 Y97.244 E14.00514
G1 X135.378 Y97.874 E14.0262
G1 X135.419 Y98.415 E14.04425
G1 X135.515 Y100.267 E14.10593
G1 X135.529 Y100.918 E14.12759
G1 X135.53 Y103.439 E14.21144
G1 X135.501 Y104.799 E14.25668
G1 X135.478 Y107.484 E14.34599
G1 X135.528 Y109.981 E14.42905
G1 X135.649 Y112.502 E14.513
G1 X135.724 Y113.597 E14.5495
G1 X135.821 Y115.413 E14.60999
G1 X135.848 Y116.448 E14.64443
G1 X135.849 Y118.961 E14.72801
G1 X135.832 Y119.788 E14.75552
G1 X135.759 Y121.243 E14.80398
G1 X135.725 Y121.7 E14.81922
G1 X135.599 Y122.991 E14.86236
G1 X135.485 Y123.818 E14.89013
G1 X135.353 Y124.529 E14.91418
G1 X135.196 Y125.236 E14.93827
G1 X135.029 Y125.89 E14.96072
G1 X134.746 Y126.818 E14.99299
G1 X134.53 Y127.428 E15.01451
G1 X134.292 Y128.046 E15.03654
G1 X133.993 Y128.72 E15.06106
G1 X133.693 Y129.337 E15.08388
G1 X133.084 Y130.421 E15.12523
G1 X132.753 Y130.934 E15.14554
G1 X132.366 Y131.495 E15.16821
G1 X132.099 Y131.853 E15.18306
G1 X131.431 Y132.665 E15.21803
G1 X131.093 Y133.037 E15.23475
G1 X130.315 Y133.809 E15.2712
G1 X129.815 Y134.244 E15.29325
G1 X129.458 Y134.538 E15.30863
G1 X128.827 Y135.019 E15.33502
G1 X128.495 Y135.253 E15.34853
G1 X127.89 Y135.648 E15.37256
G1 X127.409 Y135.94 E15.39127
G1 X126.951 Y136.202 E15.40882
G1 X126.271 Y136.563 E15.43443
G1 X125.625 Y136.883 E15.45841
G1 X124.733 Y137.274 E15.4908
G1 X123.803 Y137.587 E15.52344
G1 X122.695 Y137.844 E15.56127
G1 X121.989 Y137.969 E15.58511
G1 X120.625 Y138.187 E15.63106
G1 X119.661 Y138.294 E15.66332
G1 X119.053 Y138.333 E15.68358
G1 X117.423 Y138.41 E15.73786
G1 X116.044 Y138.495 E15.78381
G1 X115.163 Y138.512 E15.81312
G1 X114.249 Y138.491 E15.84352
G1 X113.057 Y138.446 E15.8832
G1 X110.776 Y138.43 E15.95907
G1 X110.596 Y138.421 E15.96506
G1 X109.814 Y138.419 E15.99107
G1 X107.137 Y138.446 E16.08011
G1 X105.355 Y138.503 E16.13941
G1 X104.461 Y138.492 E16.16915
G1 X102.785 Y138.407 E16.22496
G1 X100.904 Y138.326 E16.28758
G1 X99.816 Y138.224 E16.32393
G1 X98.967 Y138.098 E16.35248
G1 X97.753 Y137.893 E16.39343
G1 X96.87 Y137.704 E16.42346
G1 X95.865 Y137.393 E16.45845
G1 X94.879 Y136.98 E16.49401
G1 X93.919 Y136.511 E16.52954
G1 X93.005 Y136.011 E16.56419
G1 X92.579 Y135.757 E16.58069
G1 X92.157 Y135.491 E16.59728
G1 X91.561 Y135.092 E16.62114
G1 X90.824 Y134.539 E16.65178
G1 X90.284 Y134.086 E16.67523
G1 X89.928 Y133.767 E16.69112
G1 X88.999 Y132.826 E16.7351
G1 X88.734 Y132.522 E16.74852
G1 X88.307 Y131.995 E16.77108
G1 X87.854 Y131.397 E16.79603
G1 X87.34 Y130.654 E16.82608
G1 X86.973 Y130.029 E16.85019
G1 X86.664 Y129.461 E16.87169
G1 X86.324 Y128.778 E16.89707
G1 X86.097 Y128.28 E16.91527
G1 X85.791 Y127.528 E16.94227
G1 X85.588 Y126.964 E16.96221
G1 X85.403 Y126.4 E16.98195
