;FLAVOR:Marlin
;TIME:1613
;Filament used: 1.05064m
;Layer height: 0.2
;MINX:84.323
;MINY:89.201
;MINZ:0.2
;MAXX:135.675
;MAXY:130.771
;MAXZ:12
;Generated with Cura_SteamEngine 5.3.1
M140 S60
M105
M190 S60
M104 S200
M105
M109 S200
M82 ;absolute extrusion mode
; Ender 3 S1 Pro Start G-code
G28 ;Home
G92 E0 ;Reset Extruder
G1 Z2.0 F3000 ;Move Z Axis up
G1 X10.1 Y20 Z0.28 F5000.0 ;Move to start position
G1 X10.1 Y200.0 Z0.28 F1500.0 E15 ;Draw the first line
G1 X10.4 Y200.0 Z0.28 F5000.0 ;Move to side a little
G1 X10.4 Y20 Z0.28 F1500.0 E30 ;Draw the second line
G92 E0 ;Reset Extruder
G1 Z2.0 F3000 ;Move Z Axis up

G92 E0
G92 E0
G1 F2400 E-0.8
;LAYER_COUNT:60
;LAYER:0
M107
G0 F6000 X90.318 Y94.639 Z0.2
;TYPE:SKIRT
G1 F2400 E0
G1 F1200 X91.23 Y93.849 E0.04013
G1 X91.509 Y93.635 E0.05183
G1 X91.989 Y93.288 E0.07153
G1 X92.35 Y93.043 E0.08604
G1 X92.952 Y92.665 E0.10968
G1 X93.542 Y92.322 E0.13238
G1 X94.325 Y91.911 E0.16179
G1 X94.904 Y91.643 E0.18301
G1 X95.494 Y91.388 E0.20439
G1 X96.028 Y91.171 E0.22356
G1 X96.879 Y90.869 E0.25359
G1 X97.753 Y90.643 E0.28362
G1 X98.677 Y90.491 E0.31476
G1 X99.743 Y90.367 E0.35046
G1 X100.381 Y90.303 E0.37179
G1 X100.946 Y90.262 E0.39063
G1 X105.331 Y90.037 E0.53666
G1 X106.192 Y90.01 E0.56532
G1 X107.743 Y90.001 E0.6169
G1 X111.046 Y90.05 E0.72677
G1 X113.454 Y90.013 E0.80687
G1 X113.924 Y90.017 E0.82251
G1 X115.094 Y90.053 E0.86144
G1 X116.657 Y90.143 E0.91351
G1 X117.196 Y90.158 E0.93144
G1 X119.195 Y90.281 E0.99806
G1 X119.758 Y90.332 E1.01686
G1 X121.488 Y90.535 E1.07479
G1 X122.379 Y90.679 E1.10481
G1 X123.254 Y90.902 E1.13485
G1 X124.384 Y91.319 E1.17491
G1 X125.146 Y91.659 E1.20266
G1 X125.839 Y92 E1.22835
G1 X126.506 Y92.35 E1.2534
G1 X127.328 Y92.831 E1.28508
G1 X127.674 Y93.056 E1.29881
G1 X128.344 Y93.525 E1.32601
G1 X128.788 Y93.865 E1.34461
G1 X129.078 Y94.1 E1.35702
G1 X129.868 Y94.813 E1.39242
G1 X130.156 Y95.101 E1.40596
G1 X130.859 Y95.879 E1.44084
G1 X131.276 Y96.392 E1.46283
G1 X131.988 Y97.375 E1.5032
G1 X132.4 Y98.064 E1.5299
G1 X132.697 Y98.6 E1.55028
G1 X133.043 Y99.284 E1.57577
G1 X133.197 Y99.619 E1.58804
G1 X133.467 Y100.265 E1.61132
G1 X133.697 Y100.872 E1.63291
G1 X133.936 Y101.579 E1.65774
G1 X134.038 Y101.922 E1.66964
G1 X134.174 Y102.426 E1.687
G1 X134.323 Y103.086 E1.70951
G1 X134.494 Y103.968 E1.73939
G1 X134.616 Y104.765 E1.7662
G1 X134.718 Y105.669 E1.79646
G1 X134.767 Y106.262 E1.81625
G1 X134.856 Y107.99 E1.8738
G1 X134.875 Y108.903 E1.90418
G1 X134.874 Y111.084 E1.97672
G1 X134.841 Y112.421 E2.0212
G1 X134.773 Y113.659 E2.06244
G1 X134.724 Y114.281 E2.08319
G1 X134.631 Y115.102 E2.11067
G1 X134.478 Y116.115 E2.14474
G1 X134.319 Y116.943 E2.17279
G1 X134.126 Y117.728 E2.19967
G1 X133.893 Y118.534 E2.22758
G1 X133.641 Y119.305 E2.25456
G1 X133.37 Y119.982 E2.27881
G1 X133.146 Y120.498 E2.29752
G1 X132.643 Y121.503 E2.3349
G1 X132.287 Y122.125 E2.35874
G1 X131.761 Y122.948 E2.39122
G1 X131.401 Y123.444 E2.41161
G1 X131.187 Y123.722 E2.42328
G1 X130.527 Y124.495 E2.45708
G1 X130.135 Y124.911 E2.47609
G1 X129.407 Y125.611 E2.50968
G1 X129.153 Y125.832 E2.52088
G1 X128.671 Y126.226 E2.54159
G1 X128.395 Y126.438 E2.55316
G1 X127.647 Y126.961 E2.58352
G1 X126.988 Y127.37 E2.60932
G1 X126.488 Y127.66 E2.62854
G1 X125.907 Y127.972 E2.65048
G1 X125.066 Y128.38 E2.68157
G1 X124.417 Y128.669 E2.7052
G1 X123.577 Y128.999 E2.73521
G1 X122.71 Y129.254 E2.76527
G1 X121.697 Y129.45 E2.79959
G1 X120.894 Y129.562 E2.82655
G1 X119.662 Y129.713 E2.86784
G1 X118.925 Y129.777 E2.89244
G1 X117.399 Y129.852 E2.94326
G1 X115.871 Y129.914 E2.99412
G1 X115.752 Y129.913 E2.99808
G1 X114.437 Y129.969 E3.04186
G1 X113.749 Y129.971 E3.06474
G1 X111.485 Y129.901 E3.14008
G1 X108.928 Y129.888 E3.22512
G1 X107.028 Y129.939 E3.28834
G1 X105.923 Y129.959 E3.3251
G1 X105.426 Y129.956 E3.34163
G1 X104.127 Y129.905 E3.38487
G1 X103.978 Y129.907 E3.38982
G1 X101.318 Y129.793 E3.47838
G1 X100.373 Y129.723 E3.50989
G1 X99.262 Y129.588 E3.54712
G1 X98.358 Y129.46 E3.57749
G1 X97.471 Y129.292 E3.60751
G1 X96.602 Y129.046 E3.63755
G1 X95.887 Y128.779 E3.66294
G1 X95.004 Y128.402 E3.69487
G1 X94.534 Y128.183 E3.71212
G1 X94.024 Y127.927 E3.73109
G1 X93.509 Y127.651 E3.75053
G1 X92.898 Y127.296 E3.77403
G1 X92.416 Y126.993 E3.79297
G1 X91.621 Y126.439 E3.8252
G1 X91.164 Y126.087 E3.84438
G1 X90.516 Y125.543 E3.87252
G1 X89.911 Y124.968 E3.90028
G1 X89.687 Y124.738 E3.91096
G1 X89.107 Y124.089 E3.93991
G1 X88.806 Y123.722 E3.9557
G1 X88.029 Y122.637 E4.00008
G1 X87.696 Y122.101 E4.02107
G1 X87.339 Y121.478 E4.04495
G1 X87.148 Y121.116 E4.05857
G1 X86.729 Y120.22 E4.09147
G1 X86.519 Y119.707 E4.1099
G1 X86.259 Y118.996 E4.13508
G1 X86.023 Y118.27 E4.16047
G1 X85.741 Y117.215 E4.19679
G1 X85.584 Y116.468 E4.22218
G1 X85.456 Y115.772 E4.24572
G1 X85.38 Y115.269 E4.26264
G1 X85.271 Y114.323 E4.29431
G1 X85.229 Y113.747 E4.31352
G1 X85.138 Y111.917 E4.37446
G1 X85.124 Y111.212 E4.39792
G1 X85.123 Y108.906 E4.47461
G1 X85.142 Y107.974 E4.50562
G1 X85.224 Y106.36 E4.55937
G1 X85.251 Y105.984 E4.57191
G1 X85.334 Y105.122 E4.60071
G1 X85.439 Y104.354 E4.62649
G1 X85.604 Y103.413 E4.65827
G1 X85.694 Y102.98 E4.67298
G1 X85.841 Y102.369 E4.69388
G1 X85.974 Y101.882 E4.71067
G1 X86.137 Y101.343 E4.7294
G1 X86.255 Y100.989 E4.74181
G1 X86.434 Y100.497 E4.75922
G1 X86.571 Y100.147 E4.77172
G1 X86.801 Y99.605 E4.79131
G1 X86.955 Y99.27 E4.80357
G1 X87.407 Y98.401 E4.83615
G1 X87.816 Y97.698 E4.8632
G1 X88.304 Y96.938 E4.89324
G1 X88.64 Y96.489 E4.91189
G1 X89.063 Y95.965 E4.93429
G1 X89.267 Y95.725 E4.94477
G1 X89.919 Y95.028 E4.97651
G1 X90.318 Y94.639 E4.99504
G0 F6000 X90.056 Y94.337
G1 F1200 X90.968 Y93.547 E5.03518
G1 X91.275 Y93.311 E5.04806
G1 X91.764 Y92.957 E5.06813
G1 X92.137 Y92.704 E5.08312
G1 X92.751 Y92.319 E5.10723
G1 X93.356 Y91.968 E5.13049
G1 X94.157 Y91.548 E5.16057
G1 X94.745 Y91.276 E5.18212
G1 X95.343 Y91.017 E5.2038
G1 X95.894 Y90.794 E5.22357
G1 X96.745 Y90.492 E5.2536
G1 X97.688 Y90.248 E5.286
G1 X98.612 Y90.096 E5.31714
G1 X99.703 Y89.969 E5.35368
G1 X100.352 Y89.904 E5.37537
G1 X100.926 Y89.863 E5.39451
G1 X105.318 Y89.637 E5.54078
G1 X106.19 Y89.61 E5.5698
G1 X107.749 Y89.601 E5.62165
G1 X111.046 Y89.65 E5.73132
G1 X113.457 Y89.613 E5.81152
G1 X113.936 Y89.617 E5.82745
G1 X115.117 Y89.654 E5.86675
G1 X116.668 Y89.743 E5.91842
G1 X117.221 Y89.759 E5.93683
G1 X119.231 Y89.883 E6.00381
G1 X119.805 Y89.935 E6.02297
G1 X121.552 Y90.14 E6.08148
G1 X122.478 Y90.291 E6.11268
G1 X123.353 Y90.514 E6.14272
G1 X124.547 Y90.954 E6.18504
G1 X125.323 Y91.3 E6.2133
G1 X126.025 Y91.646 E6.23933
G1 X126.708 Y92.005 E6.26499
G1 X127.546 Y92.496 E6.2973
G1 X127.903 Y92.728 E6.31146
G1 X128.587 Y93.207 E6.33923
G1 X129.04 Y93.554 E6.35821
G1 X129.346 Y93.803 E6.37133
G1 X130.151 Y94.53 E6.40741
G1 X130.453 Y94.833 E6.42164
G1 X131.156 Y95.611 E6.45651
G1 X131.6 Y96.157 E6.47992
G1 X132.312 Y97.14 E6.52029
G1 X132.75 Y97.87 E6.54861
G1 X133.054 Y98.419 E6.56948
G1 X133.406 Y99.117 E6.59548
G1 X133.566 Y99.465 E6.60822
G1 X133.841 Y100.123 E6.63194
G1 X134.076 Y100.744 E6.65402
G1 X134.319 Y101.465 E6.67933
G1 X134.424 Y101.818 E6.69158
G1 X134.564 Y102.338 E6.70949
G1 X134.716 Y103.01 E6.7324
G1 X134.889 Y103.907 E6.76279
G1 X135.013 Y104.72 E6.79014
G1 X135.117 Y105.636 E6.8208
G1 X135.166 Y106.241 E6.84099
G1 X135.256 Y107.982 E6.89897
G1 X135.275 Y108.903 E6.92961
G1 X135.274 Y111.094 E7.00249
G1 X135.24 Y112.443 E7.04737
G1 X135.172 Y113.69 E7.08891
G1 X135.121 Y114.326 E7.11013
G1 X135.027 Y115.162 E7.13811
G1 X134.871 Y116.19 E7.17269
G1 X134.712 Y117.018 E7.20073
G1 X134.51 Y117.839 E7.22885
G1 X134.273 Y118.658 E7.25721
G1 X134.012 Y119.454 E7.28507
G1 X133.737 Y120.141 E7.30969
G1 X133.504 Y120.677 E7.32912
G1 X132.99 Y121.702 E7.36726
G1 X132.624 Y122.34 E7.39173
G1 X132.085 Y123.183 E7.42501
G1 X131.718 Y123.688 E7.44577
G1 X131.491 Y123.982 E7.45812
G1 X130.818 Y124.769 E7.49256
G1 X130.412 Y125.199 E7.51223
G1 X129.67 Y125.913 E7.54648
G1 X129.406 Y126.142 E7.55811
G1 X128.915 Y126.543 E7.57919
G1 X128.624 Y126.766 E7.59139
G1 X127.858 Y127.301 E7.62246
G1 X127.189 Y127.716 E7.64865
G1 X126.677 Y128.012 E7.66832
G1 X126.082 Y128.332 E7.69079
G1 X125.229 Y128.745 E7.72231
G1 X124.563 Y129.041 E7.74655
G1 X123.69 Y129.383 E7.77773
G1 X122.786 Y129.647 E7.80906
G1 X121.773 Y129.843 E7.84337
G1 X120.943 Y129.959 E7.87125
G1 X119.697 Y130.112 E7.913
G1 X118.945 Y130.177 E7.93811
G1 X117.415 Y130.252 E7.98906
G1 X114.438 Y130.369 E8.08815
G1 X113.737 Y130.371 E8.11146
G1 X111.473 Y130.301 E8.1868
G1 X108.937 Y130.288 E8.27115
G1 X107.035 Y130.339 E8.33443
G1 X105.921 Y130.359 E8.37149
G1 X105.41 Y130.356 E8.38849
G1 X104.116 Y130.305 E8.43156
G1 X103.961 Y130.307 E8.43671
G1 X101.288 Y130.192 E8.5257
G1 X100.325 Y130.12 E8.55782
G1 X99.206 Y129.984 E8.59531
G1 X98.284 Y129.853 E8.62629
G1 X97.362 Y129.677 E8.65751
G1 X96.462 Y129.421 E8.68863
G1 X95.73 Y129.147 E8.71462
G1 X94.835 Y128.765 E8.74699
G1 X94.365 Y128.546 E8.76423
G1 X93.835 Y128.28 E8.78396
G1 X93.308 Y127.997 E8.80385
G1 X92.685 Y127.635 E8.82782
G1 X92.187 Y127.321 E8.8474
G1 X91.377 Y126.756 E8.88025
G1 X90.907 Y126.393 E8.9
G1 X90.24 Y125.833 E8.92897
G1 X89.624 Y125.247 E8.95724
G1 X89.389 Y125.005 E8.96846
G1 X88.798 Y124.343 E8.99798
G1 X88.481 Y123.955 E9.01464
G1 X87.689 Y122.848 E9.05992
G1 X87.349 Y122.3 E9.08137
G1 X86.985 Y121.665 E9.10571
G1 X86.794 Y121.303 E9.11932
G1 X86.359 Y120.372 E9.1535
G1 X86.143 Y119.844 E9.17247
G1 X85.879 Y119.12 E9.19811
G1 X85.637 Y118.373 E9.22422
G1 X85.35 Y117.297 E9.26126
G1 X85.191 Y116.54 E9.28699
G1 X85.06 Y115.832 E9.31094
G1 X84.984 Y115.329 E9.32786
G1 X84.872 Y114.352 E9.36056
G1 X84.829 Y113.767 E9.38007
G1 X84.738 Y111.925 E9.44141
G1 X84.724 Y111.212 E9.46513
G1 X84.723 Y108.898 E9.5421
G1 X84.743 Y107.954 E9.5735
G1 X84.825 Y106.331 E9.62755
G1 X84.853 Y105.946 E9.64039
G1 X84.938 Y105.068 E9.66973
G1 X85.045 Y104.285 E9.69601
G1 X85.212 Y103.332 E9.72819
G1 X85.305 Y102.886 E9.74335
G1 X85.455 Y102.264 E9.76463
G1 X85.591 Y101.766 E9.7818
G1 X85.758 Y101.217 E9.80088
G1 X85.879 Y100.852 E9.81367
G1 X86.062 Y100.351 E9.83141
G1 X86.203 Y99.991 E9.84427
G1 X86.438 Y99.438 E9.86426
G1 X86.6 Y99.085 E9.87718
G1 X87.061 Y98.2 E9.91037
G1 X87.479 Y97.482 E9.938
G1 X87.967 Y96.722 E9.96804
G1 X88.329 Y96.238 E9.98814
G1 X88.758 Y95.706 E10.01087
G1 X88.975 Y95.452 E10.02198
G1 X89.64 Y94.742 E10.05434
G1 X90.056 Y94.337 E10.07365
G0 F6000 X89.777 Y94.05
G1 F1200 X90.724 Y93.23 E10.11531
G1 X91.04 Y92.987 E10.12857
G1 X91.539 Y92.626 E10.14906
G1 X91.925 Y92.365 E10.16455
G1 X92.55 Y91.973 E10.18909
G1 X93.17 Y91.614 E10.21292
G1 X93.989 Y91.185 E10.24367
G1 X94.586 Y90.909 E10.26555
G1 X95.193 Y90.646 E10.28755
G1 X95.76 Y90.417 E10.30789
G1 X96.611 Y90.115 E10.33792
G1 X97.623 Y89.853 E10.37269
G1 X98.547 Y89.701 E10.40384
G1 X99.663 Y89.571 E10.44121
G1 X100.324 Y89.505 E10.4633
G1 X100.905 Y89.464 E10.48267
G1 X105.306 Y89.237 E10.62924
G1 X106.188 Y89.21 E10.65859
G1 X107.755 Y89.201 E10.71071
G1 X111.046 Y89.25 E10.82018
G1 X113.46 Y89.213 E10.90048
G1 X113.949 Y89.217 E10.91675
G1 X115.14 Y89.255 E10.95638
G1 X116.68 Y89.343 E11.00769
G1 X117.246 Y89.36 E11.02652
G1 X119.267 Y89.485 E11.09387
G1 X119.852 Y89.538 E11.1134
G1 X121.616 Y89.745 E11.17248
G1 X122.577 Y89.903 E11.20487
G1 X123.452 Y90.126 E11.2349
G1 X124.71 Y90.589 E11.27949
G1 X125.5 Y90.941 E11.30825
G1 X126.211 Y91.292 E11.33463
G1 X126.91 Y91.66 E11.3609
G1 X127.764 Y92.161 E11.39383
G1 X128.132 Y92.4 E11.40843
G1 X128.83 Y92.889 E11.43677
G1 X129.292 Y93.244 E11.45615
G1 X129.614 Y93.506 E11.46996
G1 X130.419 Y94.233 E11.50603
G1 X130.75 Y94.565 E11.52163
G1 X131.453 Y95.343 E11.5565
G1 X131.924 Y95.922 E11.58133
G1 X132.636 Y96.905 E11.6217
G1 X133.1 Y97.676 E11.65163
G1 X133.411 Y98.239 E11.67302
G1 X133.769 Y98.95 E11.6995
G1 X133.935 Y99.311 E11.71271
G1 X134.215 Y99.981 E11.73686
G1 X134.455 Y100.616 E11.75944
G1 X134.702 Y101.351 E11.78523
G1 X134.81 Y101.714 E11.79783
G1 X134.954 Y102.25 E11.81629
G1 X135.109 Y102.934 E11.83961
G1 X135.282 Y103.831 E11.87
G1 X135.41 Y104.675 E11.89839
G1 X135.516 Y105.604 E11.92949
G1 X135.565 Y106.22 E11.95004
G1 X135.656 Y107.974 E12.00846
G1 X135.675 Y108.903 E12.03936
G1 X135.674 Y111.104 E12.11257
G1 X135.639 Y112.465 E12.15785
G1 X135.571 Y113.722 E12.19972
G1 X135.518 Y114.371 E12.22138
G1 X135.422 Y115.222 E12.24986
G1 X135.264 Y116.265 E12.28495
G1 X135.1 Y117.114 E12.31371
G1 X134.894 Y117.95 E12.34235
G1 X134.653 Y118.783 E12.37119
G1 X134.392 Y119.579 E12.39905
G1 X134.104 Y120.3 E12.42487
G1 X133.862 Y120.856 E12.44504
G1 X133.337 Y121.901 E12.48394
G1 X132.961 Y122.555 E12.50903
G1 X132.409 Y123.418 E12.5431
G1 X132.035 Y123.932 E12.56424
G1 X131.795 Y124.242 E12.57728
G1 X131.109 Y125.044 E12.61238
G1 X130.703 Y125.474 E12.63205
G1 X129.932 Y126.215 E12.66762
G1 X129.659 Y126.452 E12.67965
G1 X129.158 Y126.86 E12.70114
G1 X128.853 Y127.094 E12.71392
G1 X128.069 Y127.641 E12.74572
G1 X127.389 Y128.062 E12.77232
G1 X126.866 Y128.364 E12.7924
G1 X126.256 Y128.692 E12.81544
G1 X125.391 Y129.111 E12.84741
G1 X124.709 Y129.413 E12.87222
G1 X123.802 Y129.767 E12.9046
G1 X122.862 Y130.04 E12.93715
G1 X121.849 Y130.236 E12.97147
G1 X120.992 Y130.356 E13.00025
G1 X119.731 Y130.511 E13.04251
G1 X118.965 Y130.577 E13.06808
G1 X117.431 Y130.652 E13.11916
G1 X114.439 Y130.769 E13.21875
G1 X113.725 Y130.771 E13.2425
G1 X111.461 Y130.701 E13.31784
G1 X108.946 Y130.688 E13.40149
G1 X107.042 Y130.739 E13.46484
G1 X105.919 Y130.759 E13.5022
G1 X105.394 Y130.756 E13.51966
G1 X104.105 Y130.705 E13.56256
G1 X103.944 Y130.707 E13.56792
G1 X101.258 Y130.591 E13.65734
G1 X100.277 Y130.517 E13.69006
G1 X99.15 Y130.38 E13.72782
G1 X98.209 Y130.246 E13.75943
G1 X97.253 Y130.062 E13.79181
G1 X96.322 Y129.796 E13.82402
G1 X95.573 Y129.515 E13.85063
G1 X94.666 Y129.128 E13.88342
G1 X94.186 Y128.904 E13.90104
G1 X93.646 Y128.632 E13.92115
G1 X93.107 Y128.343 E13.94149
G1 X92.472 Y127.973 E13.96594
G1 X91.958 Y127.649 E13.98615
G1 X91.132 Y127.073 E14.01964
G1 X90.662 Y126.71 E14.03939
G1 X89.964 Y126.123 E14.06973
G1 X89.337 Y125.526 E14.09852
G1 X89.102 Y125.284 E14.10974
G1 X88.488 Y124.596 E14.14041
G1 X88.156 Y124.188 E14.15791
G1 X87.349 Y123.059 E14.20406
G1 X87.002 Y122.499 E14.22597
G1 X86.631 Y121.852 E14.25078
G1 X86.44 Y121.49 E14.26439
G1 X85.989 Y120.523 E14.29988
G1 X85.767 Y119.981 E14.31936
G1 X85.498 Y119.243 E14.34549
G1 X85.256 Y118.496 E14.37161
G1 X84.959 Y117.379 E14.41005
G1 X84.798 Y116.613 E14.43608
G1 X84.664 Y115.892 E14.46047
G1 X84.588 Y115.389 E14.47739
G1 X84.473 Y114.381 E14.51114
G1 X84.429 Y113.787 E14.53095
G1 X84.338 Y111.933 E14.59269
G1 X84.324 Y111.212 E14.61667
G1 X84.323 Y108.89 E14.6939
G1 X84.344 Y107.934 E14.72571
G1 X84.426 Y106.302 E14.78005
G1 X84.455 Y105.907 E14.79323
G1 X84.542 Y105.014 E14.82307
G1 X84.651 Y104.216 E14.84986
G1 X84.82 Y103.25 E14.88247
G1 X84.916 Y102.792 E14.89804
G1 X85.069 Y102.159 E14.9197
G1 X85.208 Y101.65 E14.93725
G1 X85.378 Y101.091 E14.95668
G1 X85.503 Y100.715 E14.96986
G1 X85.69 Y100.205 E14.98793
G1 X85.835 Y99.835 E15.00114
G1 X86.074 Y99.271 E15.02152
G1 X86.245 Y98.9 E15.03511
G1 X86.715 Y97.999 E15.0689
G1 X87.142 Y97.266 E15.09712
G1 X87.63 Y96.506 E15.12716
G1 X88.018 Y95.987 E15.14871
G1 X88.454 Y95.446 E15.17182
G1 X88.683 Y95.179 E15.18352
G1 X89.361 Y94.455 E15.21651
G1 X89.777 Y94.05 E15.23582
G1 F2400 E14.43582
G0 F6000 X97.524 Y102.125
G1 F2400 E15.23582
G1 F1200 X97.91 Y101.819 E15.25221
G1 X98.347 Y101.535 E15.26954
G1 X98.667 Y101.357 E15.28172
G1 X98.996 Y101.196 E15.2939
G1 X99.795 Y100.857 E15.32277
G1 X99.828 Y100.888 E15.32428
G1 X99.933 Y100.906 E15.32782
G1 X100.437 Y100.854 E15.34467
G1 X100.452 Y100.852 E15.34517
G1 X100.759 Y100.796 E15.35555
G1 X100.768 Y100.794 E15.35586
G1 X101.303 Y100.67 E15.37413
G1 X101.32 Y100.693 E15.37508
G1 X101.434 Y100.729 E15.37905
G1 X101.934 Y100.729 E15.39568
G1 X101.95 Y100.728 E15.39622
G1 X102.252 Y100.704 E15.40629
G1 X102.262 Y100.703 E15.40663
G1 X102.923 Y100.618 E15.42879
G1 X103.822 Y100.531 E15.45883
