;FLAVOR:Marlin
;TIME:2253
;Filament used: 1.05305m
;Layer height: 0.2
;MINX:76.447
;MINY:82.503
;MINZ:0.2
;MAXX:143.487
;MAXY:137.498
;MAXZ:9
;Generated with Cura_SteamEngine 5.3.1
M140 S60
M105
M190 S60
M104 S200
M105
M109 S200
M82 ;absolute extrusion mode
; Ender 3 S1 Pro Start G-code
G28 ;Home
G92 E0 ;Reset Extruder
G1 Z2.0 F3000 ;Move Z Axis up
G1 X10.1 Y20 Z0.28 F5000.0 ;Move to start position
G1 X10.1 Y200.0 Z0.28 F1500.0 E15 ;Draw the first line
G1 X10.4 Y200.0 Z0.28 F5000.0 ;Move to side a little
G1 X10.4 Y20 Z0.28 F1500.0 E30 ;Draw the second line
G92 E0 ;Reset Extruder
G1 Z2.0 F3000 ;Move Z Axis up

G92 E0
G92 E0
G1 F2400 E-0.8
;LAYER_COUNT:47
;LAYER:0
M107
G0 F6000 X80.428 Y86.12 Z0.2
;TYPE:SKIRT
G1 F2400 E0
G1 F1200 X81.109 Y85.527 E0.03003
G1 X81.841 Y84.997 E0.06009
G1 X82.616 Y84.534 E0.09012
G1 X83.429 Y84.141 E0.12015
G1 X84.274 Y83.821 E0.1502
G1 X85.143 Y83.578 E0.18022
G1 X86.031 Y83.412 E0.21026
G1 X87.17 Y83.316 E0.24828
G1 X87.777 Y83.303 E0.26847
G1 X131.78 Y83.303 E1.73202
G1 X132.624 Y83.314 E1.76009
G1 X133.526 Y83.367 E1.79015
G1 X134.419 Y83.499 E1.82017
G1 X135.297 Y83.71 E1.8502
G1 X136.153 Y83.998 E1.88024
G1 X136.98 Y84.36 E1.91027
G1 X137.772 Y84.795 E1.94032
G1 X138.523 Y85.297 E1.97037
G1 X139.226 Y85.864 E2.00041
G1 X139.876 Y86.491 E2.03045
G1 X140.468 Y87.173 E2.06048
G1 X140.998 Y87.904 E2.09051
G1 X141.46 Y88.68 E2.12055
G1 X141.853 Y89.493 E2.15059
G1 X142.171 Y90.338 E2.18061
G1 X142.414 Y91.208 E2.21066
G1 X142.579 Y92.096 E2.2407
G1 X142.674 Y93.226 E2.27842
G1 X142.687 Y93.833 E2.29861
G1 X142.686 Y125.888 E3.36476
G1 X142.677 Y126.615 E3.38894
G1 X142.626 Y127.517 E3.41899
G1 X142.495 Y128.411 E3.44905
G1 X142.286 Y129.289 E3.47906
G1 X142 Y130.146 E3.50911
G1 X141.639 Y130.974 E3.53916
G1 X141.207 Y131.766 E3.56916
G1 X140.706 Y132.518 E3.59922
G1 X140.14 Y133.222 E3.62926
G1 X139.515 Y133.873 E3.65928
G1 X138.834 Y134.467 E3.68933
G1 X138.103 Y134.998 E3.71938
G1 X137.329 Y135.462 E3.7494
G1 X136.516 Y135.856 E3.77945
G1 X135.672 Y136.176 E3.80947
G1 X134.802 Y136.421 E3.83953
G1 X133.915 Y136.587 E3.86954
G1 X132.764 Y136.685 E3.90796
G1 X132.157 Y136.698 E3.92816
G1 X88.022 Y136.697 E5.39609
G1 X87.324 Y136.688 E5.41931
G1 X86.423 Y136.637 E5.44933
G1 X85.529 Y136.505 E5.47938
G1 X84.651 Y136.296 E5.5094
G1 X83.794 Y136.009 E5.53946
G1 X82.967 Y135.648 E5.56947
G1 X82.174 Y135.215 E5.59952
G1 X81.423 Y134.714 E5.62955
G1 X80.719 Y134.148 E5.6596
G1 X80.068 Y133.522 E5.68963
G1 X79.475 Y132.841 E5.71967
G1 X78.945 Y132.11 E5.7497
G1 X78.481 Y131.335 E5.77974
G1 X78.087 Y130.522 E5.80979
G1 X77.767 Y129.678 E5.83981
G1 X77.523 Y128.808 E5.86987
G1 X77.357 Y127.92 E5.89991
G1 X77.26 Y126.765 E5.93846
G1 X77.247 Y126.156 E5.95872
G1 X77.248 Y94.039 E7.02694
G1 X77.257 Y93.374 E7.04906
G1 X77.309 Y92.472 E7.07911
G1 X77.441 Y91.579 E7.10913
G1 X77.651 Y90.701 E7.13916
G1 X77.938 Y89.844 E7.16922
G1 X78.3 Y89.017 E7.19925
G1 X78.733 Y88.225 E7.22927
G1 X79.235 Y87.474 E7.25931
G1 X79.802 Y86.77 E7.28938
G1 X80.428 Y86.12 E7.31939
G0 F6000 X80.165 Y85.818
G1 F1200 X80.846 Y85.225 E7.34943
G1 X81.606 Y84.673 E7.38067
G1 X82.442 Y84.174 E7.41305
G1 X83.287 Y83.767 E7.44424
G1 X84.132 Y83.447 E7.4743
G1 X85.069 Y83.185 E7.50666
G1 X85.997 Y83.013 E7.53805
G1 X87.136 Y82.917 E7.57607
G1 X87.768 Y82.903 E7.59709
G1 X131.785 Y82.903 E9.0611
G1 X132.647 Y82.915 E9.08978
G1 X133.584 Y82.971 E9.121
G1 X134.477 Y83.103 E9.15102
G1 X135.425 Y83.331 E9.18345
G1 X136.281 Y83.619 E9.21349
G1 X137.173 Y84.009 E9.24587
G1 X137.965 Y84.444 E9.27592
G1 X138.745 Y84.964 E9.3071
G1 X139.504 Y85.576 E9.33953
G1 X140.154 Y86.203 E9.36957
G1 X140.792 Y86.938 E9.40194
G1 X141.342 Y87.699 E9.43317
G1 X141.804 Y88.475 E9.46321
G1 X142.227 Y89.352 E9.49559
G1 X142.556 Y90.23 E9.52678
G1 X142.807 Y91.135 E9.55801
G1 X142.978 Y92.062 E9.58937
G1 X143.073 Y93.192 E9.62708
G1 X143.087 Y93.833 E9.64841
G1 X143.086 Y125.893 E10.71473
G1 X143.076 Y126.638 E10.73951
G1 X143.022 Y127.575 E10.77072
G1 X142.891 Y128.469 E10.80078
G1 X142.675 Y129.382 E10.83198
G1 X142.367 Y130.306 E10.86438
G1 X142.006 Y131.134 E10.89442
G1 X141.54 Y131.988 E10.92678
G1 X141.018 Y132.769 E10.95802
G1 X140.452 Y133.473 E10.98807
G1 X139.804 Y134.15 E11.01924
G1 X139.069 Y134.791 E11.05167
G1 X138.338 Y135.322 E11.08172
G1 X137.535 Y135.805 E11.11289
G1 X136.658 Y136.23 E11.1453
G1 X135.814 Y136.55 E11.17532
G1 X134.876 Y136.814 E11.20774
G1 X133.949 Y136.986 E11.23909
G1 X132.798 Y137.084 E11.27751
G1 X132.166 Y137.098 E11.29854
G1 X88.017 Y137.097 E12.76694
G1 X87.301 Y137.087 E12.79076
G1 X86.365 Y137.033 E12.82194
G1 X85.471 Y136.901 E12.852
G1 X84.558 Y136.685 E12.8832
G1 X83.634 Y136.376 E12.91561
G1 X82.807 Y136.015 E12.94562
G1 X81.952 Y135.548 E12.97802
G1 X81.172 Y135.026 E13.00924
G1 X80.468 Y134.46 E13.03928
G1 X79.766 Y133.785 E13.07168
G1 X79.173 Y133.104 E13.10171
G1 X78.621 Y132.345 E13.13292
G1 X78.121 Y131.509 E13.16532
G1 X77.713 Y130.664 E13.19653
G1 X77.393 Y129.82 E13.22655
G1 X77.13 Y128.882 E13.25896
G1 X76.958 Y127.953 E13.29038
G1 X76.86 Y126.774 E13.32973
G1 X76.847 Y126.156 E13.35029
G1 X76.848 Y94.034 E14.41867
G1 X76.858 Y93.351 E14.44139
G1 X76.913 Y92.414 E14.47261
G1 X77.045 Y91.521 E14.50263
G1 X77.262 Y90.608 E14.53384
G1 X77.559 Y89.717 E14.56508
G1 X77.949 Y88.825 E14.59746
G1 X78.4 Y88.003 E14.62865
G1 X78.923 Y87.223 E14.65988
G1 X79.49 Y86.519 E14.68995
G1 X80.165 Y85.818 E14.72231
G0 F6000 X79.902 Y85.516
G1 F1200 X80.583 Y84.923 E14.75235
G1 X81.371 Y84.349 E14.78477
G1 X82.268 Y83.814 E14.81951
G1 X83.145 Y83.393 E14.85187
G1 X83.99 Y83.073 E14.88192
G1 X84.996 Y82.792 E14.91666
G1 X85.963 Y82.614 E14.94936
G1 X87.102 Y82.518 E14.98738
G1 X87.759 Y82.503 E15.00924
G1 X131.791 Y82.503 E16.47375
G1 X132.671 Y82.516 E16.50302
G1 X133.642 Y82.575 E16.53537
G1 X134.571 Y82.714 E16.56662
G1 X135.519 Y82.942 E16.59905
G1 X136.441 Y83.252 E16.6314
G1 X137.366 Y83.658 E16.665
G1 X138.158 Y84.093 E16.69505
G1 X138.967 Y84.631 E16.72737
G1 X139.782 Y85.288 E16.76218
G1 X140.432 Y85.915 E16.79222
G1 X141.094 Y86.676 E16.82577
G1 X141.686 Y87.494 E16.85935
G1 X142.148 Y88.27 E16.88939
G1 X142.602 Y89.212 E16.92417
G1 X142.931 Y90.09 E16.95536
G1 X143.2 Y91.062 E16.9889
G1 X143.377 Y92.028 E17.02157
G1 X143.472 Y93.158 E17.05928
G1 X143.487 Y93.833 E17.08174
G1 X143.486 Y125.898 E18.14822
G1 X143.475 Y126.661 E18.1736
G1 X143.418 Y127.633 E18.20599
G1 X143.287 Y128.527 E18.23604
G1 X143.064 Y129.474 E18.2684
G1 X142.734 Y130.466 E18.30317
G1 X142.373 Y131.294 E18.33321
G1 X141.873 Y132.21 E18.36792
G1 X141.33 Y133.02 E18.40036
G1 X140.764 Y133.724 E18.4304
G1 X140.093 Y134.427 E18.46273
G1 X139.304 Y135.115 E18.49754
G1 X138.573 Y135.646 E18.52759
G1 X137.741 Y136.148 E18.55991
G1 X136.8 Y136.604 E18.59469
G1 X135.956 Y136.924 E18.62471
G1 X134.984 Y137.199 E18.65831
G1 X133.983 Y137.385 E18.69218
G1 X132.832 Y137.483 E18.7306
G1 X132.166 Y137.498 E18.75275
G1 X88.011 Y137.497 E20.22135
G1 X87.278 Y137.486 E20.24574
G1 X86.307 Y137.429 E20.27809
G1 X85.413 Y137.297 E20.30814
G1 X84.431 Y137.064 E20.34171
G1 X83.474 Y136.743 E20.37529
G1 X82.647 Y136.382 E20.4053
G1 X81.76 Y135.899 E20.43889
G1 X80.921 Y135.338 E20.47246
G1 X80.217 Y134.772 E20.5025
G1 X79.464 Y134.048 E20.53725
G1 X78.871 Y133.367 E20.56728
G1 X78.278 Y132.55 E20.60086
G1 X77.761 Y131.683 E20.63443
G1 X77.339 Y130.806 E20.6668
G1 X77.019 Y129.962 E20.69682
G1 X76.745 Y128.99 E20.73041
G1 X76.559 Y127.986 E20.76437
G1 X76.461 Y126.807 E20.80372
G1 X76.447 Y126.156 E20.82538
G1 X76.448 Y94.028 E21.89396
G1 X76.459 Y93.328 E21.91725
G1 X76.517 Y92.356 E21.94963
G1 X76.649 Y91.463 E21.97966
G1 X76.873 Y90.516 E22.01202
G1 X77.192 Y89.557 E22.04564
G1 X77.582 Y88.665 E22.07802
G1 X78.049 Y87.811 E22.11039
G1 X78.611 Y86.972 E22.14398
G1 X79.178 Y86.268 E22.17404
G1 X79.902 Y85.516 E22.20876
G1 F2400 E21.40876
G0 F6000 X91.922 Y95.05
G1 F2400 E22.20876
G1 F1200 X100.405 Y95.05 E22.49091
G1 X101.041 Y95.185 E22.51253
G1 X101.053 Y95.187 E22.51294
G1 X101.482 Y95.253 E22.52738
G1 X101.499 Y95.255 E22.52794
G1 X101.923 Y95.283 E22.54208
G1 X102.031 Y95.259 E22.54576
G1 X102.177 Y95.181 E22.55126
G1 X102.177 Y95.312 E22.55562
G1 X102.227 Y95.444 E22.56032
G1 X102.449 Y95.696 E22.57149
G1 X102.44 Y96.643 E22.60298
G1 X102.44 Y96.649 E22.60318
G1 X102.465 Y97.759 E22.64011
G1 X102.427 Y97.853 E22.64348
G1 X102.422 Y98.384 E22.66115
G1 X102.279 Y98.466 E22.66663
G1 X102.179 Y98.62 E22.67274
G1 X102.147 Y98.729 E22.67651
G1 X102.147 Y98.892 E22.68194
G1 X102.056 Y98.841 E22.6854
G1 X101.889 Y98.829 E22.69097
G1 X101.612 Y98.932 E22.7008
G1 X101.597 Y98.938 E22.70134
G1 X101.28 Y99.087 E22.71299
G1 X101.256 Y99.1 E22.7139
G1 X100.956 Y99.294 E22.72578
G1 X100.934 Y99.311 E22.72671
G1 X100.63 Y99.575 E22.7401
G1 X100.605 Y99.601 E22.7413
G1 X100.301 Y99.983 E22.75753
G1 X100.28 Y100.015 E22.75881
G1 X100.054 Y100.447 E22.77502
G1 X100.039 Y100.484 E22.77635
G1 X99.898 Y100.964 E22.79299
G1 X99.892 Y100.995 E22.79404
G1 X99.848 Y101.351 E22.80597
G1 X99.846 Y101.372 E22.80667
G1 X99.839 Y101.691 E22.81729
G1 X99.839 Y101.703 E22.81768
G1 X99.863 Y102.288 E22.83716
G1 X99.871 Y102.336 E22.83878
G1 X99.923 Y102.514 E22.84494
G1 X99.867 Y102.621 E22.84896
G1 X99.782 Y103.37 E22.87403
G1 X99.781 Y103.391 E22.87473
G1 X99.779 Y103.634 E22.88281
G1 X99.638 Y103.713 E22.88819
G1 X99.539 Y103.855 E22.89395
G1 X99.527 Y103.894 E22.89531
G1 X99.117 Y104.329 E22.91519
G1 X99.095 Y104.358 E22.9164
G1 X98.87 Y104.708 E22.93024
G1 X98.859 Y104.726 E22.93094
G1 X98.698 Y105.047 E22.94288
G1 X98.688 Y105.072 E22.94378
G1 X98.578 Y105.393 E22.95506
G1 X98.571 Y105.417 E22.9559
G1 X98.501 Y105.754 E22.96734
G1 X98.498 Y105.776 E22.96808
G1 X98.472 Y106.043 E22.977
G1 X98.471 Y106.058 E22.9775
G1 X98.465 Y106.357 E22.98745
G1 X98.466 Y106.38 E22.98822
G1 X98.487 Y106.604 E22.9957
G1 X98.537 Y106.718 E22.99984
G1 X98.528 Y107.509 E23.02615
G1 X98.528 Y107.517 E23.02642
G1 X98.556 Y108.755 E23.0676
G1 X98.557 Y108.765 E23.06794
G1 X98.579 Y109.055 E23.07761
G1 X98.58 Y109.069 E23.07808
G1 X98.625 Y109.371 E23.08823
G1 X98.63 Y109.396 E23.08908
G1 X98.762 Y109.87 E23.10545
G1 X98.776 Y109.905 E23.1067
G1 X99.008 Y110.375 E23.12413
G1 X99.025 Y110.403 E23.12522
G1 X99.25 Y110.714 E23.13799
G1 X99.263 Y110.73 E23.13868
G1 X99.473 Y110.965 E23.14916
G1 X99.482 Y110.975 E23.1496
G1 X99.708 Y111.197 E23.16014
G1 X99.917 Y111.535 E23.17336
G1 X99.962 Y111.898 E23.18552
G1 X99.964 Y111.909 E23.1859
G1 X100.066 Y112.482 E23.20525
G1 X100.068 Y112.493 E23.20563
G1 X100.141 Y112.799 E23.21609
G1 X100.207 Y112.906 E23.22027
G1 X100.233 Y112.915 E23.22119
G1 X100.241 Y113.5 E23.24064
G1 X100.241 Y113.509 E23.24094
G1 X100.279 Y114.142 E23.26204
G1 X100.28 Y114.149 E23.26227
G1 X100.31 Y114.456 E23.27253
G1 X100.318 Y114.495 E23.27385
G1 X100.348 Y114.592 E23.27723
G1 X100.297 Y114.69 E23.28091
G1 X100.229 Y115.294 E23.30112
G1 X100.229 Y115.299 E23.30129
G1 X100.206 Y115.57 E23.31033
G1 X100.205 Y115.585 E23.31083
G1 X100.202 Y115.843 E23.31942
G1 X100.194 Y115.842 E23.31968
G1 X100.026 Y115.906 E23.32566
G1 X99.98 Y115.956 E23.32792
G1 X99.927 Y116.091 E23.33275
G1 X99.927 Y116.203 E23.33647
G1 X99.904 Y116.191 E23.33734
G1 X99.781 Y116.171 E23.34148
G1 X99.654 Y116.246 E23.34639
G1 X99.346 Y116.641 E23.36305
G1 X99.337 Y116.654 E23.36357
G1 X99.149 Y116.938 E23.3749
G1 X99.137 Y116.959 E23.3757
G1 X99.001 Y117.233 E23.38588
G1 X98.99 Y117.26 E23.38685
G1 X98.85 Y117.691 E23.40192
G1 X98.841 Y117.731 E23.40328
G1 X98.791 Y118.183 E23.41841
G1 X98.79 Y118.213 E23.41941
G1 X98.804 Y118.551 E23.43066
G1 X98.806 Y118.574 E23.43143
G1 X98.871 Y118.989 E23.4454
G1 X98.876 Y119.012 E23.44618
G1 X99.104 Y119.822 E23.47417
G1 X99.121 Y119.863 E23.47564
G1 X99.35 Y120.285 E23.49161
G1 X99.441 Y120.371 E23.49578
G1 X99.498 Y120.383 E23.49772
G1 X99.49 Y121.149 E23.52319
G1 X99.49 Y121.155 E23.52339
G1 X99.521 Y122.515 E23.56864
G1 X99.475 Y122.626 E23.57264
G1 X99.468 Y123.279 E23.59436
G1 X99.461 Y123.278 E23.59459
G1 X99.292 Y123.343 E23.60061
G1 X99.245 Y123.395 E23.60294
G1 X99.193 Y123.529 E23.60773
G1 X99.193 Y123.644 E23.61155
G1 X99.066 Y123.576 E23.61634
G1 X98.936 Y123.555 E23.62072
G1 X98.385 Y123.654 E23.63934
G1 X98.353 Y123.662 E23.64044
G1 X97.961 Y123.801 E23.65427
G1 X97.939 Y123.811 E23.65508
G1 X97.681 Y123.939 E23.66465
G1 X97.664 Y123.948 E23.66529
G1 X97.319 Y124.163 E23.67881
G1 X97.3 Y124.177 E23.6796
G1 X97.098 Y124.339 E23.68821
G1 X97.088 Y124.348 E23.68866
G1 X96.754 Y124.654 E23.70373
G1 X96.689 Y124.798 E23.70898
G1 X96.688 Y124.85 E23.71071
G1 X96.567 Y124.889 E23.71494
G1 X96.486 Y125.047 E23.72084
G1 X91.922 Y125.05 E23.87264
G1 X91.922 Y95.05 E24.87045
G0 F6000 X92.322 Y95.45
G1 F1200 X100.364 Y95.45 E25.13793
G1 X100.958 Y95.576 E25.15812
G1 X100.992 Y95.582 E25.15927
G1 X101.421 Y95.648 E25.17371
G1 X101.472 Y95.654 E25.17541
G1 X101.896 Y95.682 E25.18955
G1 X101.91 Y95.68 E25.19002
G1 X101.927 Y95.709 E25.19114
G1 X102.048 Y95.846 E25.19722
G1 X102.04 Y96.639 E25.22359
G1 X102.04 Y96.658 E25.22422
G1 X102.063 Y97.661 E25.25759
G1 X102.054 Y97.677 E25.2582
G1 X102.027 Y97.849 E25.26399
G1 X102.024 Y98.149 E25.27397
G1 X101.944 Y98.248 E25.27821
G1 X101.844 Y98.402 E25.28431
G1 X101.826 Y98.446 E25.28589
G1 X101.75 Y98.454 E25.28844
G1 X101.473 Y98.557 E25.29827
G1 X101.427 Y98.576 E25.29992
G1 X101.11 Y98.725 E25.31157
G1 X101.039 Y98.764 E25.31427
G1 X100.739 Y98.958 E25.32615
G1 X100.672 Y99.009 E25.32895
G1 X100.368 Y99.273 E25.34234
G1 X100.292 Y99.352 E25.34599
G1 X99.988 Y99.734 E25.36222
G1 X99.925 Y99.83 E25.36604
G1 X99.699 Y100.262 E25.38226
G1 X99.655 Y100.371 E25.38617
G1 X99.514 Y100.851 E25.40281
G1 X99.495 Y100.946 E25.40603
G1 X99.451 Y101.302 E25.41796
G1 X99.446 Y101.363 E25.42
G1 X99.439 Y101.682 E25.43061
G1 X99.44 Y101.72 E25.43187
G1 X99.464 Y102.305 E25.45135
G1 X99.487 Y102.448 E25.45616
G1 X99.498 Y102.485 E25.45745
G1 X99.47 Y102.576 E25.46061
G1 X99.385 Y103.325 E25.48569
G1 X99.381 Y103.387 E25.48775
G1 X99.381 Y103.425 E25.48902
G1 X99.31 Y103.484 E25.49209
G1 X99.211 Y103.626 E25.49784
G1 X99.193 Y103.665 E25.49927
G1 X98.826 Y104.055 E25.51708
G1 X98.758 Y104.142 E25.52076
G1 X98.533 Y104.492 E25.5346
G1 X98.502 Y104.547 E25.5367
G1 X98.341 Y104.868 E25.54864
G1 X98.309 Y104.942 E25.55132
G1 X98.199 Y105.263 E25.56261
G1 X98.18 Y105.336 E25.56512
G1 X98.11 Y105.673 E25.57656
G1 X98.1 Y105.737 E25.57872
G1 X98.074 Y106.004 E25.58764
G1 X98.071 Y106.05 E25.58917
G1 X98.065 Y106.349 E25.59912
G1 X98.068 Y106.417 E25.60139
G1 X98.089 Y106.641 E25.60887
G1 X98.138 Y106.814 E25.61485
G1 X98.128 Y107.504 E25.6378
G1 X98.128 Y107.526 E25.63853
G1 X98.156 Y108.764 E25.67972
G1 X98.158 Y108.795 E25.68075
G1 X98.18 Y109.085 E25.69043
G1 X98.185 Y109.128 E25.69186
G1 X98.23 Y109.43 E25.70202
G1 X98.245 Y109.503 E25.7045
G1 X98.377 Y109.977 E25.72086
G1 X98.417 Y110.082 E25.7246
G1 X98.649 Y110.552 E25.74203
G1 X98.701 Y110.638 E25.74538
G1 X98.926 Y110.949 E25.75814
G1 X98.965 Y110.997 E25.7602
G1 X99.175 Y111.232 E25.77068
G1 X99.202 Y111.261 E25.772
G1 X99.395 Y111.451 E25.78101
G1 X99.531 Y111.669 E25.78956
G1 X99.565 Y111.947 E25.79887
G1 X99.57 Y111.979 E25.79995
G1 X99.672 Y112.552 E25.81931
G1 X99.679 Y112.586 E25.82046
G1 X99.752 Y112.892 E25.83092
G1 X99.835 Y113.079 E25.83773
G1 X99.841 Y113.505 E25.8519
G1 X99.842 Y113.533 E25.85283
G1 X99.88 Y114.166 E25.87392
G1 X99.882 Y114.188 E25.87466
G1 X99.912 Y114.495 E25.88492
G1 X99.925 Y114.561 E25.88715
G1 X99.9 Y114.645 E25.89007
G1 X99.832 Y115.249 E25.91028
G1 X99.83 Y115.265 E25.91082
G1 X99.807 Y115.536 E25.91987
G1 X99.806 Y115.569 E25.92096
G1 X99.731 Y115.635 E25.92429
G1 X99.685 Y115.685 E25.92655
G1 X99.604 Y115.815 E25.93164
G1 X99.464 Y115.88 E25.93678
G1 X99.339 Y116 E25.94254
G1 X99.031 Y116.395 E25.9592
G1 X99.004 Y116.433 E25.96075
G1 X98.816 Y116.717 E25.97208
G1 X98.779 Y116.781 E25.97454
G1 X98.643 Y117.055 E25.98471
G1 X98.609 Y117.137 E25.98766
G1 X98.469 Y117.568 E26.00273
G1 X98.444 Y117.687 E26.00678
G1 X98.394 Y118.139 E26.0219
