;FLAVOR:Marlin
;TIME:2758
;Filament used: 1.66663m
;Layer height: 0.2
;MINX:84.327
;MINY:45.815
;MINZ:0.2
;MAXX:135.677
;MAXY:130.484
;MAXZ:11
;Generated with Cura_SteamEngine 5.3.1
M140 S60
M105
M190 S60
M104 S200
M105
M109 S200
M82 ;absolute extrusion mode
; Ender 3 S1 Pro Start G-code
G28 ;Home
G92 E0 ;Reset Extruder
G1 Z2.0 F3000 ;Move Z Axis up
G1 X10.1 Y20 Z0.28 F5000.0 ;Move to start position
G1 X10.1 Y200.0 Z0.28 F1500.0 E15 ;Draw the first line
G1 X10.4 Y200.0 Z0.28 F5000.0 ;Move to side a little
G1 X10.4 Y20 Z0.28 F1500.0 E30 ;Draw the second line
G92 E0 ;Reset Extruder
G1 Z2.0 F3000 ;Move Z Axis up

G92 E0
G92 E0
G1 F2400 E-0.8
;LAYER_COUNT:55
;LAYER:0
M107
G0 F6000 X87.972 Y54.04 Z0.2
;TYPE:SKIRT
G1 F2400 E0
G1 F1200 X88.285 Y53.58 E0.01851
G1 X88.728 Y52.969 E0.04361
G1 X89.411 Y52.164 E0.07872
G1 X89.745 Y51.806 E0.095
G1 X90.234 Y51.316 E0.11803
G1 X90.483 Y51.083 E0.12937
G1 X91.031 Y50.606 E0.15354
G1 X91.326 Y50.367 E0.16616
G1 X92.085 Y49.808 E0.19752
G1 X92.545 Y49.501 E0.21591
G1 X93.1 Y49.156 E0.23764
G1 X93.702 Y48.819 E0.26059
G1 X94.386 Y48.463 E0.28624
G1 X94.756 Y48.28 E0.29997
G1 X95.39 Y47.982 E0.32327
G1 X96.224 Y47.634 E0.35332
G1 X97.085 Y47.362 E0.38336
G1 X98.387 Y47.102 E0.42752
G1 X99.131 Y47.005 E0.45247
G1 X100.464 Y46.856 E0.49708
G1 X101.106 Y46.805 E0.5185
G1 X102.629 Y46.732 E0.56922
G1 X104.157 Y46.672 E0.62008
G1 X104.297 Y46.673 E0.62473
G1 X105.579 Y46.619 E0.66741
G1 X106.13 Y46.615 E0.68574
G1 X106.828 Y46.63 E0.70896
G1 X108.353 Y46.685 E0.75971
G1 X110.914 Y46.704 E0.84489
G1 X113.999 Y46.631 E0.94753
G1 X114.398 Y46.629 E0.9608
G1 X115.029 Y46.644 E0.98179
G1 X117.54 Y46.759 E1.0654
G1 X118.688 Y46.793 E1.1036
G1 X119.649 Y46.867 E1.13566
G1 X120.933 Y47.027 E1.17869
G1 X121.592 Y47.119 E1.20082
G1 X122.479 Y47.284 E1.23083
G1 X123.349 Y47.527 E1.26087
G1 X124.082 Y47.8 E1.28689
G1 X124.928 Y48.156 E1.31742
G1 X125.41 Y48.374 E1.33501
G1 X126.065 Y48.699 E1.35933
G1 X126.582 Y48.979 E1.37889
G1 X127.292 Y49.402 E1.40638
G1 X127.797 Y49.731 E1.42642
G1 X128.388 Y50.147 E1.45046
G1 X129.07 Y50.69 E1.47946
G1 X129.338 Y50.922 E1.49125
G1 X129.848 Y51.395 E1.51438
G1 X130.252 Y51.796 E1.53331
G1 X131.016 Y52.644 E1.57128
G1 X131.18 Y52.848 E1.57998
G1 X131.634 Y53.459 E1.6053
G1 X131.938 Y53.901 E1.62314
G1 X132.383 Y54.607 E1.6509
G1 X132.551 Y54.9 E1.66213
G1 X132.961 Y55.695 E1.69188
G1 X133.307 Y56.467 E1.72002
G1 X133.499 Y56.936 E1.73688
G1 X133.742 Y57.593 E1.76018
G1 X133.955 Y58.258 E1.7834
G1 X134.117 Y58.814 E1.80266
G1 X134.258 Y59.355 E1.82126
G1 X134.421 Y60.115 E1.84711
G1 X134.54 Y60.785 E1.86974
G1 X134.646 Y61.549 E1.8954
G1 X134.749 Y62.574 E1.92966
G1 X134.781 Y62.974 E1.94301
G1 X134.837 Y63.893 E1.97363
G1 X134.854 Y64.29 E1.98685
G1 X134.875 Y65.251 E2.01882
G1 X134.877 Y67.704 E2.1004
G1 X134.857 Y68.667 E2.13244
G1 X134.78 Y70.178 E2.18276
G1 X134.714 Y70.988 E2.20979
G1 X134.596 Y71.985 E2.24318
G1 X134.532 Y72.424 E2.25794
G1 X133.979 Y75.691 E2.36815
G1 X133.627 Y78.204 E2.45254
G1 X133.344 Y80.752 E2.53781
G1 X133.137 Y83.254 E2.62131
G1 X133.002 Y85.769 E2.70508
G1 X132.935 Y88.347 E2.79086
G1 X132.942 Y90.88 E2.8751
G1 X133.02 Y93.415 E2.95946
G1 X133.169 Y95.94 E3.04359
G1 X133.392 Y98.481 E3.12843
G1 X133.684 Y100.997 E3.21267
G1 X134.096 Y103.813 E3.30733
G1 X134.202 Y104.461 E3.32917
G1 X134.266 Y104.927 E3.34481
G1 X134.346 Y105.618 E3.36795
G1 X134.397 Y106.2 E3.38738
G1 X134.473 Y107.509 E3.43099
G1 X134.487 Y107.862 E3.44274
G1 X134.512 Y109.043 E3.48203
G1 X134.512 Y110.954 E3.54559
G1 X134.489 Y112.063 E3.58248
G1 X134.411 Y113.527 E3.63124
G1 X134.377 Y113.963 E3.64579
G1 X134.289 Y114.836 E3.67497
G1 X134.192 Y115.546 E3.69881
G1 X134.038 Y116.439 E3.72895
G1 X133.866 Y117.242 E3.75626
G1 X133.789 Y117.542 E3.76656
G1 X133.646 Y118.044 E3.78392
G1 X133.436 Y118.717 E3.80737
G1 X133.085 Y119.671 E3.84118
G1 X132.883 Y120.146 E3.85835
G1 X132.637 Y120.681 E3.87793
G1 X132.478 Y121.002 E3.88985
G1 X132.144 Y121.622 E3.91327
G1 X131.94 Y121.971 E3.92672
G1 X131.513 Y122.646 E3.95328
G1 X130.718 Y123.698 E3.99714
G1 X130.159 Y124.346 E4.0256
G1 X129.54 Y125.003 E4.05563
G1 X128.757 Y125.688 E4.09023
G1 X128.334 Y126.022 E4.10815
G1 X127.683 Y126.496 E4.13494
G1 X127.016 Y126.942 E4.16163
G1 X126.349 Y127.352 E4.18767
G1 X125.656 Y127.736 E4.21402
G1 X125.039 Y128.057 E4.23715
G1 X124.22 Y128.438 E4.26719
G1 X123.37 Y128.745 E4.29725
G1 X122.497 Y128.975 E4.32728
G1 X122.003 Y129.07 E4.34401
G1 X120.408 Y129.335 E4.39779
G1 X119.479 Y129.474 E4.42903
G1 X118.304 Y129.579 E4.46827
G1 X115.641 Y129.662 E4.55688
G1 X115.032 Y129.663 E4.57714
G1 X114.04 Y129.635 E4.61014
G1 X111.031 Y129.598 E4.71023
G1 X109.382 Y129.596 E4.76508
G1 X105.877 Y129.651 E4.88167
G1 X104.9 Y129.684 E4.91418
G1 X104.056 Y129.678 E4.94225
G1 X102.645 Y129.609 E4.98924
G1 X101.238 Y129.518 E5.03613
G1 X100.37 Y129.424 E5.06517
G1 X98.112 Y129.081 E5.14114
G1 X97.226 Y128.906 E5.17117
G1 X96.359 Y128.654 E5.2012
G1 X95.518 Y128.325 E5.23124
G1 X94.979 Y128.068 E5.2511
G1 X94.522 Y127.833 E5.26819
G1 X93.72 Y127.393 E5.29862
G1 X93.194 Y127.08 E5.31898
G1 X92.817 Y126.84 E5.33384
G1 X92.29 Y126.481 E5.35505
G1 X91.83 Y126.146 E5.37398
G1 X90.82 Y125.305 E5.41769
G1 X90.325 Y124.836 E5.44037
G1 X89.444 Y123.889 E5.48339
G1 X89.094 Y123.461 E5.50178
G1 X88.391 Y122.49 E5.54165
G1 X88.132 Y122.084 E5.55767
G1 X87.808 Y121.54 E5.57873
G1 X87.633 Y121.224 E5.59074
G1 X87.115 Y120.143 E5.63061
G1 X86.832 Y119.451 E5.65548
G1 X86.531 Y118.612 E5.68512
G1 X86.361 Y118.064 E5.70421
G1 X86.215 Y117.544 E5.72217
G1 X86.045 Y116.845 E5.7461
G1 X85.959 Y116.444 E5.75974
G1 X85.82 Y115.641 E5.78684
G1 X85.658 Y114.363 E5.82969
G1 X85.576 Y113.466 E5.85965
G1 X85.523 Y112.561 E5.8898
G1 X85.49 Y111.36 E5.92976
G1 X85.484 Y110.559 E5.9564
G1 X85.492 Y108.608 E6.02129
G1 X85.516 Y107.677 E6.05227
G1 X85.556 Y106.83 E6.08047
G1 X85.594 Y106.321 E6.09745
G1 X85.709 Y105.174 E6.13579
G1 X85.773 Y104.662 E6.15295
G1 X86.247 Y101.535 E6.25814
G1 X86.555 Y99.02 E6.34242
G1 X86.79 Y96.498 E6.42666
G1 X86.956 Y93.94 E6.51192
G1 X87.048 Y91.435 E6.59529
G1 X87.069 Y88.867 E6.68071
G1 X87.019 Y86.331 E6.76507
G1 X86.898 Y83.815 E6.84885
G1 X86.702 Y81.268 E6.93382
G1 X86.437 Y78.751 E7.01799
G1 X86.099 Y76.23 E7.10259
G1 X85.676 Y73.627 E7.19031
G1 X85.482 Y72.519 E7.22772
G1 X85.386 Y71.871 E7.24951
G1 X85.326 Y71.388 E7.26569
G1 X85.262 Y70.746 E7.28715
G1 X85.225 Y70.246 E7.30383
G1 X85.139 Y68.454 E7.3635
G1 X85.127 Y67.761 E7.38655
G1 X85.127 Y65.415 E7.46458
G1 X85.159 Y64.137 E7.5071
G1 X85.224 Y62.959 E7.54634
G1 X85.274 Y62.326 E7.56746
G1 X85.41 Y61.17 E7.60617
G1 X85.505 Y60.553 E7.62694
G1 X85.599 Y60.046 E7.64409
G1 X85.723 Y59.47 E7.66368
G1 X85.886 Y58.807 E7.68639
G1 X86.079 Y58.125 E7.70997
G1 X86.217 Y57.695 E7.72499
G1 X86.548 Y56.807 E7.75651
G1 X86.843 Y56.116 E7.7815
G1 X87.203 Y55.361 E7.80932
G1 X87.384 Y55.018 E7.82222
G1 X87.972 Y54.04 E7.86017
G0 F6000 X87.641 Y53.815
G1 F1200 X87.961 Y53.345 E7.87908
G1 X88.423 Y52.71 E7.9052
G1 X89.119 Y51.891 E7.94095
G1 X89.462 Y51.523 E7.95768
G1 X89.961 Y51.024 E7.98115
G1 X90.22 Y50.781 E7.99296
G1 X90.779 Y50.295 E8.0176
G1 X91.089 Y50.045 E8.03085
G1 X91.863 Y49.475 E8.06282
G1 X92.334 Y49.161 E8.08164
G1 X92.905 Y48.807 E8.10399
G1 X93.517 Y48.464 E8.12732
G1 X94.209 Y48.104 E8.15327
G1 X94.586 Y47.918 E8.16725
G1 X95.236 Y47.613 E8.19113
G1 X96.07 Y47.265 E8.22119
G1 X97.007 Y46.97 E8.25386
G1 X98.335 Y46.705 E8.2989
G1 X99.087 Y46.607 E8.32412
G1 X100.432 Y46.457 E8.36914
G1 X101.087 Y46.405 E8.39099
G1 X102.613 Y46.332 E8.4418
G1 X104.16 Y46.272 E8.4933
G1 X104.283 Y46.273 E8.49739
G1 X105.576 Y46.219 E8.54043
G1 X106.139 Y46.215 E8.55916
G1 X106.842 Y46.23 E8.58254
G1 X108.367 Y46.285 E8.6333
G1 X110.908 Y46.304 E8.71781
G1 X113.997 Y46.231 E8.82058
G1 X114.408 Y46.229 E8.83425
G1 X115.047 Y46.244 E8.85551
G1 X117.558 Y46.359 E8.93912
G1 X118.719 Y46.394 E8.97775
G1 X119.698 Y46.47 E9.01041
G1 X120.988 Y46.631 E9.05365
G1 X121.665 Y46.726 E9.07638
G1 X122.587 Y46.899 E9.10758
G1 X123.489 Y47.152 E9.13874
G1 X124.237 Y47.431 E9.1653
G1 X125.093 Y47.792 E9.1962
G1 X125.588 Y48.016 E9.21427
G1 X126.255 Y48.347 E9.23903
G1 X126.787 Y48.635 E9.25915
G1 X127.497 Y49.058 E9.28664
G1 X128.027 Y49.404 E9.30769
G1 X128.637 Y49.834 E9.33252
G1 X129.332 Y50.388 E9.36208
G1 X129.61 Y50.629 E9.37431
G1 X130.13 Y51.111 E9.3979
G1 X130.549 Y51.528 E9.41756
G1 X131.328 Y52.393 E9.45628
G1 X131.501 Y52.609 E9.46548
G1 X131.964 Y53.232 E9.4913
G1 X132.268 Y53.674 E9.50914
G1 X132.73 Y54.408 E9.53798
G1 X132.907 Y54.717 E9.54983
G1 X133.326 Y55.531 E9.58028
G1 X133.677 Y56.315 E9.60885
G1 X133.874 Y56.797 E9.62617
G1 X134.123 Y57.471 E9.65007
G1 X134.339 Y58.146 E9.67364
G1 X134.504 Y58.713 E9.69328
G1 X134.649 Y59.271 E9.71245
G1 X134.815 Y60.045 E9.73878
G1 X134.936 Y60.73 E9.76192
G1 X135.044 Y61.509 E9.78808
G1 X135.148 Y62.542 E9.82261
G1 X135.237 Y63.876 E9.86708
G1 X135.254 Y64.281 E9.88056
G1 X135.275 Y65.251 E9.91283
G1 X135.277 Y67.712 E9.99468
G1 X135.256 Y68.687 E10.02712
G1 X135.179 Y70.21 E10.07784
G1 X135.111 Y71.035 E10.10537
G1 X134.992 Y72.043 E10.13913
G1 X134.926 Y72.491 E10.15419
G1 X134.373 Y75.758 E10.2644
G1 X134.025 Y78.248 E10.34802
G1 X133.742 Y80.796 E10.43329
G1 X133.535 Y83.287 E10.51642
G1 X133.402 Y85.779 E10.59943
G1 X133.335 Y88.357 E10.6852
G1 X133.342 Y90.868 E10.76872
G1 X133.42 Y93.403 E10.85307
G1 X133.567 Y95.905 E10.93643
G1 X133.789 Y98.435 E11.0209
G1 X134.08 Y100.939 E11.10475
G1 X134.491 Y103.748 E11.19917
G1 X134.598 Y104.407 E11.22137
G1 X134.663 Y104.881 E11.23729
G1 X134.744 Y105.583 E11.26079
G1 X134.796 Y106.177 E11.28062
G1 X134.873 Y107.493 E11.32447
G1 X134.912 Y109.035 E11.37577
G1 X134.912 Y110.962 E11.43986
G1 X134.888 Y112.084 E11.47719
G1 X134.81 Y113.558 E11.52628
G1 X134.775 Y114.003 E11.54113
G1 X134.685 Y114.89 E11.57078
G1 X134.586 Y115.614 E11.59509
G1 X134.429 Y116.523 E11.62577
G1 X134.253 Y117.341 E11.6536
G1 X134.174 Y117.652 E11.66427
G1 X134.028 Y118.163 E11.68195
G1 X133.811 Y118.855 E11.70607
G1 X133.453 Y119.828 E11.74055
G1 X133.246 Y120.313 E11.75809
G1 X132.995 Y120.859 E11.77808
G1 X132.83 Y121.192 E11.79044
G1 X132.489 Y121.824 E11.81432
G1 X132.278 Y122.185 E11.82823
G1 X131.851 Y122.86 E11.8548
G1 X131.021 Y123.959 E11.9006
G1 X130.45 Y124.62 E11.92965
G1 X129.803 Y125.304 E11.96097
G1 X129.005 Y126.002 E11.99623
G1 X128.569 Y126.345 E12.01468
G1 X127.905 Y126.829 E12.04201
G1 X127.225 Y127.283 E12.06921
G1 X126.543 Y127.702 E12.09583
G1 X125.841 Y128.091 E12.12252
G1 X125.208 Y128.42 E12.14625
G1 X124.389 Y128.801 E12.17629
G1 X123.472 Y129.132 E12.20872
G1 X122.573 Y129.368 E12.23963
G1 X122.069 Y129.465 E12.2567
G1 X120.467 Y129.731 E12.31072
G1 X119.538 Y129.87 E12.34196
G1 X118.316 Y129.979 E12.38276
G1 X115.642 Y130.062 E12.47174
G1 X115.021 Y130.063 E12.4924
G1 X114.029 Y130.035 E12.52541
G1 X111.026 Y129.998 E12.62529
G1 X109.388 Y129.996 E12.67977
G1 X105.891 Y130.051 E12.7961
G1 X104.914 Y130.084 E12.82861
G1 X104.036 Y130.078 E12.85782
G1 X102.619 Y130.008 E12.905
G1 X101.195 Y129.916 E12.95246
G1 X100.327 Y129.822 E12.9815
G1 X98.034 Y129.473 E13.05865
G1 X97.114 Y129.29 E13.08984
G1 X96.213 Y129.027 E13.12106
G1 X95.372 Y128.698 E13.1511
G1 X94.796 Y128.424 E13.17231
G1 X94.33 Y128.184 E13.18975
G1 X93.515 Y127.737 E13.22066
G1 X92.979 Y127.417 E13.24143
G1 X92.592 Y127.171 E13.25668
G1 X92.055 Y126.804 E13.27831
G1 X91.574 Y126.453 E13.29812
G1 X90.545 Y125.595 E13.34268
G1 X90.032 Y125.108 E13.3662
G1 X89.134 Y124.142 E13.41007
G1 X88.77 Y123.696 E13.42922
G1 X88.067 Y122.725 E13.46909
G1 X87.788 Y122.289 E13.48631
G1 X87.458 Y121.734 E13.50778
G1 X87.272 Y121.397 E13.52059
G1 X86.754 Y120.316 E13.56045
G1 X86.455 Y119.586 E13.58669
G1 X86.149 Y118.731 E13.6169
G1 X85.976 Y118.172 E13.63636
G1 X85.826 Y117.639 E13.65477
G1 X85.654 Y116.929 E13.67907
G1 X85.565 Y116.512 E13.69325
G1 X85.423 Y115.691 E13.72097
G1 X85.26 Y114.399 E13.76428
G1 X85.177 Y113.489 E13.79467
G1 X85.123 Y112.572 E13.82522
G1 X85.09 Y111.363 E13.86545
G1 X85.084 Y110.557 E13.89226
G1 X85.092 Y108.598 E13.95742
G1 X85.116 Y107.658 E13.98869
G1 X85.157 Y106.8 E14.01726
G1 X85.196 Y106.281 E14.03457
G1 X85.312 Y105.124 E14.07325
G1 X85.378 Y104.602 E14.09075
G1 X85.85 Y101.486 E14.19557
G1 X86.158 Y98.971 E14.27984
G1 X86.392 Y96.461 E14.36369
G1 X86.556 Y93.925 E14.44821
G1 X86.648 Y91.42 E14.53158
G1 X86.669 Y88.864 E14.6166
G1 X86.619 Y86.35 E14.70023
G1 X86.498 Y83.834 E14.78401
G1 X86.303 Y81.299 E14.86857
G1 X86.04 Y78.793 E14.95238
G1 X85.704 Y76.294 E15.03625
G1 X85.281 Y73.691 E15.12396
G1 X85.086 Y72.578 E15.16154
G1 X84.989 Y71.92 E15.18366
G1 X84.928 Y71.428 E15.20015
G1 X84.863 Y70.776 E15.22194
G1 X84.825 Y70.265 E15.23899
G1 X84.739 Y68.461 E15.29906
G1 X84.727 Y67.768 E15.32211
G1 X84.727 Y65.405 E15.4007
G1 X84.76 Y64.115 E15.44362
G1 X84.825 Y62.928 E15.48316
G1 X84.877 Y62.279 E15.50482
G1 X85.015 Y61.109 E15.544
G1 X85.112 Y60.48 E15.56517
G1 X85.208 Y59.962 E15.58269
G1 X85.335 Y59.375 E15.60267
G1 X85.501 Y58.698 E15.62585
G1 X85.698 Y58.003 E15.64988
G1 X85.842 Y57.555 E15.66553
G1 X86.18 Y56.65 E15.69766
G1 X86.482 Y55.944 E15.7232
G1 X86.849 Y55.174 E15.75157
G1 X87.041 Y54.812 E15.7652
G1 X87.641 Y53.815 E15.8039
G0 F6000 X87.31 Y53.59
G1 F1200 X87.638 Y53.11 E15.82324
G1 X88.118 Y52.451 E15.85035
G1 X88.826 Y51.618 E15.88671
G1 X89.169 Y51.25 E15.90345
G1 X89.687 Y50.732 E15.92781
G1 X89.958 Y50.479 E15.94014
G1 X90.528 Y49.984 E15.96525
G1 X90.852 Y49.723 E15.97909
G1 X91.641 Y49.142 E16.01168
G1 X92.123 Y48.821 E16.03094
G1 X92.709 Y48.458 E16.05387
G1 X93.332 Y48.109 E16.07762
G1 X94.032 Y47.745 E16.10386
G1 X94.416 Y47.556 E16.11809
G1 X95.082 Y47.244 E16.14256
G1 X95.95 Y46.883 E16.17382
G1 X96.887 Y46.588 E16.2065
G1 X98.283 Y46.308 E16.25385
G1 X99.043 Y46.209 E16.27934
G1 X100.4 Y46.058 E16.32476
G1 X101.068 Y46.005 E16.34704
G1 X102.597 Y45.932 E16.39796
G1 X105.573 Y45.819 E16.49701
G1 X106.148 Y45.815 E16.51613
G1 X106.856 Y45.83 E16.53969
G1 X108.381 Y45.885 E16.59044
G1 X110.902 Y45.904 E16.67429
G1 X113.995 Y45.831 E16.7772
G1 X114.417 Y45.829 E16.79123
G1 X115.065 Y45.844 E16.81279
G1 X117.576 Y45.959 E16.89639
G1 X118.75 Y45.995 E16.93546
G1 X119.748 Y46.073 E16.96875
G1 X121.044 Y46.235 E17.0122
G1 X121.739 Y46.333 E17.03554
G1 X122.695 Y46.514 E17.0679
G1 X123.629 Y46.777 E17.10017
G1 X124.392 Y47.062 E17.12726
G1 X125.258 Y47.428 E17.15853
G1 X125.766 Y47.658 E17.17708
G1 X126.445 Y47.995 E17.20229
G1 X126.992 Y48.291 E17.22298
G1 X127.716 Y48.723 E17.25102
G1 X128.257 Y49.077 E17.27253
G1 X128.886 Y49.521 E17.29813
G1 X129.594 Y50.086 E17.32826
G1 X129.882 Y50.336 E17.34094
G1 X130.412 Y50.827 E17.36497
G1 X130.846 Y51.26 E17.38536
G1 X131.64 Y52.143 E17.42486
G1 X131.822 Y52.37 E17.43454
G1 X132.294 Y53.005 E17.46085
G1 X132.607 Y53.461 E17.47925
G1 X133.077 Y54.209 E17.50863
G1 X133.263 Y54.534 E17.52109
G1 X133.682 Y55.348 E17.55154
G1 X134.047 Y56.164 E17.58127
G1 X134.249 Y56.658 E17.59902
G1 X134.504 Y57.349 E17.62352
G1 X134.723 Y58.034 E17.64744
G1 X134.891 Y58.612 E17.66746
G1 X135.04 Y59.187 E17.68721
G1 X135.209 Y59.975 E17.71402
G1 X135.332 Y60.675 E17.73766
G1 X135.442 Y61.469 E17.76432
G1 X135.547 Y62.515 E17.79928
G1 X135.637 Y63.859 E17.84408
G1 X135.654 Y64.272 E17.85783
G1 X135.675 Y65.251 E17.8904
G1 X135.677 Y67.721 E17.97255
G1 X135.655 Y68.707 E18.00536
G1 X135.578 Y70.243 E18.05651
G1 X135.508 Y71.082 E18.08451
G1 X135.388 Y72.101 E18.11864
G1 X135.32 Y72.558 E18.134
G1 X134.767 Y75.825 E18.24421
G1 X134.423 Y78.292 E18.32706
G1 X134.14 Y80.84 E18.41232
G1 X133.933 Y83.32 E18.4951
G1 X133.802 Y85.789 E18.57733
G1 X133.735 Y88.367 E18.6631
G1 X133.742 Y90.856 E18.74589
G1 X133.82 Y93.391 E18.83024
G1 X133.965 Y95.87 E18.91284
G1 X134.186 Y98.389 E18.99694
G1 X134.476 Y100.881 E19.08038
G1 X134.886 Y103.684 E19.1746
G1 X134.994 Y104.353 E19.19714
G1 X135.06 Y104.835 E19.21332
G1 X135.142 Y105.548 E19.2372
G1 X135.195 Y106.154 E19.25743
G1 X135.273 Y107.483 E19.30171
