;FLAVOR:Marlin
;TIME:2122
;Filament used: 1.43311m
;Layer height: 0.2
;MINX:70.302
;MINY:89.87
;MINZ:0.2
;MAXX:136.159
;MAXY:119.426
;MAXZ:16
;Generated with Cura_SteamEngine 4.11.0
M140 S60
M105
M190 S60
M104 S200
M105
M109 S200
M82 ;absolute extrusion mode
G21 ;metric values
G90 ;absolute positioning
M82 ;set extruder to absolute mode
M107 ;start with the fan off
G28 X0 Y0 ;move X/Y to min endstops
G28 Z0 ;move Z to min endstops
G1 Z15.0 F100 ;move the platform down 15mm
G92 E0 ;zero the extruded length
G1 F200 E3 ;extrude 3mm of feed stock
G92 E0 ;zero the extruded length again
G1 F100
G0 Y20 F100
M117 Printing...
G5
G92 E0
G92 E0
G1 F2400 E-6
;LAYER_COUNT:80
;LAYER:0
M107
M204 S3000
M205 X10 Y10
G1 F600 Z0.275
G0 F3000 X108.641 Y104.254 Z0.275
M204 S1800
M205 X8 Y8
;TYPE:SKIRT
G1 F600 Z0.2
G1 F2400 E0
G1 X108.666 Y104.705 E0.02103
G1 X108.643 Y105.038 E0.03658
G1 X110.994 Y106.948 E0.17762
G1 X118.262 Y106.948 E0.51605
G1 X118.515 Y106.678 E0.53328
G1 X118.952 Y106.298 E0.56025
G1 X119.437 Y105.981 E0.58723
G1 X119.961 Y105.734 E0.6142
G1 X120.514 Y105.562 E0.64117
G1 X121.086 Y105.467 E0.66817
G1 X121.782 Y105.448 E0.70059
G1 X122.36 Y105.488 E0.72757
G1 X122.71 Y105.561 E0.74421
G1 X123.013 Y105.138 E0.76844
G1 X123.446 Y104.678 E0.79786
G1 X123.48 Y104.649 E0.79994
G1 X123.282 Y104.454 E0.81288
G1 X122.902 Y104.017 E0.83985
G1 X122.717 Y103.734 E0.85559
G1 X122.3 Y103.816 E0.87538
G1 X121.783 Y103.848 E0.8995
G1 X121.402 Y103.848 E0.91724
G1 X120.824 Y103.808 E0.94422
G1 X120.257 Y103.689 E0.97119
G1 X119.712 Y103.493 E0.99816
G1 X119.199 Y103.224 E1.02514
G1 X118.728 Y102.887 E1.0521
G1 X118.308 Y102.488 E1.07908
G1 X118.229 Y102.389 E1.08498
G1 X110.933 Y102.389 E1.42471
G1 X108.641 Y104.254 E1.5623
M204 S3000
M205 X10 Y10
G0 F3000 X108.106 Y104.593
M204 S1800
M205 X8 Y8
G1 F2400 X108.106 Y104.705 E1.56752
G1 X108.066 Y105.243 E1.59264
G1 X108.057 Y105.284 E1.59459
G1 X110.794 Y107.508 E1.75881
G1 X118.539 Y107.508 E2.11945
G1 X118.911 Y107.074 E2.14606
G1 X119.32 Y106.722 E2.17119
G1 X119.776 Y106.434 E2.1963
G1 X120.269 Y106.217 E2.22139
G1 X120.789 Y106.075 E2.24649
G1 X121.485 Y106.008 E2.27904
G1 X121.782 Y106.008 E2.29287
G1 X122.32 Y106.048 E2.31799
G1 X122.846 Y106.167 E2.34311
G1 X122.981 Y106.219 E2.34984
G1 X123.234 Y105.777 E2.37356
G1 X123.678 Y105.238 E2.40607
G1 X123.842 Y105.074 E2.41687
G1 X124.251 Y104.722 E2.442
G1 X124.363 Y104.651 E2.44817
G1 X123.842 Y104.222 E2.4796
G1 X123.678 Y104.058 E2.4904
G1 X123.326 Y103.649 E2.51553
G1 X123.038 Y103.193 E2.54064
G1 X122.987 Y103.078 E2.5465
G1 X122.919 Y103.106 E2.54992
G1 X122.396 Y103.236 E2.57502
G1 X121.783 Y103.288 E2.60366
G1 X121.402 Y103.288 E2.6214
G1 X120.864 Y103.248 E2.64653
G1 X120.338 Y103.129 E2.67164
G1 X119.836 Y102.934 E2.69671
G1 X119.367 Y102.666 E2.72187
G1 X118.944 Y102.333 E2.74693
G1 X118.574 Y101.94 E2.77207
G1 X118.497 Y101.829 E2.77836
G1 X110.733 Y101.829 E3.13988
G1 X108.051 Y104.013 E3.30094
G1 X108.106 Y104.593 E3.32807
M204 S3000
M205 X10 Y10
G0 F3000 X107.546 Y104.593
M204 S1800
M205 X8 Y8
G1 F2400 X107.506 Y105.199 E3.35634
G1 X107.432 Y105.498 E3.37069
G1 X110.595 Y108.068 E3.56046
G1 X118.821 Y108.068 E3.9435
G1 X119.224 Y107.553 E3.97395
G1 X119.685 Y107.149 E4.00249
G1 X120.109 Y106.892 E4.02557
G1 X120.57 Y106.707 E4.0487
G1 X121.053 Y106.598 E4.07176
G1 X121.782 Y106.568 E4.10574
G1 X122.276 Y106.608 E4.12881
G1 X122.758 Y106.727 E4.15193
G1 X123.297 Y106.974 E4.17954
G1 X123.525 Y106.38 E4.20917
G1 X123.79 Y105.961 E4.23225
G1 X124.238 Y105.47 E4.2632
G1 X124.616 Y105.149 E4.28629
G1 X125.04 Y104.892 E4.30938
G1 X125.501 Y104.707 E4.33251
G1 X125.761 Y104.648 E4.34492
G1 X125.44 Y104.569 E4.36032
G1 X124.984 Y104.375 E4.38339
G1 X124.565 Y104.11 E4.40648
G1 X124.074 Y103.662 E4.43743
G1 X123.753 Y103.284 E4.46052
G1 X123.496 Y102.86 E4.4836
G1 X123.294 Y102.326 E4.51019
G1 X122.912 Y102.514 E4.53001
G1 X122.437 Y102.658 E4.55313
G1 X121.783 Y102.728 E4.58375
G1 X120.908 Y102.688 E4.62454
G1 X120.426 Y102.569 E4.64766
G1 X119.97 Y102.375 E4.67073
G1 X119.551 Y102.11 E4.69382
G1 X119.18 Y101.78 E4.71694
G1 X118.793 Y101.269 E4.74679
G1 X110.535 Y101.269 E5.13131
G1 X107.435 Y103.793 E5.31746
G1 X107.459 Y103.864 E5.32095
G1 X107.546 Y104.593 E5.35513
M204 S3000
M205 X10 Y10
G0 F3000 X106.986 Y104.593
M204 S1800
M205 X8 Y8
G1 F2400 X106.946 Y105.152 E5.38123
G1 X106.777 Y105.687 E5.40735
G1 X110.397 Y108.628 E5.62453
G1 X119.147 Y108.628 E6.03197
G1 X119.234 Y108.447 E6.04132
G1 X119.62 Y107.949 E6.07066
G1 X120.047 Y107.578 E6.097
G1 X120.437 Y107.356 E6.1179
G1 X120.86 Y107.207 E6.13878
G1 X121.485 Y107.128 E6.16811
G1 X122.229 Y107.168 E6.20281
G1 X122.661 Y107.286 E6.22366
G1 X123.066 Y107.48 E6.24457
G1 X123.43 Y107.742 E6.26545
G1 X123.732 Y108.054 E6.28567
G1 X123.772 Y107.365 E6.31781
G1 X123.89 Y106.933 E6.33866
G1 X124.084 Y106.528 E6.35957
G1 X124.47 Y106.03 E6.38891
G1 X124.978 Y105.578 E6.42057
G1 X125.368 Y105.356 E6.44147
G1 X125.791 Y105.207 E6.46235
G1 X126.416 Y105.128 E6.49169
G1 X128.58 Y105.128 E6.59245
G1 X129.027 Y105.168 E6.61335
G1 X129.459 Y105.286 E6.6342
G1 X129.864 Y105.48 E6.65511
G1 X130.362 Y105.866 E6.68445
G1 X130.814 Y106.374 E6.71611
G1 X131.036 Y106.764 E6.73701
G1 X131.185 Y107.187 E6.75789
G1 X131.264 Y107.812 E6.78723
G1 X131.264 Y109.484 E6.86508
G1 X131.224 Y109.931 E6.88598
G1 X131.106 Y110.363 E6.90683
G1 X130.912 Y110.768 E6.92774
G1 X130.526 Y111.266 E6.95708
G1 X130.018 Y111.718 E6.98875
G1 X129.628 Y111.94 E7.00964
G1 X129.205 Y112.089 E7.03052
G1 X128.58 Y112.168 E7.05986
G1 X126.416 Y112.168 E7.16062
G1 X126.164 Y112.145 E7.17241
G1 X126.279 Y112.345 E7.18315
G1 X126.431 Y112.767 E7.20403
G1 X126.506 Y113.209 E7.22491
G1 X126.502 Y113.657 E7.24577
G1 X126.417 Y114.098 E7.26668
G1 X126.256 Y114.517 E7.28759
G1 X126.024 Y114.9 E7.30844
G1 X125.727 Y115.237 E7.32935
G1 X125.375 Y115.515 E7.35024
G1 X124.734 Y115.826 E7.38341
G1 X124.305 Y115.958 E7.40431
G1 X123.785 Y116.012 E7.42866
G1 X105.204 Y116.012 E8.29387
G1 X104.488 Y115.908 E8.32756
G1 X104.051 Y115.738 E8.34939
G1 X102.404 Y114.915 E8.43512
G1 X101.85 Y114.539 E8.4663
G1 X101.505 Y114.177 E8.48959
G1 X101.148 Y114.549 E8.51359
G1 X100.614 Y114.908 E8.54356
G1 X98.825 Y115.801 E8.63666
G1 X98.238 Y116.008 E8.66564
G1 X97.691 Y116.068 E8.69127
G1 X83.922 Y116.068 E9.33241
G1 X83.458 Y116.796 E9.37261
G1 X83.139 Y117.112 E9.39352
G1 X82.688 Y117.414 E9.41879
G1 X82.281 Y117.601 E9.43965
G1 X81.846 Y117.713 E9.46056
G1 X81.438 Y117.746 E9.47962
G1 X74.619 Y117.746 E9.79714
G1 X74.172 Y117.706 E9.81804
G1 X73.74 Y117.588 E9.83889
G1 X73.335 Y117.394 E9.8598
G1 X72.837 Y117.008 E9.88914
G1 X72.432 Y116.547 E9.91772
G1 X72.21 Y116.157 E9.93861
G1 X72.061 Y115.734 E9.9595
G1 X71.982 Y115.109 E9.98883
G1 X71.982 Y114.555 E10.01463
G1 X72.022 Y114.108 E10.03552
G1 X72.14 Y113.676 E10.05638
G1 X72.334 Y113.271 E10.07729
G1 X72.72 Y112.773 E10.10663
G1 X73.181 Y112.368 E10.1352
G1 X73.484 Y112.196 E10.15142
G1 X72.966 Y111.678 E10.18553
G1 X72.678 Y111.334 E10.20643
G1 X72.456 Y110.944 E10.22732
G1 X72.306 Y110.521 E10.24822
G1 X72.234 Y110.078 E10.26912
G1 X72.241 Y109.63 E10.28998
G1 X72.421 Y108.925 E10.32386
G1 X72.733 Y108.281 E10.35718
G1 X73.009 Y107.927 E10.37809
G1 X73.343 Y107.628 E10.39896
G1 X73.725 Y107.393 E10.41984
G1 X74.143 Y107.229 E10.44075
G1 X74.85 Y107.128 E10.47401
G1 X77.489 Y107.128 E10.59689
G1 X78.195 Y107.229 E10.6301
G1 X78.64 Y107.401 E10.65231
G1 X81.013 Y108.587 E10.77584
G1 X92.669 Y108.587 E11.31859
G1 X96.225 Y105.692 E11.53211
G1 X96.071 Y105.215 E11.55545
G1 X96.018 Y104.703 E11.57942
G1 X96.058 Y104.144 E11.60552
G1 X96.227 Y103.609 E11.63164
G1 X92.607 Y100.668 E11.84882
G1 X81.078 Y100.668 E12.38566
G1 X78.626 Y101.893 E12.51329
G1 X78.128 Y102.08 E12.53806
G1 X78.093 Y102.089 E12.53974
G1 X77.465 Y102.168 E12.56922
G1 X74.85 Y102.168 E12.69098
G1 X74.403 Y102.128 E12.71188
G1 X73.971 Y102.01 E12.73273
G1 X73.566 Y101.816 E12.75364
G1 X73.202 Y101.554 E12.77453
G1 X72.89 Y101.232 E12.7954
G1 X72.524 Y100.618 E12.82869
G1 X72.286 Y99.943 E12.86201
G1 X72.229 Y99.498 E12.88291
G1 X72.252 Y99.05 E12.90379
G1 X72.353 Y98.613 E12.92468
G1 X72.531 Y98.202 E12.94553
G1 X72.967 Y97.618 E12.97947
G1 X73.486 Y97.1 E13.01361
G1 X73.335 Y97.027 E13.02142
G1 X72.837 Y96.641 E13.05076
G1 X72.432 Y96.18 E13.07934
G1 X72.21 Y95.79 E13.10023
G1 X72.061 Y95.367 E13.12112
G1 X71.982 Y94.742 E13.15045
G1 X71.982 Y94.187 E13.17629
G1 X72.022 Y93.74 E13.19719
G1 X72.14 Y93.308 E13.21804
G1 X72.334 Y92.903 E13.23895
G1 X72.72 Y92.405 E13.26829
G1 X73.181 Y92 E13.29687
G1 X73.571 Y91.778 E13.31776
G1 X73.994 Y91.629 E13.33864
G1 X74.619 Y91.55 E13.36798
G1 X81.442 Y91.55 E13.68569
G1 X81.889 Y91.59 E13.70658
G1 X82.321 Y91.708 E13.72744
G1 X82.765 Y91.923 E13.75041
G1 X83.135 Y92.176 E13.77128
G1 X83.455 Y92.491 E13.79219
G1 X83.958 Y93.284 E13.83591
G1 X97.794 Y93.284 E14.48018
G1 X98.473 Y93.377 E14.51209
G1 X98.947 Y93.558 E14.53571
G1 X100.609 Y94.39 E14.62226
G1 X101.184 Y94.785 E14.65474
G1 X101.496 Y95.149 E14.67707
G1 X101.84 Y94.765 E14.70107
G1 X101.879 Y94.731 E14.70348
G1 X102.409 Y94.377 E14.73316
G1 X104.167 Y93.499 E14.82466
G1 X104.799 Y93.282 E14.85578
G1 X105.318 Y93.228 E14.88007
G1 X123.691 Y93.228 E15.7356
G1 X124.122 Y93.265 E15.75574
G1 X124.557 Y93.374 E15.77662
G1 X125.124 Y93.634 E15.80567
G1 X125.506 Y93.87 E15.82658
G1 X125.84 Y94.169 E15.84745
G1 X126.115 Y94.523 E15.86832
G1 X126.324 Y94.92 E15.88921
G1 X126.458 Y95.348 E15.9101
G1 X126.515 Y95.793 E15.93099
G1 X126.492 Y96.241 E15.95188
G1 X126.39 Y96.678 E15.97277
G1 X126.165 Y97.16 E15.99754
G1 X126.416 Y97.128 E16.00932
G1 X128.58 Y97.128 E16.11009
G1 X129.027 Y97.168 E16.13098
G1 X129.459 Y97.286 E16.15184
G1 X129.864 Y97.48 E16.17275
G1 X130.362 Y97.866 E16.20209
G1 X130.814 Y98.374 E16.23375
G1 X131.036 Y98.764 E16.25465
G1 X131.185 Y99.187 E16.27553
G1 X131.264 Y99.812 E16.30486
G1 X131.264 Y101.484 E16.38272
G1 X131.224 Y101.931 E16.40361
G1 X131.106 Y102.363 E16.42447
G1 X130.912 Y102.768 E16.44538
G1 X130.526 Y103.266 E16.47472
G1 X130.018 Y103.718 E16.50638
G1 X129.628 Y103.94 E16.52728
G1 X129.205 Y104.089 E16.54816
G1 X128.58 Y104.168 E16.57749
G1 X126.416 Y104.168 E16.67826
G1 X125.969 Y104.128 E16.69916
G1 X125.537 Y104.01 E16.72001
G1 X125.132 Y103.816 E16.74092
G1 X124.634 Y103.43 E16.77026
G1 X124.182 Y102.922 E16.80192
G1 X123.96 Y102.532 E16.82282
G1 X123.811 Y102.109 E16.8437
G1 X123.732 Y101.484 E16.87303
G1 X123.732 Y101.229 E16.88491
G1 X123.575 Y101.42 E16.89642
G1 X123.232 Y101.71 E16.91733
G1 X122.844 Y101.934 E16.9382
G1 X122.421 Y102.086 E16.95913
G1 X121.783 Y102.168 E16.98908
G1 X120.955 Y102.128 E17.02768
G1 X120.523 Y102.01 E17.04853
G1 X120.118 Y101.816 E17.06944
G1 X119.754 Y101.554 E17.09032
G1 X119.442 Y101.232 E17.1112
G1 X119.126 Y100.709 E17.13966
G1 X110.335 Y100.709 E17.549
G1 X106.779 Y103.604 E17.76252
G1 X106.933 Y104.081 E17.78586
G1 X106.986 Y104.593 E17.80983
M204 S3000
M205 X10 Y10
G0 F3000 X106.402 Y104.287
M204 S1800
M205 X8 Y8
G1 F2400 X106.426 Y104.705 E17.82932
G1 X106.386 Y105.098 E17.84772
G1 X106.268 Y105.476 E17.86616
G1 X106.071 Y105.835 E17.88522
G1 X110.198 Y109.188 E18.13282
G1 X119.529 Y109.188 E18.56731
G1 X119.6 Y108.96 E18.57843
G1 X119.791 Y108.614 E18.59684
G1 X120.099 Y108.262 E18.61862
G1 X120.405 Y108.012 E18.63702
G1 X120.756 Y107.829 E18.65545
G1 X121.136 Y107.719 E18.67387
G1 X121.782 Y107.688 E18.70398
G1 X122.175 Y107.728 E18.72238
G1 X122.553 Y107.846 E18.74082
G1 X122.899 Y108.037 E18.75922
G1 X123.2 Y108.294 E18.77765
G1 X123.442 Y108.607 E18.79607
G1 X123.618 Y108.961 E18.81448
G1 X123.739 Y109.533 E18.8417
G1 X123.817 Y110.112 E18.86891
G1 X124.068 Y110.732 E18.90005
G1 X124.514 Y111.311 E18.93409
G1 X124.849 Y111.617 E18.95521
G1 X125.404 Y112.046 E18.98788
G1 X125.649 Y112.357 E19.00631
G1 X125.826 Y112.71 E19.0247
G1 X125.929 Y113.092 E19.04312
G1 X125.952 Y113.487 E19.06155
G1 X125.896 Y113.878 E19.07994
G1 X125.763 Y114.251 E19.09838
G1 X125.558 Y114.589 E19.11679
G1 X125.289 Y114.878 E19.13517
G1 X124.967 Y115.108 E19.1536
G1 X124.523 Y115.308 E19.17627
G1 X124.144 Y115.419 E19.19466
G1 X123.785 Y115.452 E19.21145
G1 X105.204 Y115.452 E20.07666
G1 X104.647 Y115.371 E20.10287
G1 X104.301 Y115.237 E20.12014
G1 X102.654 Y114.414 E20.20588
G1 X102.223 Y114.122 E20.23012
G1 X102.185 Y114.088 E20.23249
G1 X101.834 Y113.672 E20.25784
G1 X101.503 Y113.146 E20.28678
G1 X101.175 Y113.671 E20.3156
G1 X100.804 Y114.107 E20.34226
G1 X100.78 Y114.128 E20.34374
G1 X100.364 Y114.407 E20.36707
G1 X98.575 Y115.3 E20.46017
G1 X98.116 Y115.461 E20.48282
G1 X97.691 Y115.508 E20.50273
G1 X83.597 Y115.508 E21.15901
G1 X83.229 Y116.15 E21.19346
G1 X82.998 Y116.471 E21.21188
G1 X82.708 Y116.74 E21.2303
G1 X82.41 Y116.928 E21.2467
G1 X82.049 Y117.088 E21.26509
G1 X81.438 Y117.186 E21.29391
G1 X74.619 Y117.186 E21.61143
G1 X74.226 Y117.146 E21.62982
G1 X73.848 Y117.028 E21.64826
G1 X73.502 Y116.837 E21.66666
G1 X73.116 Y116.495 E21.69068
G1 X72.866 Y116.189 E21.70908
G1 X72.683 Y115.838 E21.72751
G1 X72.573 Y115.458 E21.74593
G1 X72.542 Y115.109 E21.76224
G1 X72.542 Y114.555 E21.78804
G1 X72.582 Y114.162 E21.80643
G1 X72.7 Y113.784 E21.82487
G1 X72.891 Y113.438 E21.84328
G1 X73.233 Y113.052 E21.86729
G1 X73.539 Y112.802 E21.88569
G1 X73.89 Y112.619 E21.90412
G1 X74.194 Y112.531 E21.91886
G1 X74.461 Y112.379 E21.93316
G1 X73.362 Y111.281 E22.0055
G1 X73.111 Y110.975 E22.02393
G1 X72.928 Y110.625 E22.04232
G1 X72.818 Y110.245 E22.06074
G1 X72.788 Y109.851 E22.07914
G1 X72.836 Y109.458 E22.09758
G1 X73.041 Y108.894 E22.12552
G1 X73.229 Y108.546 E22.14394
G1 X73.483 Y108.243 E22.16235
G1 X73.793 Y107.997 E22.18078
G1 X74.146 Y107.819 E22.19919
G1 X74.528 Y107.715 E22.21762
G1 X74.85 Y107.688 E22.23267
G1 X77.489 Y107.688 E22.35555
G1 X78.038 Y107.766 E22.38137
G1 X78.389 Y107.902 E22.3989
G1 X80.88 Y109.147 E22.52857
G1 X92.868 Y109.147 E23.08678
G1 X96.936 Y105.836 E23.33102
G1 X96.703 Y105.392 E23.35437
G1 X96.602 Y105.009 E23.37281
G1 X96.578 Y104.591 E23.39231
G1 X96.618 Y104.198 E23.4107
G1 X96.736 Y103.82 E23.42914
G1 X96.933 Y103.461 E23.44821
G1 X92.806 Y100.108 E23.69581
G1 X80.947 Y100.108 E24.24801
G1 X78.376 Y101.392 E24.38183
G1 X77.953 Y101.546 E24.40279
G1 X77.465 Y101.608 E24.42569
G1 X74.85 Y101.608 E24.54746
G1 X74.457 Y101.568 E24.56585
G1 X74.079 Y101.45 E24.58429
G1 X73.733 Y101.259 E24.6027
G1 X73.432 Y101.002 E24.62113
G1 X73.19 Y100.689 E24.63955
G1 X72.938 Y100.155 E24.66704
G1 X72.823 Y99.777 E24.68544
G1 X72.787 Y99.383 E24.70386
G1 X72.831 Y98.99 E24.72228
G1 X72.952 Y98.614 E24.74067
G1 X73.147 Y98.269 E24.75912
G1 X73.362 Y98.014 E24.77465
G1 X74.416 Y96.962 E24.844
G1 X74.069 Y96.73 E24.86343
G1 X73.848 Y96.661 E24.87421
G1 X73.502 Y96.47 E24.89262
G1 X73.116 Y96.128 E24.91663
G1 X72.866 Y95.822 E24.93503
G1 X72.683 Y95.471 E24.95346
G1 X72.573 Y95.091 E24.97188
G1 X72.542 Y94.742 E24.9882
G1 X72.542 Y94.187 E25.01404
G1 X72.582 Y93.794 E25.03244
G1 X72.7 Y93.416 E25.05087
G1 X72.891 Y93.07 E25.06928
G1 X73.233 Y92.684 E25.09329
G1 X73.539 Y92.434 E25.11169
G1 X73.89 Y92.251 E25.13012
G1 X74.27 Y92.141 E25.14854
G1 X74.619 Y92.11 E25.16486
G1 X81.442 Y92.11 E25.48257
G1 X81.835 Y92.15 E25.50096
G1 X82.4 Y92.36 E25.52903
G1 X82.815 Y92.638 E25.55229
G1 X83.086 Y92.926 E25.5707
G1 X83.234 Y93.147 E25.58309
G1 X83.633 Y93.844 E25.62048
G1 X97.794 Y93.844 E26.27988
G1 X98.322 Y93.917 E26.3047
G1 X98.696 Y94.058 E26.32331
G1 X100.358 Y94.89 E26.40985
G1 X100.805 Y95.198 E26.43513
G1 X100.841 Y95.231 E26.4374
G1 X101.174 Y95.63 E26.4616
G1 X101.504 Y96.153 E26.4904
G1 X101.833 Y95.627 E26.51929
G1 X102.208 Y95.188 E26.54617
G1 X102.659 Y94.878 E26.57166
G1 X104.417 Y94 E26.66316
G1 X104.909 Y93.831 E26.68738
G1 X105.318 Y93.788 E26.70653
G1 X123.691 Y93.788 E27.56205
G1 X124.035 Y93.818 E27.57813
G1 X124.606 Y94.001 E27.60605
G1 X125.208 Y94.347 E27.63839
G1 X125.492 Y94.621 E27.65676
G1 X125.716 Y94.947 E27.67518
G1 X125.87 Y95.311 E27.69358
G1 X125.948 Y95.699 E27.71201
G1 X125.946 Y96.094 E27.7304
