;FLAVOR:Marlin
;TIME:2920
;Filament used: 1.55563m
;Layer height: 0.2
;MINX:54.745
;MINY:94.613
;MINZ:0.2
;MAXX:153.932
;MAXY:115.788
;MAXZ:23.6
;Generated with Cura_SteamEngine 4.11.0
M140 S60
M105
M190 S60
M104 S200
M105
M109 S200
M82 ;absolute extrusion mode
G21 ;metric values
G90 ;absolute positioning
M82 ;set extruder to absolute mode
M107 ;start with the fan off
G28 X0 Y0 ;move X/Y to min endstops
G28 Z0 ;move Z to min endstops
G1 Z15.0 F100 ;move the platform down 15mm
G92 E0 ;zero the extruded length
G1 F200 E3 ;extrude 3mm of feed stock
G92 E0 ;zero the extruded length again
G1 F100
G0 Y20 F100
M117 Printing...
G5
G92 E0
G92 E0
G1 F2400 E-6
;LAYER_COUNT:118
;LAYER:0
M107
M204 S3000
M205 X10 Y10
G1 F600 Z0.275
G0 F3000 X56.784 Y95.245 Z0.275
M204 S1800
M205 X8 Y8
;TYPE:SKIRT
G1 F600 Z0.2
G1 F2400 E0
G1 X57.296 Y94.974 E0.02697
G1 X57.84 Y94.776 E0.05393
G1 X58.407 Y94.655 E0.08093
G1 X59 Y94.613 E0.10861
G1 X68.26 Y94.613 E0.53979
G1 X68.838 Y94.653 E0.56677
G1 X69.405 Y94.772 E0.59375
G1 X69.95 Y94.968 E0.62072
G1 X70.463 Y95.237 E0.64769
G1 X70.934 Y95.574 E0.67466
G1 X71.408 Y96.005 E0.70449
G1 X71.924 Y96.411 E0.73506
G1 X72.337 Y96.755 E0.76009
G1 X72.757 Y97.098 E0.78534
G1 X73.345 Y97.576 E0.82063
G1 X73.764 Y97.925 E0.84602
G1 X74.276 Y98.349 E0.87697
G1 X74.291 Y98.361 E0.87787
G1 X103.341 Y98.361 E2.23056
G1 X103.919 Y98.401 E2.25753
G1 X104.486 Y98.52 E2.28451
G1 X105.031 Y98.716 E2.31148
G1 X105.544 Y98.985 E2.33845
G1 X106.015 Y99.322 E2.36542
G1 X106.258 Y99.542 E2.38068
G1 X129.138 Y94.952 E3.4673
G1 X130.04 Y94.861 E3.50951
G1 X134.962 Y94.861 E3.7387
G1 X135.429 Y94.887 E3.76048
G1 X136.042 Y94.992 E3.78944
G1 X137.267 Y95.298 E3.84823
G1 X137.818 Y95.477 E3.87521
G1 X138.339 Y95.73 E3.90218
G1 X138.82 Y96.052 E3.92913
G1 X138.962 Y96.179 E3.938
G1 X139.495 Y95.96 E3.96484
G1 X140.057 Y95.816 E3.99185
G1 X140.501 Y95.759 E4.01269
G1 X142.528 Y95.606 E4.10735
G1 X143.107 Y95.602 E4.13431
G1 X143.681 Y95.678 E4.16127
G1 X144.24 Y95.833 E4.18828
G1 X144.772 Y96.062 E4.21525
G1 X144.815 Y96.088 E4.21759
G1 X145.068 Y95.887 E4.23264
G1 X145.566 Y95.591 E4.25961
G1 X146.1 Y95.367 E4.28658
G1 X146.66 Y95.219 E4.31355
G1 X147.436 Y95.143 E4.34986
G1 X147.717 Y95.142 E4.36294
G1 X149.305 Y94.999 E4.43718
G1 X149.884 Y94.987 E4.46415
G1 X150.459 Y95.055 E4.49111
G1 X151.02 Y95.201 E4.5181
G1 X151.555 Y95.423 E4.54508
G1 X152.054 Y95.717 E4.57204
G1 X152.509 Y96.076 E4.59903
G1 X152.909 Y96.495 E4.62601
G1 X153.248 Y96.965 E4.65299
G1 X153.61 Y97.698 E4.69106
G1 X153.644 Y97.788 E4.69554
G1 X153.811 Y98.342 E4.72248
G1 X153.9 Y98.915 E4.74948
G1 X153.909 Y99.494 E4.77644
G1 X153.839 Y100.069 E4.80342
G1 X153.69 Y100.629 E4.8304
G1 X153.465 Y101.163 E4.85738
G1 X153.169 Y101.661 E4.88436
G1 X152.808 Y102.114 E4.91133
G1 X152.387 Y102.512 E4.93831
G1 X151.916 Y102.849 E4.96527
G1 X151.403 Y103.118 E4.99225
G1 X150.858 Y103.314 E5.01922
G1 X150.036 Y103.46 E5.05809
G1 X147.789 Y103.632 E5.16303
G1 X147.209 Y103.636 E5.19003
G1 X146.878 Y103.593 E5.20558
G1 X146.68 Y103.939 E5.22414
G1 X146.251 Y104.489 E5.25662
G1 X145.849 Y104.906 E5.28359
G1 X145.44 Y105.227 E5.3078
G1 X145.45 Y105.233 E5.30834
G1 X145.895 Y105.605 E5.33535
G1 X146.353 Y106.114 E5.36723
G1 X146.694 Y106.582 E5.3942
G1 X146.967 Y107.093 E5.42117
G1 X147.145 Y107.576 E5.44514
G1 X147.196 Y107.539 E5.44808
G1 X147.707 Y107.268 E5.47501
G1 X148.252 Y107.07 E5.50201
G1 X148.818 Y106.948 E5.52897
G1 X149.396 Y106.906 E5.55596
G1 X150.202 Y106.981 E5.59365
G1 X150.521 Y107.042 E5.60877
G1 X151.081 Y107.19 E5.63574
G1 X151.615 Y107.413 E5.66269
G1 X152.114 Y107.708 E5.68968
G1 X152.567 Y108.069 E5.71665
G1 X152.967 Y108.488 E5.74363
G1 X153.305 Y108.959 E5.77062
G1 X153.575 Y109.471 E5.79758
G1 X153.771 Y110.016 E5.82454
G1 X153.891 Y110.583 E5.85153
G1 X153.932 Y111.161 E5.87851
G1 X153.893 Y111.739 E5.90549
G1 X153.775 Y112.306 E5.93246
G1 X153.579 Y112.851 E5.95942
G1 X153.311 Y113.365 E5.98642
G1 X152.975 Y113.836 E6.01336
G1 X152.576 Y114.257 E6.04037
G1 X152.124 Y114.619 E6.06733
G1 X151.626 Y114.916 E6.09433
G1 X151.074 Y115.147 E6.12219
G1 X150.985 Y115.177 E6.12657
G1 X150.424 Y115.324 E6.15357
G1 X149.849 Y115.392 E6.18053
G1 X149.27 Y115.38 E6.2075
G1 X148.698 Y115.289 E6.23447
G1 X148.098 Y115.102 E6.26373
G1 X147.868 Y115.011 E6.27525
G1 X147.345 Y114.762 E6.30222
G1 X146.862 Y114.442 E6.3292
G1 X146.427 Y114.06 E6.35616
G1 X146.049 Y113.621 E6.38313
G1 X145.924 Y113.464 E6.39248
G1 X145.504 Y113.836 E6.4186
G1 X145.037 Y114.179 E6.44558
G1 X144.527 Y114.454 E6.47256
G1 X143.984 Y114.656 E6.49954
G1 X143.419 Y114.781 E6.52649
G1 X142.841 Y114.828 E6.55349
G1 X142.475 Y114.816 E6.57054
G1 X140.465 Y114.663 E6.66441
G1 X139.892 Y114.579 E6.69137
G1 X139.336 Y114.417 E6.71834
G1 X138.807 Y114.181 E6.74531
G1 X138.696 Y114.112 E6.7514
G1 X138.42 Y114.313 E6.76729
G1 X137.909 Y114.587 E6.79429
G1 X137.21 Y114.83 E6.82875
G1 X136.023 Y115.128 E6.88574
G1 X135.486 Y115.226 E6.91116
G1 X134.946 Y115.261 E6.93636
G1 X130.034 Y115.261 E7.16508
G1 X129.464 Y115.223 E7.19168
G1 X129.132 Y115.17 E7.20733
G1 X106.255 Y110.58 E8.29381
G1 X105.874 Y110.911 E8.31731
G1 X105.389 Y111.228 E8.34429
G1 X104.865 Y111.475 E8.37127
G1 X104.312 Y111.647 E8.39823
G1 X103.74 Y111.742 E8.42523
G1 X103.341 Y111.761 E8.44383
G1 X74.699 Y111.761 E9.77753
G1 X74.284 Y112.091 E9.80221
G1 X73.698 Y112.583 E9.83784
G1 X73.268 Y112.93 E9.86357
G1 X72.803 Y113.306 E9.89142
G1 X72.362 Y113.68 E9.91834
G1 X72.047 Y113.937 E9.93727
G1 X71.687 Y114.312 E9.96148
G1 X71.232 Y114.671 E9.98847
G1 X70.733 Y114.964 E10.01541
G1 X70.197 Y115.186 E10.04243
G1 X69.637 Y115.332 E10.06937
G1 X68.862 Y115.404 E10.10562
G1 X62.198 Y115.404 E10.41592
G1 X62.056 Y115.474 E10.42329
G1 X61.506 Y115.656 E10.45027
G1 X60.936 Y115.761 E10.47726
G1 X60.463 Y115.788 E10.49932
G1 X59.334 Y115.788 E10.55189
G1 X58.756 Y115.748 E10.57887
G1 X58.189 Y115.629 E10.60584
G1 X57.644 Y115.433 E10.63281
G1 X57.131 Y115.164 E10.65978
G1 X56.66 Y114.827 E10.68675
G1 X56.24 Y114.428 E10.71373
G1 X55.878 Y113.975 E10.74073
G1 X55.583 Y113.477 E10.76768
G1 X55.358 Y112.943 E10.79466
G1 X55.217 Y112.419 E10.81993
G1 X55.153 Y112.102 E10.83499
G1 X55.078 Y111.528 E10.86194
G1 X55.082 Y110.948 E10.88895
G1 X55.167 Y110.375 E10.91592
G1 X55.329 Y109.819 E10.94289
G1 X55.566 Y109.291 E10.96984
G1 X55.874 Y108.8 E10.99683
G1 X56.182 Y108.37 E11.02146
G1 X56.56 Y107.93 E11.04847
G1 X56.995 Y107.548 E11.07543
G1 X57.438 Y107.255 E11.10016
G1 X57.352 Y107.056 E11.11025
G1 X57.199 Y106.498 E11.13719
G1 X57.116 Y105.663 E11.17627
G1 X57.117 Y104.464 E11.2321
G1 X57.157 Y103.887 E11.25903
G1 X57.277 Y103.32 E11.28602
G1 X57.379 Y103.035 E11.30011
G1 X56.861 Y102.786 E11.32687
G1 X56.378 Y102.465 E11.35388
G1 X55.944 Y102.081 E11.38086
G1 X55.568 Y101.641 E11.40781
G1 X55.255 Y101.153 E11.43481
G1 X55.013 Y100.627 E11.46177
G1 X54.845 Y100.073 E11.48872
G1 X54.755 Y99.5 E11.51573
G1 X54.745 Y98.921 E11.5427
G1 X54.812 Y98.357 E11.56914
G1 X54.873 Y98.034 E11.58445
G1 X55.019 Y97.473 E11.61144
G1 X55.242 Y96.938 E11.63843
G1 X55.535 Y96.439 E11.66538
G1 X55.895 Y95.985 E11.69236
G1 X56.314 Y95.584 E11.71936
G1 X56.784 Y95.245 E11.74635
M204 S3000
M205 X10 Y10
G0 F3000 X57.273 Y95.609
M204 S1800
M205 X8 Y8
G1 F2400 X57.765 Y95.389 E11.77144
G1 X58.284 Y95.244 E11.79653
G1 X59 Y95.173 E11.83004
G1 X68.26 Y95.173 E12.26122
G1 X68.798 Y95.213 E12.28634
G1 X69.324 Y95.332 E12.31145
G1 X69.826 Y95.527 E12.33653
G1 X70.295 Y95.795 E12.36168
G1 X70.718 Y96.128 E12.38675
G1 X71.005 Y96.4 E12.40516
G1 X71.582 Y96.854 E12.43935
G1 X71.975 Y97.183 E12.46322
G1 X72.406 Y97.533 E12.48907
G1 X72.992 Y98.011 E12.52428
G1 X73.426 Y98.372 E12.55057
G1 X73.902 Y98.767 E12.57937
G1 X74.096 Y98.921 E12.5909
G1 X103.341 Y98.921 E13.95267
G1 X103.879 Y98.961 E13.9778
G1 X104.405 Y99.08 E14.00291
G1 X104.907 Y99.275 E14.02798
G1 X105.376 Y99.543 E14.05314
G1 X105.915 Y99.987 E14.08565
G1 X106.072 Y100.151 E14.09622
G1 X129.248 Y95.501 E15.1969
G1 X130.04 Y95.421 E15.23397
G1 X134.962 Y95.421 E15.46316
G1 X135.375 Y95.444 E15.48242
G1 X135.906 Y95.536 E15.50751
G1 X137.131 Y95.842 E15.56631
G1 X137.643 Y96.011 E15.59141
G1 X138.125 Y96.253 E15.61653
G1 X138.565 Y96.565 E15.64164
G1 X138.881 Y96.868 E15.66203
G1 X139.308 Y96.634 E15.6847
G1 X139.814 Y96.448 E15.70981
G1 X140.543 Y96.317 E15.74429
G1 X142.57 Y96.164 E15.83895
G1 X143.109 Y96.164 E15.86405
G1 X143.643 Y96.243 E15.88918
G1 X144.159 Y96.4 E15.9143
G1 X144.646 Y96.631 E15.9394
G1 X144.871 Y96.788 E15.95217
G1 X145.192 Y96.491 E15.97253
G1 X145.638 Y96.188 E15.99764
G1 X146.124 Y95.955 E16.02274
G1 X146.639 Y95.795 E16.04785
G1 X147.438 Y95.703 E16.0853
G1 X147.747 Y95.702 E16.09969
G1 X149.355 Y95.557 E16.17487
G1 X149.894 Y95.548 E16.19997
G1 X150.429 Y95.62 E16.22511
G1 X150.947 Y95.769 E16.2502
G1 X151.437 Y95.994 E16.27531
G1 X151.889 Y96.288 E16.30042
G1 X152.292 Y96.646 E16.32552
G1 X152.638 Y97.06 E16.35064
G1 X152.919 Y97.52 E16.37574
G1 X153.12 Y97.986 E16.39937
G1 X153.273 Y98.503 E16.42448
G1 X153.347 Y99.037 E16.44958
G1 X153.342 Y99.576 E16.47468
G1 X153.258 Y100.109 E16.49981
G1 X153.095 Y100.623 E16.52491
G1 X152.858 Y101.107 E16.55001
G1 X152.553 Y101.552 E16.57513
G1 X152.185 Y101.946 E16.60023
G1 X151.763 Y102.281 E16.62532
G1 X151.296 Y102.551 E16.65044
G1 X150.794 Y102.748 E16.67555
G1 X150.268 Y102.87 E16.70069
G1 X149.993 Y102.901 E16.71358
G1 X147.746 Y103.073 E16.81852
G1 X147.207 Y103.075 E16.84361
G1 X146.673 Y102.996 E16.86875
G1 X146.558 Y102.961 E16.87435
G1 X146.396 Y103.325 E16.8929
G1 X145.974 Y103.948 E16.92794
G1 X145.822 Y104.129 E16.93894
G1 X145.446 Y104.515 E16.96404
G1 X145.017 Y104.841 E16.98913
G1 X144.544 Y105.101 E17.01426
G1 X144.227 Y105.217 E17.02998
G1 X144.307 Y105.242 E17.03388
G1 X144.794 Y105.475 E17.05902
G1 X145.24 Y105.777 E17.0841
G1 X145.773 Y106.294 E17.11867
G1 X145.924 Y106.474 E17.12961
G1 X146.239 Y106.911 E17.1547
G1 X146.486 Y107.391 E17.17984
G1 X146.659 Y107.901 E17.20491
G1 X146.755 Y108.432 E17.23004
G1 X146.756 Y108.625 E17.23903
G1 X147.099 Y108.296 E17.26116
G1 X147.54 Y107.985 E17.28628
G1 X148.021 Y107.743 E17.31136
G1 X148.534 Y107.574 E17.33651
G1 X149.065 Y107.483 E17.36159
G1 X149.604 Y107.471 E17.3867
G1 X150.416 Y107.592 E17.42492
G1 X150.936 Y107.732 E17.45
G1 X151.431 Y107.948 E17.47515
G1 X151.888 Y108.234 E17.50025
G1 X152.297 Y108.585 E17.52535
G1 X152.651 Y108.992 E17.55047
G1 X152.94 Y109.447 E17.57556
G1 X153.159 Y109.94 E17.60068
G1 X153.303 Y110.46 E17.62581
G1 X153.368 Y110.995 E17.6509
G1 X153.353 Y111.534 E17.67601
G1 X153.26 Y112.065 E17.70111
G1 X153.088 Y112.576 E17.72622
G1 X152.843 Y113.057 E17.75135
G1 X152.53 Y113.496 E17.77646
G1 X152.155 Y113.883 E17.80155
G1 X151.727 Y114.212 E17.82669
G1 X151.255 Y114.473 E17.8518
G1 X150.806 Y114.646 E17.87421
G1 X150.283 Y114.78 E17.89935
G1 X149.747 Y114.836 E17.92444
G1 X149.208 Y114.811 E17.94957
G1 X148.679 Y114.707 E17.97467
G1 X148.074 Y114.491 E18.00459
G1 X147.588 Y114.256 E18.02972
G1 X147.143 Y113.952 E18.05482
G1 X146.748 Y113.585 E18.07992
G1 X146.411 Y113.164 E18.10503
G1 X146.14 Y112.698 E18.13014
G1 X146.034 Y112.433 E18.14343
G1 X145.769 Y112.806 E18.16473
G1 X145.317 Y113.262 E18.19463
G1 X145.143 Y113.409 E18.20524
G1 X144.707 Y113.725 E18.23031
G1 X144.228 Y113.974 E18.25545
G1 X143.718 Y114.149 E18.28055
G1 X143.188 Y114.247 E18.30565
G1 X142.518 Y114.258 E18.33685
G1 X140.508 Y114.105 E18.43072
G1 X139.975 Y114.024 E18.45582
G1 X139.459 Y113.865 E18.48096
G1 X138.973 Y113.632 E18.50606
G1 X138.659 Y113.42 E18.5237
G1 X138.322 Y113.704 E18.54422
G1 X137.863 Y113.987 E18.56933
G1 X137.368 Y114.199 E18.59441
G1 X137.073 Y114.286 E18.60873
G1 X135.886 Y114.584 E18.66571
G1 X135.414 Y114.671 E18.68806
G1 X134.946 Y114.701 E18.7099
G1 X130.034 Y114.701 E18.93862
G1 X129.53 Y114.667 E18.96214
G1 X129.242 Y114.621 E18.97572
G1 X106.07 Y109.972 E20.07621
G1 X105.915 Y110.135 E20.08669
G1 X105.506 Y110.487 E20.11181
G1 X105.05 Y110.775 E20.13693
G1 X104.557 Y110.992 E20.16201
G1 X104.037 Y111.134 E20.18711
G1 X103.341 Y111.201 E20.21967
G1 X74.502 Y111.201 E21.56253
G1 X74.05 Y111.567 E21.58961
G1 X73.622 Y111.913 E21.61524
G1 X73.144 Y112.3 E21.64388
G1 X72.71 Y112.669 E21.6704
G1 X72.259 Y113.031 E21.69733
G1 X71.759 Y113.44 E21.72741
G1 X71.658 Y113.535 E21.73387
G1 X71.282 Y113.923 E21.75903
G1 X70.854 Y114.25 E21.78411
G1 X70.382 Y114.511 E21.80922
G1 X69.877 Y114.7 E21.83433
G1 X69.349 Y114.811 E21.85945
G1 X68.862 Y114.844 E21.88218
G1 X62.071 Y114.844 E22.1984
G1 X61.74 Y114.997 E22.21538
G1 X61.222 Y115.148 E22.2405
G1 X60.463 Y115.228 E22.27604
G1 X59.334 Y115.228 E22.32861
G1 X58.796 Y115.188 E22.35373
G1 X58.27 Y115.069 E22.37884
G1 X57.768 Y114.874 E22.40392
G1 X57.299 Y114.606 E22.42907
G1 X56.876 Y114.273 E22.45414
G1 X56.506 Y113.88 E22.47928
G1 X56.199 Y113.437 E22.50437
G1 X55.96 Y112.953 E22.52951
G1 X55.766 Y112.308 E22.56087
G1 X55.702 Y111.991 E22.57593
G1 X55.635 Y111.456 E22.60104
G1 X55.647 Y110.917 E22.62614
G1 X55.739 Y110.386 E22.65123
G1 X55.909 Y109.874 E22.67635
G1 X56.152 Y109.393 E22.70145
G1 X56.693 Y108.629 E22.74504
G1 X57.011 Y108.272 E22.7673
G1 X57.425 Y107.926 E22.79242
G1 X57.885 Y107.645 E22.81752
G1 X58.186 Y107.506 E22.83296
G1 X58.062 Y107.299 E22.8442
G1 X57.857 Y106.8 E22.86932
G1 X57.727 Y106.277 E22.89441
G1 X57.676 Y105.664 E22.92305
G1 X57.677 Y104.465 E22.97889
G1 X57.717 Y103.927 E23.00401
G1 X57.837 Y103.401 E23.02913
G1 X58.033 Y102.899 E23.05422
G1 X58.134 Y102.723 E23.06367
G1 X57.59 Y102.517 E23.09076
G1 X57.105 Y102.28 E23.11589
G1 X56.661 Y101.975 E23.14098
G1 X56.267 Y101.607 E23.16608
G1 X55.931 Y101.185 E23.1912
G1 X55.661 Y100.718 E23.21632
G1 X55.463 Y100.217 E23.2414
G1 X55.342 Y99.691 E23.26653
G1 X55.299 Y99.154 E23.29162
G1 X55.362 Y98.461 E23.32402
G1 X55.423 Y98.138 E23.33933
G1 X55.562 Y97.616 E23.36448
G1 X55.777 Y97.122 E23.38957
G1 X56.062 Y96.664 E23.41468
G1 X56.412 Y96.254 E23.43979
G1 X56.818 Y95.899 E23.4649
G1 X57.273 Y95.609 E23.49002
M204 S3000
M205 X10 Y10
G0 F3000 X57.317 Y96.233
M204 S1800
M205 X8 Y8
G1 F2400 X57.753 Y95.997 E23.51311
G1 X58.221 Y95.833 E23.5362
G1 X59 Y95.733 E23.57277
G1 X68.26 Y95.733 E24.00395
G1 X68.754 Y95.773 E24.02703
G1 X69.236 Y95.892 E24.05015
G1 X69.692 Y96.086 E24.07323
G1 X70.111 Y96.351 E24.09631
G1 X70.764 Y96.924 E24.13676
G1 X71.117 Y97.202 E24.15769
G1 X71.599 Y97.593 E24.18659
G1 X72.054 Y97.968 E24.21404
G1 X72.639 Y98.446 E24.24922
G1 X73.076 Y98.809 E24.27567
G1 X73.481 Y99.149 E24.30029
G1 X73.902 Y99.481 E24.32526
G1 X103.341 Y99.481 E25.69606
G1 X103.835 Y99.521 E25.71914
G1 X104.317 Y99.64 E25.74226
G1 X104.773 Y99.834 E25.76533
G1 X105.192 Y100.099 E25.78842
G1 X105.636 Y100.5 E25.81628
G1 X105.86 Y100.764 E25.8324
G1 X129.358 Y96.05 E26.94836
G1 X130.04 Y95.981 E26.98028
G1 X134.962 Y95.981 E27.20947
G1 X135.77 Y96.079 E27.24737
G1 X136.995 Y96.385 E27.30617
G1 X137.465 Y96.543 E27.32925
G1 X137.904 Y96.775 E27.35238
G1 X138.299 Y97.075 E27.37547
G1 X138.642 Y97.434 E27.39859
G1 X138.782 Y97.638 E27.41011
G1 X139.208 Y97.321 E27.43484
G1 X139.65 Y97.097 E27.45791
G1 X140.123 Y96.946 E27.48103
G1 X140.585 Y96.876 E27.50279
G1 X142.612 Y96.723 E27.59744
G1 X143.108 Y96.725 E27.62054
G1 X143.597 Y96.808 E27.64364
G1 X144.067 Y96.967 E27.66674
G1 X144.505 Y97.2 E27.68984
G1 X144.96 Y97.55 E27.71657
G1 X145.374 Y97.071 E27.74605
G1 X145.766 Y96.767 E27.76915
G1 X146.201 Y96.529 E27.79224
G1 X146.669 Y96.365 E27.81533
G1 X147.441 Y96.263 E27.85159
G1 X147.764 Y96.262 E27.86663
G1 X149.405 Y96.114 E27.94335
G1 X149.901 Y96.11 E27.96645
G1 X150.391 Y96.185 E27.98953
G1 X150.863 Y96.338 E28.01264
G1 X151.304 Y96.565 E28.03573
G1 X151.703 Y96.859 E28.05881
G1 X152.05 Y97.214 E28.08192
G1 X152.335 Y97.62 E28.10502
G1 X152.562 Y98.094 E28.12949
G1 X152.734 Y98.66 E28.15704
G1 X152.793 Y99.153 E28.18016
G1 X152.772 Y99.648 E28.20323
G1 X152.672 Y100.134 E28.22633
G1 X152.495 Y100.597 E28.24941
G1 X152.246 Y101.026 E28.27251
G1 X151.932 Y101.41 E28.29561
G1 X151.56 Y101.738 E28.3187
